;FLAVOR:Marlin
;TIME:5945
;Filament used: 11.0399m
;Layer height: 0.4
;MINX:81.21
;MINY:85.385
;MINZ:0.24
;MAXX:153.79
;MAXY:149.615
;MAXZ:16.59
;Generated with Cura_SteamEngine 5.3.1
M140 S60
M105
M190 S60
M104 S200
M105
M109 S200
M82 ;absolute extrusion mode
; Ender 3 Custom Start G-code
G92 E0 ; Reset Extruder
G28 ; Home all axes
G1 Z2.0 F3000 ; Move Z Axis up little to prevent scratching of Heat Bed
G1 X0.1 Y20 Z0.3 F5000.0 ; Move to start position
G1 X0.1 Y200.0 Z0.3 F1500.0 E15 ; Draw the first line
G1 X0.4 Y200.0 Z0.3 F5000.0 ; Move to side a little
G1 X0.4 Y20 Z0.3 F1500.0 E30 ; Draw the second line
G92 E0 ; Reset Extruder
G1 Z2.0 F3000 ; Move Z Axis up little to prevent scratching of Heat Bed
G1 X5 Y20 Z0.3 F5000.0 ; Move over to prevent blob squish
G92 E0
G92 E0
G1 F2700 E-5
;LAYER_COUNT:38
;LAYER:-5
M107
G0 F15000 X82.246 Y86.463 Z0.24
;TYPE:SUPPORT-INTERFACE
G1 F2700 E0
G1 F2250 X82.638 Y86.121 E0.04153
G1 X83.041 Y85.854 E0.08012
G1 X83.512 Y85.633 E0.12165
G1 X84.007 Y85.48 E0.163
G1 X84.43 Y85.415 E0.19716
G1 X84.814 Y85.385 E0.22791
G1 X150.071 Y85.385 E5.43701
G1 X150.552 Y85.414 E5.47547
G1 X150.939 Y85.467 E5.50665
G1 X151.434 Y85.61 E5.54778
G1 X151.891 Y85.816 E5.5878
G1 X152.315 Y86.084 E5.62784
G1 X152.712 Y86.422 E5.66946
G1 X153.054 Y86.813 E5.71092
G1 X153.327 Y87.227 E5.75051
G1 X153.543 Y87.686 E5.791
G1 X153.694 Y88.177 E5.83201
G1 X153.759 Y88.604 E5.86648
G1 X153.79 Y89.078 E5.9044
G1 X153.79 Y145.896 E10.43986
G1 X153.762 Y146.376 E10.47824
G1 X153.708 Y146.766 E10.50967
G1 X153.564 Y147.26 E10.55074
G1 X153.359 Y147.715 E10.59058
G1 X153.091 Y148.14 E10.63069
G1 X152.753 Y148.537 E10.67231
G1 X152.361 Y148.88 E10.71389
G1 X151.963 Y149.143 E10.75197
G1 X151.489 Y149.368 E10.79385
G1 X150.993 Y149.52 E10.83526
G1 X150.57 Y149.585 E10.86942
G1 X150.186 Y149.614 E10.90016
G1 X84.929 Y149.615 E16.10926
G1 X84.448 Y149.586 E16.14772
G1 X84.061 Y149.533 E16.1789
G1 X83.572 Y149.391 E16.21955
G1 X83.112 Y149.186 E16.25975
G1 X82.671 Y148.906 E16.30145
G1 X82.287 Y148.577 E16.34181
G1 X81.949 Y148.192 E16.38271
G1 X81.673 Y147.773 E16.42276
G1 X81.456 Y147.312 E16.46343
G1 X81.306 Y146.816 E16.50479
G1 X81.241 Y146.396 E16.53872
G1 X81.211 Y145.922 E16.57663
G1 X81.21 Y89.104 E21.11209
G1 X81.239 Y88.622 E21.15063
G1 X81.291 Y88.238 E21.18157
G1 X81.436 Y87.741 E21.22289
G1 X81.641 Y87.284 E21.26288
G1 X81.909 Y86.861 E21.30285
G1 X82.246 Y86.463 E21.34448
G0 F15000 X82.387 Y86.913
G1 F2250 X144.688 Y149.214 E28.37755
G1 F2700 E23.37755
G1 F300 Z0.44
G0 F15000 X142.426 Y149.214 Z0.44
G1 F300 Z0.24
G1 F2700 E28.37755
G1 F2250 X81.665 Y88.453 E35.23678
G1 F2700 E30.23678
G1 F300 Z0.44
G0 F15000 X81.61 Y90.66 Z0.44
G1 F300 Z0.24
G1 F2700 E35.23678
G1 F2250 X140.163 Y149.214 E41.8468
G1 F2700 E36.8468
G1 F300 Z0.44
G0 F15000 X137.9 Y149.214 Z0.44
G1 F300 Z0.24
G1 F2700 E41.8468
G1 F2250 X81.61 Y92.923 E48.20136
G1 F2700 E43.20136
G1 F300 Z0.44
G0 F15000 X81.61 Y95.186 Z0.44
G1 F300 Z0.24
G1 F2700 E48.20136
G1 F2250 X135.637 Y149.214 E54.30045
G1 F2700 E49.30045
G1 F300 Z0.44
G0 F15000 X133.375 Y149.214 Z0.44
G1 F300 Z0.24
G1 F2700 E54.30045
G1 F2250 X81.61 Y97.449 E60.14413
G1 F2700 E55.14413
G1 F300 Z0.44
G0 F15000 X81.61 Y99.711 Z0.44
G1 F300 Z0.24
G1 F2700 E60.14413
G1 F2250 X131.112 Y149.214 E65.7324
G1 F2700 E60.7324
G1 F300 Z0.44
G0 F15000 X128.849 Y149.214 Z0.44
G1 F300 Z0.24
G1 F2700 E65.7324
G1 F2250 X81.61 Y101.974 E71.06521
G1 F2700 E66.06521
G1 F300 Z0.44
G0 F15000 X81.61 Y104.237 Z0.44
G1 F300 Z0.24
G1 F2700 E71.06521
G1 F2250 X126.586 Y149.214 E76.14254
G1 F2700 E71.14254
G1 F300 Z0.44
G0 F15000 X124.324 Y149.214 Z0.44
G1 F300 Z0.24
G1 F2700 E76.14254
G1 F2250 X81.61 Y106.5 E80.96447
G1 F2700 E75.96447
G1 F300 Z0.44
G0 F15000 X81.61 Y108.762 Z0.44
G1 F300 Z0.24
G1 F2700 E80.96447
G1 F2250 X122.061 Y149.214 E85.53098
G1 F2700 E80.53098
G1 F300 Z0.44
G0 F15000 X119.798 Y149.214 Z0.44
G1 F300 Z0.24
G1 F2700 E85.53098
G1 F2250 X81.61 Y111.025 E89.84203
G1 F2700 E84.84203
G1 F300 Z0.44
G0 F15000 X81.61 Y113.288 Z0.44
G1 F300 Z0.24
G1 F2700 E89.84203
G1 F2250 X117.535 Y149.214 E93.89761
G1 F2700 E88.89761
G1 F300 Z0.44
G0 F15000 X115.273 Y149.214 Z0.44
G1 F300 Z0.24
G1 F2700 E93.89761
G1 F2250 X81.61 Y115.551 E97.69778
G1 F2700 E92.69778
G1 F300 Z0.44
G0 F15000 X81.61 Y117.813 Z0.44
G1 F300 Z0.24
G1 F2700 E97.69778
G1 F2250 X113.01 Y149.214 E101.24254
G1 F2700 E96.24254
G1 F300 Z0.44
G0 F15000 X110.747 Y149.214 Z0.44
G1 F300 Z0.24
G1 F2700 E101.24254
G1 F2250 X81.61 Y120.076 E104.53184
G1 F2700 E99.53184
G1 F300 Z0.44
G0 F15000 X81.61 Y122.339 Z0.44
G1 F300 Z0.24
G1 F2700 E104.53184
G1 F2250 X108.485 Y149.214 E107.56572
G1 F2700 E102.56572
G1 F300 Z0.44
G0 F15000 X106.222 Y149.214 Z0.44
G1 F300 Z0.24
G1 F2700 E107.56572
G1 F2250 X81.61 Y124.602 E110.34413
G1 F2700 E105.34413
G1 F300 Z0.44
G0 F15000 X81.61 Y126.864 Z0.44
G1 F300 Z0.24
G1 F2700 E110.34413
G1 F2250 X103.959 Y149.214 E112.86714
G1 F2700 E107.86714
G1 F300 Z0.44
G0 F15000 X101.696 Y149.214 Z0.44
G1 F300 Z0.24
G1 F2700 E112.86714
G1 F2250 X81.61 Y129.127 E115.13468
G1 F2700 E110.13468
G1 F300 Z0.44
G0 F15000 X81.61 Y131.39 Z0.44
G1 F300 Z0.24
G1 F2700 E115.13468
G1 F2250 X99.434 Y149.214 E117.1468
G1 F2700 E112.1468
G1 F300 Z0.44
G0 F15000 X97.171 Y149.214 Z0.44
G1 F300 Z0.24
G1 F2700 E117.1468
G1 F2250 X81.61 Y133.653 E118.90346
G1 F2700 E113.90346
G1 F300 Z0.44
G0 F15000 X81.61 Y135.915 Z0.44
G1 F300 Z0.24
G1 F2700 E118.90346
G1 F2250 X94.908 Y149.214 E120.40471
G1 F2700 E115.40471
G1 F300 Z0.44
G0 F15000 X92.645 Y149.214 Z0.44
G1 F300 Z0.24
G1 F2700 E120.40471
G1 F2250 X81.61 Y138.178 E121.65049
G1 F2700 E116.65049
G1 F300 Z0.44
G0 F15000 X81.61 Y140.441 Z0.44
G1 F300 Z0.24
G1 F2700 E121.65049
G1 F2250 X90.383 Y149.214 E122.64087
G1 F2700 E117.64087
G1 F300 Z0.44
G0 F15000 X88.12 Y149.214 Z0.44
G1 F300 Z0.24
G1 F2700 E122.64087
G1 F2250 X81.61 Y142.704 E123.37577
G1 F2700 E118.37577
G1 F300 Z0.44
G0 F15000 X81.61 Y144.966 Z0.44
G1 F300 Z0.24
G1 F2700 E123.37577
G1 F2250 X85.857 Y149.214 E123.85527
G1 F2700 E118.85527
G1 F300 Z0.44
G0 F15000 X83.056 Y148.676 Z0.44
G1 F300 Z0.24
G1 F2700 E123.85527
G1 F2250 X82.15 Y147.77 E123.95754
G1 F2700 E118.95754
G1 F300 Z0.44
G0 F15000 X83.723 Y85.986 Z0.44
G1 F300 Z0.24
G1 F2700 E123.95754
G1 F2250 X146.951 Y149.214 E131.09527
G1 F2700 E126.09527
G1 F300 Z0.44
G0 F15000 X149.214 Y149.214 Z0.44
G1 F300 Z0.24
G1 F2700 E131.09527
G1 F2250 X85.784 Y85.784 E138.25579
G1 F2700 E133.25579
G1 F300 Z0.44
G0 F15000 X88.047 Y85.784 Z0.44
G1 F300 Z0.24
G1 F2700 E138.25579
G1 F2250 X151.277 Y149.014 E145.39374
G1 F2700 E140.39374
G1 F300 Z0.44
G0 F15000 X152.611 Y148.085 Z0.44
G1 F300 Z0.24
G1 F2700 E145.39374
G1 F2250 X90.31 Y85.784 E152.42682
G1 F2700 E147.42682
G1 F300 Z0.44
G0 F15000 X92.573 Y85.784 Z0.44
G1 F300 Z0.24
G1 F2700 E152.42682
G1 F2250 X153.333 Y146.545 E159.28599
G1 F2700 E154.28599
G1 F300 Z0.44
G0 F15000 X153.389 Y144.338 Z0.44
G1 F300 Z0.24
G1 F2700 E159.28599
G1 F2250 X94.835 Y85.784 E165.89607
G1 F2700 E160.89607
G1 F300 Z0.44
G0 F15000 X97.098 Y85.784 Z0.44
G1 F300 Z0.24
G1 F2700 E165.89607
G1 F2250 X153.389 Y142.075 E172.25068
G1 F2700 E167.25068
G1 F300 Z0.44
G0 F15000 X153.389 Y139.812 Z0.44
G1 F300 Z0.24
G1 F2700 E172.25068
G1 F2250 X99.361 Y85.784 E178.34983
G1 F2700 E173.34983
G1 F300 Z0.44
G0 F15000 X101.623 Y85.784 Z0.44
G1 F300 Z0.24
G1 F2700 E178.34983
G1 F2250 X153.389 Y137.549 E184.19357
G1 F2700 E179.19357
G1 F300 Z0.44
G0 F15000 X153.389 Y135.287 Z0.44
G1 F300 Z0.24
G1 F2700 E184.19357
G1 F2250 X103.886 Y85.784 E189.78189
G1 F2700 E184.78189
G1 F300 Z0.44
G0 F15000 X106.149 Y85.784 Z0.44
G1 F300 Z0.24
G1 F2700 E189.78189
G1 F2250 X153.389 Y133.024 E195.11475
G1 F2700 E190.11475
G1 F300 Z0.44
G0 F15000 X153.389 Y130.761 Z0.44
G1 F300 Z0.24
G1 F2700 E195.11475
G1 F2250 X108.412 Y85.784 E200.19215
G1 F2700 E195.19215
G1 F300 Z0.44
G0 F15000 X110.674 Y85.784 Z0.44
G1 F300 Z0.24
G1 F2700 E200.19215
G1 F2250 X153.389 Y128.498 E205.01413
G1 F2700 E200.01413
G1 F300 Z0.44
G0 F15000 X153.389 Y126.236 Z0.44
G1 F300 Z0.24
G1 F2700 E205.01413
G1 F2250 X112.937 Y85.784 E209.5807
G1 F2700 E204.5807
G1 F300 Z0.44
G0 F15000 X115.2 Y85.784 Z0.44
G1 F300 Z0.24
G1 F2700 E209.5807
G1 F2250 X153.389 Y123.973 E213.8918
G1 F2700 E208.8918
G1 F300 Z0.44
G0 F15000 X153.389 Y121.71 Z0.44
G1 F300 Z0.24
G1 F2700 E213.8918
G1 F2250 X117.463 Y85.784 E217.94744
G1 F2700 E212.94744
G1 F300 Z0.44
G0 F15000 X119.725 Y85.784 Z0.44
G1 F300 Z0.24
G1 F2700 E217.94744
G1 F2250 X153.389 Y119.448 E221.74772
G1 F2700 E216.74772
G1 F300 Z0.44
G0 F15000 X153.389 Y117.185 Z0.44
G1 F300 Z0.24
G1 F2700 E221.74772
G1 F2250 X121.988 Y85.784 E225.29254
G1 F2700 E220.29254
G1 F300 Z0.44
G0 F15000 X124.251 Y85.784 Z0.44
G1 F300 Z0.24
G1 F2700 E225.29254
G1 F2250 X153.389 Y114.922 E228.58189
G1 F2700 E223.58189
G1 F300 Z0.44
G0 F15000 X153.389 Y112.659 Z0.44
G1 F300 Z0.24
G1 F2700 E228.58189
G1 F2250 X126.514 Y85.784 E231.61577
G1 F2700 E226.61577
G1 F300 Z0.44
G0 F15000 X128.776 Y85.784 Z0.44
G1 F300 Z0.24
G1 F2700 E231.61577
G1 F2250 X153.389 Y110.397 E234.3943
G1 F2700 E229.3943
G1 F300 Z0.44
G0 F15000 X153.389 Y108.134 Z0.44
G1 F300 Z0.24
G1 F2700 E234.3943
G1 F2250 X131.039 Y85.784 E236.91736
G1 F2700 E231.91736
G1 F300 Z0.44
G0 F15000 X133.302 Y85.784 Z0.44
G1 F300 Z0.24
G1 F2700 E236.91736
G1 F2250 X153.389 Y105.871 E239.18496
G1 F2700 E234.18496
G1 F300 Z0.44
G0 F15000 X153.389 Y103.608 Z0.44
G1 F300 Z0.24
G1 F2700 E239.18496
G1 F2250 X135.565 Y85.784 E241.19708
G1 F2700 E236.19708
G1 F300 Z0.44
G0 F15000 X137.827 Y85.784 Z0.44
G1 F300 Z0.24
G1 F2700 E241.19708
G1 F2250 X153.389 Y101.346 E242.95386
G1 F2700 E237.95386
G1 F300 Z0.44
G0 F15000 X153.389 Y99.083 Z0.44
G1 F300 Z0.24
G1 F2700 E242.95386
G1 F2250 X140.09 Y85.784 E244.45516
G1 F2700 E239.45516
G1 F300 Z0.44
G0 F15000 X142.353 Y85.784 Z0.44
G1 F300 Z0.24
G1 F2700 E244.45516
G1 F2250 X153.389 Y96.82 E245.701
G1 F2700 E240.701
G1 F300 Z0.44
G0 F15000 X153.389 Y94.557 Z0.44
G1 F300 Z0.24
G1 F2700 E245.701
G1 F2250 X144.616 Y85.784 E246.69137
G1 F2700 E241.69137
G1 F300 Z0.44
G0 F15000 X146.878 Y85.784 Z0.44
G1 F300 Z0.24
G1 F2700 E246.69137
G1 F2250 X153.389 Y92.295 E247.42639
G1 F2700 E242.42639
G1 F300 Z0.44
G0 F15000 X153.389 Y90.032 Z0.44
G1 F300 Z0.24
G1 F2700 E247.42639
G1 F2250 X149.141 Y85.784 E247.90594
G1 F2700 E242.90594
G1 F300 Z0.44
G0 F15000 X151.94 Y86.321 Z0.44
G1 F300 Z0.24
G1 F2700 E247.90594
G1 F2250 X152.848 Y87.229 E248.00844
G1 F2700 E243.00844
G1 F300 Z0.44
G0 F15000 X150.897 Y149.129 Z0.44
;TIME_ELAPSED:116.700241
;LAYER:-4
G0 X150.897 Y149.129 Z1.04
;TYPE:SUPPORT
G1 F300 Z0.84
G1 F2700 E248.00844
G1 F2250 X151.339 Y148.994 E248.10067
G1 X151.769 Y148.792 E248.19548
G1 X152.112 Y148.566 E248.27745
G1 X152.474 Y148.247 E248.37374
G1 X152.758 Y147.914 E248.46108
G1 X153 Y147.532 E248.55132
G1 X153.188 Y147.117 E248.64224
G1 X153.314 Y146.677 E248.73358
G1 X153.343 Y146.469 E248.77549
G1 X150.633 Y149.179 E249.54031
G1 X150.079 Y149.215 E249.6511
G1 X149.183 Y149.215 E249.8299
G1 X153.389 Y145.009 E251.01693
G1 X153.389 Y143.595 E251.29911
G1 X147.769 Y149.215 E252.88519
G1 X146.355 Y149.215 E253.16737
G1 X153.389 Y142.181 E255.15252
G1 X153.389 Y140.767 E255.4347
G1 X144.941 Y149.215 E257.81891
G1 X143.527 Y149.215 E258.10109
G1 X153.389 Y139.353 E260.88435
G1 X153.389 Y137.938 E261.16673
G1 X142.112 Y149.215 E264.34935
G1 X140.698 Y149.215 E264.63153
G1 X153.389 Y136.524 E268.2132
G1 X153.389 Y135.11 E268.49538
G1 X139.284 Y149.215 E272.47611
G1 X137.87 Y149.215 E272.75829
G1 X153.389 Y133.696 E277.13809
G1 X153.389 Y132.282 E277.42027
G1 X136.456 Y149.215 E282.19913
G1 X135.041 Y149.215 E282.48151
G1 X153.389 Y130.867 E287.65971
G1 X153.389 Y129.453 E287.94189
G1 X133.627 Y149.215 E293.51915
G1 X132.213 Y149.215 E293.80133
G1 X153.389 Y128.039 E299.77765
G1 X153.389 Y126.625 E300.05983
G1 X130.799 Y149.215 E306.43522
G1 X129.384 Y149.215 E306.7176
G1 X153.389 Y125.21 E313.49233
G1 X153.389 Y123.796 E313.77451
G1 X127.97 Y149.215 E320.9483
G1 X126.556 Y149.215 E321.23048
G1 X153.389 Y122.382 E328.80333
G1 X153.389 Y120.968 E329.08551
G1 X125.142 Y149.215 E337.05742
G1 X123.728 Y149.215 E337.3396
G1 X153.389 Y119.554 E345.71058
G1 X153.389 Y118.139 E345.99295
G1 X122.313 Y149.215 E354.76327
G1 X120.899 Y149.215 E355.04545
G1 X153.389 Y116.725 E364.21483
G1 X153.389 Y115.311 E364.49701
G1 X119.485 Y149.215 E374.06545
G1 X118.071 Y149.215 E374.34763
G1 X153.389 Y113.897 E384.31513
G1 X153.389 Y112.483 E384.59731
G1 X116.657 Y149.215 E394.96388
G1 X115.242 Y149.215 E395.24625
G1 X153.389 Y111.068 E406.01216
G1 X153.389 Y109.654 E406.29434
G1 X113.828 Y149.215 E417.45931
G1 X112.414 Y149.215 E417.74149
G1 X153.389 Y108.24 E429.30552
G1 X153.389 Y106.826 E429.5877
G1 X111 Y149.215 E441.55079
G1 X109.585 Y149.215 E441.83317
G1 X153.389 Y105.411 E454.1956
G1 X153.389 Y103.997 E454.47778
G1 X108.171 Y149.215 E467.23928
G1 X106.757 Y149.215 E467.52146
G1 X153.389 Y102.583 E480.68202
G1 X153.389 Y101.169 E480.9642
G1 X105.343 Y149.215 E494.52381
G1 X103.929 Y149.215 E494.80599
G1 X153.389 Y99.755 E508.76467
G1 X153.389 Y98.34 E509.04705
G1 X102.514 Y149.215 E523.40508
G1 X101.1 Y149.215 E523.68726
G1 X153.389 Y96.926 E538.44434
G1 X153.389 Y95.512 E538.72652
G1 X99.686 Y149.215 E553.88267
G1 X98.272 Y149.215 E554.16485
G1 X153.389 Y94.098 E569.72005
G1 X153.389 Y92.684 E570.00223
G1 X96.858 Y149.215 E585.9565
G1 X95.443 Y149.215 E586.23888
G1 X153.389 Y91.269 E602.59249
G1 X153.389 Y89.855 E602.87467
G1 X94.029 Y149.215 E619.62735
G1 X92.615 Y149.215 E619.90953
G1 X153.337 Y88.492 E637.04673
G1 X153.303 Y88.27 E637.09155
G1 X153.171 Y87.838 E637.18169
G1 X152.98 Y87.435 E637.27069
G1 X91.201 Y149.215 E654.7062
G1 X89.787 Y149.215 E654.98838
G1 X152.358 Y86.643 E672.64741
G1 X152.089 Y86.416 E672.71765
G1 X151.704 Y86.17 E672.80883
G1 X151.506 Y86.081 E672.85215
G1 X88.372 Y149.215 E690.66993
G1 X86.958 Y149.215 E690.9521
G1 X150.371 Y85.801 E708.84876
G1 X150.069 Y85.784 E708.90913
G1 X148.975 Y85.784 E709.12745
G1 X85.544 Y149.215 E727.02904
G1 X84.929 Y149.214 E727.15177
G1 X84.504 Y149.19 E727.23672
G1 X84.198 Y149.147 E727.29839
G1 X147.561 Y85.784 E745.1808
G1 X146.146 Y85.784 E745.46317
G1 X83.177 Y148.753 E763.23439
G1 X82.909 Y148.582 E763.29783
G1 X82.575 Y148.298 E763.38532
G1 X82.409 Y148.107 E763.43582
G1 X144.732 Y85.784 E781.02472
G1 X143.318 Y85.784 E781.3069
G1 X81.855 Y147.246 E798.65294
G1 X81.694 Y146.721 E798.76253
G1 X81.639 Y146.363 E798.83481
G1 X81.619 Y146.068 E798.89381
G1 X141.904 Y85.784 E815.9074
G1 X140.49 Y85.784 E816.18958
G1 X81.61 Y144.664 E832.80679
G1 X81.61 Y143.249 E833.08917
G1 X139.075 Y85.784 E849.30703
G1 X137.661 Y85.784 E849.58921
G1 X81.61 Y141.835 E865.40801
G1 X81.61 Y140.421 E865.69019
G1 X136.247 Y85.784 E881.10993
G1 X134.833 Y85.784 E881.39211
G1 X81.61 Y139.007 E896.41279
G1 X81.61 Y137.593 E896.69497
G1 X133.419 Y85.784 E911.31659
G1 X132.004 Y85.784 E911.59897
G1 X81.61 Y136.178 E925.82125
G1 X81.61 Y134.764 E926.10343
G1 X130.59 Y85.784 E939.92664
G1 X129.176 Y85.784 E940.20882
G1 X81.61 Y133.35 E953.63297
G1 X81.61 Y131.936 E953.91515
G1 X127.762 Y85.784 E966.94024
G1 X126.347 Y85.784 E967.22262
G1 X81.61 Y130.522 E979.84851
G1 X81.61 Y129.107 E980.13089
G1 X124.933 Y85.784 E992.35757
G1 X123.519 Y85.784 E992.63975
G1 X81.61 Y127.693 E1004.46738
G1 X81.61 Y126.279 E1004.74956
G1 X122.105 Y85.784 E1016.17812
G1 X120.691 Y85.784 E1016.4603
G1 X81.61 Y124.865 E1027.4898
G1 X81.61 Y123.45 E1027.77218
G1 X119.276 Y85.784 E1038.40234
G1 X117.862 Y85.784 E1038.68452
G1 X81.61 Y122.036 E1048.91562
G1 X81.61 Y120.622 E1049.1978
G1 X116.448 Y85.784 E1059.02983
G1 X115.034 Y85.784 E1059.31201
G1 X81.61 Y119.208 E1068.74499
G1 X81.61 Y117.794 E1069.02717
G1 X113.62 Y85.784 E1078.06108
G1 X112.205 Y85.784 E1078.34346
G1 X81.61 Y116.379 E1086.97803
G1 X81.61 Y114.965 E1087.26021
G1 X110.791 Y85.784 E1095.49571
G1 X109.377 Y85.784 E1095.77789
G1 X81.61 Y113.551 E1103.61434
G1 X81.61 Y112.137 E1103.89652
G1 X107.963 Y85.784 E1111.33391
G1 X106.548 Y85.784 E1111.61628
