;FLAVOR:Marlin
;TIME:15259
;Filament used: 29.3839m
;Layer height: 0.4
;MINX:78.9
;MINY:82.4
;MINZ:0.24
;MAXX:156.1
;MAXY:152.6
;MAXZ:73.39
;Generated with Cura_SteamEngine 5.3.1
M140 S60
M105
M190 S60
M104 S200
M105
M109 S200
M82 ;absolute extrusion mode
; Ender 3 Custom Start G-code
G92 E0 ; Reset Extruder
G28 ; Home all axes
G1 Z2.0 F3000 ; Move Z Axis up little to prevent scratching of Heat Bed
G1 X0.1 Y20 Z0.3 F5000.0 ; Move to start position
G1 X0.1 Y200.0 Z0.3 F1500.0 E15 ; Draw the first line
G1 X0.4 Y200.0 Z0.3 F5000.0 ; Move to side a little
G1 X0.4 Y20 Z0.3 F1500.0 E30 ; Draw the second line
G92 E0 ; Reset Extruder
G1 Z2.0 F3000 ; Move Z Axis up little to prevent scratching of Heat Bed
G1 X5 Y20 Z0.3 F5000.0 ; Move over to prevent blob squish
G92 E0
G92 E0
G1 F2700 E-5
;LAYER_COUNT:181
;LAYER:-5
M107
G0 F15000 X92.299 Y93.107 Z0.24
;TYPE:SUPPORT-INTERFACE
G1 F2700 E0
G1 F2250 X91.908 Y93.658 E0.05393
G1 X91.609 Y94.213 E0.10425
G1 X91.341 Y94.903 E0.16334
G1 X91.182 Y95.569 E0.218
G1 X91.101 Y96.469 E0.29013
G1 X91.1 Y138.536 E3.6481
G1 X91.145 Y139.2 E3.70123
G1 X91.277 Y139.872 E3.75589
G1 X91.477 Y140.482 E3.80714
G1 X91.763 Y141.093 E3.86099
G1 X92.161 Y141.714 E3.91987
G1 X92.598 Y142.232 E3.97396
G1 X93.107 Y142.701 E4.02921
G1 X93.614 Y143.065 E4.07903
G1 X94.213 Y143.391 E4.13347
G1 X94.903 Y143.659 E4.19256
G1 X95.569 Y143.818 E4.24722
G1 X96.469 Y143.899 E4.31935
G1 X138.531 Y143.9 E7.67692
G1 X139.2 Y143.855 E7.73044
G1 X139.872 Y143.723 E7.78511
G1 X140.482 Y143.523 E7.83635
G1 X141.093 Y143.237 E7.8902
G1 X141.714 Y142.839 E7.94908
G1 X142.232 Y142.402 E8.00318
G1 X142.702 Y141.892 E8.05854
G1 X143.092 Y141.342 E8.11236
G1 X143.391 Y140.787 E8.16268
G1 X143.659 Y140.097 E8.22177
G1 X143.814 Y139.465 E8.27372
G1 X143.899 Y138.527 E8.3489
G1 X143.9 Y96.464 E11.70655
G1 X143.86 Y95.844 E11.75614
G1 X143.723 Y95.128 E11.81433
G1 X143.523 Y94.518 E11.86558
G1 X143.237 Y93.907 E11.91943
G1 X142.839 Y93.286 E11.97831
G1 X142.402 Y92.768 E12.0324
G1 X141.894 Y92.299 E12.08759
G1 X141.386 Y91.935 E12.13748
G1 X140.787 Y91.609 E12.19192
G1 X140.097 Y91.341 E12.251
G1 X139.431 Y91.182 E12.30566
G1 X138.531 Y91.101 E12.37779
G1 X96.469 Y91.1 E15.73536
G1 X95.8 Y91.145 E15.78889
G1 X95.128 Y91.277 E15.84355
G1 X94.518 Y91.477 E15.8948
G1 X93.907 Y91.763 E15.94865
G1 X93.286 Y92.161 E16.00753
G1 X92.768 Y92.598 E16.06163
G1 X92.299 Y93.107 E16.11687
G1 F2700 E11.11687
G1 F300 Z0.44
G0 F15000 X79.936 Y83.478 Z0.44
G1 F300 Z0.24
G1 F2700 E16.11687
G1 F2250 X80.328 Y83.136 E16.1584
G1 X80.731 Y82.869 E16.19699
G1 X81.202 Y82.648 E16.23852
G1 X81.697 Y82.495 E16.27988
G1 X82.12 Y82.43 E16.31404
G1 X82.504 Y82.4 E16.34478
G1 X152.381 Y82.4 E21.92267
G1 X152.862 Y82.429 E21.96113
G1 X153.249 Y82.482 E21.99231
G1 X153.744 Y82.625 E22.03344
G1 X154.201 Y82.831 E22.07346
G1 X154.625 Y83.099 E22.1135
G1 X155.022 Y83.437 E22.15512
G1 X155.364 Y83.828 E22.19658
G1 X155.637 Y84.242 E22.23617
G1 X155.853 Y84.701 E22.27666
G1 X156.004 Y85.192 E22.31767
G1 X156.069 Y85.619 E22.35215
G1 X156.1 Y86.093 E22.39006
G1 X156.1 Y148.881 E27.40207
G1 X156.072 Y149.361 E27.44045
G1 X156.018 Y149.751 E27.47188
G1 X155.874 Y150.245 E27.51296
G1 X155.669 Y150.7 E27.55279
G1 X155.401 Y151.125 E27.5929
G1 X155.063 Y151.522 E27.63452
G1 X154.671 Y151.865 E27.6761
G1 X154.273 Y152.128 E27.71418
G1 X153.799 Y152.353 E27.75606
G1 X153.303 Y152.505 E27.79747
G1 X152.88 Y152.57 E27.83163
G1 X152.496 Y152.599 E27.86237
G1 X82.619 Y152.6 E33.44026
G1 X82.138 Y152.571 E33.47872
G1 X81.751 Y152.518 E33.5099
G1 X81.262 Y152.376 E33.55055
G1 X80.802 Y152.171 E33.59075
G1 X80.361 Y151.891 E33.63245
G1 X79.977 Y151.562 E33.67281
G1 X79.639 Y151.177 E33.71371
G1 X79.363 Y150.758 E33.75376
G1 X79.146 Y150.297 E33.79443
G1 X78.996 Y149.801 E33.8358
G1 X78.931 Y149.381 E33.86972
G1 X78.901 Y148.907 E33.90763
G1 X78.9 Y86.119 E38.91964
G1 X78.929 Y85.637 E38.95819
G1 X78.981 Y85.253 E38.98912
G1 X79.126 Y84.756 E39.03045
G1 X79.331 Y84.299 E39.07043
G1 X79.599 Y83.876 E39.1104
G1 X79.936 Y83.478 E39.15203
G0 F15000 X79.791 Y84.316
G1 F2250 X90.82 Y95.345 E40.39708
G1 F2700 E35.39708
G1 F300 Z0.44
G0 F15000 X91.433 Y93.695 Z0.44
G1 F300 Z0.24
G1 F2700 E40.39708
G1 F2250 X80.946 Y83.209 E41.58089
G1 F2700 E36.58089
G1 F300 Z0.44
G0 F15000 X82.8 Y82.8 Z0.44
G1 F300 Z0.24
G1 F2700 E41.58089
G1 F2250 X92.406 Y92.406 E42.66529
G1 F2700 E37.66529
G1 F300 Z0.44
G0 F15000 X93.687 Y91.424 Z0.44
G1 F300 Z0.24
G1 F2700 E42.66529
G1 F2250 X85.062 Y82.8 E43.6389
G1 F2700 E38.6389
G1 F300 Z0.44
G0 F15000 X87.325 Y82.8 Z0.44
G1 F300 Z0.24
G1 F2700 E43.6389
G1 F2250 X95.349 Y90.824 E44.54472
G1 F2700 E39.54472
G1 F300 Z0.44
G0 F15000 X97.488 Y90.7 Z0.44
G1 F300 Z0.24
G1 F2700 E44.54472
G1 F2250 X89.588 Y82.8 E45.43654
G1 F2700 E40.43654
G1 F300 Z0.44
G0 F15000 X91.851 Y82.8 Z0.44
G1 F300 Z0.24
G1 F2700 E45.43654
G1 F2250 X99.751 Y90.7 E46.32836
G1 F2700 E41.32836
G1 F300 Z0.44
G0 F15000 X102.014 Y90.7 Z0.44
G1 F300 Z0.24
G1 F2700 E46.32836
G1 F2250 X94.113 Y82.8 E47.22024
G1 F2700 E42.22024
G1 F300 Z0.44
G0 F15000 X96.376 Y82.8 Z0.44
G1 F300 Z0.24
G1 F2700 E47.22024
G1 F2250 X104.277 Y90.7 E48.11211
G1 F2700 E43.11211
G1 F300 Z0.44
G0 F15000 X106.539 Y90.7 Z0.44
G1 F300 Z0.24
G1 F2700 E48.11211
G1 F2250 X98.639 Y82.8 E49.00393
G1 F2700 E44.00393
G1 F300 Z0.44
G0 F15000 X100.902 Y82.8 Z0.44
G1 F300 Z0.24
G1 F2700 E49.00393
G1 F2250 X108.803 Y90.701 E49.89587
G1 F2700 E44.89587
G1 F300 Z0.44
G0 F15000 X111.065 Y90.701 Z0.44
G1 F300 Z0.24
G1 F2700 E49.89587
G1 F2250 X103.164 Y82.8 E50.7878
G1 F2700 E45.7878
G1 F300 Z0.44
G0 F15000 X105.427 Y82.8 Z0.44
G1 F300 Z0.24
G1 F2700 E50.7878
G1 F2250 X113.328 Y90.701 E51.67973
G1 F2700 E46.67973
G1 F300 Z0.44
G0 F15000 X115.591 Y90.701 Z0.44
G1 F300 Z0.24
G1 F2700 E51.67973
G1 F2250 X107.69 Y82.8 E52.57167
G1 F2700 E47.57167
G1 F300 Z0.44
G0 F15000 X109.952 Y82.8 Z0.44
G1 F300 Z0.24
G1 F2700 E52.57167
G1 F2250 X117.854 Y90.702 E53.46371
G1 F2700 E48.46371
G1 F300 Z0.44
G0 F15000 X120.117 Y90.702 Z0.44
G1 F300 Z0.24
G1 F2700 E53.46371
G1 F2250 X112.215 Y82.8 E54.35576
G1 F2700 E49.35576
G1 F300 Z0.44
G0 F15000 X114.478 Y82.8 Z0.44
G1 F300 Z0.24
G1 F2700 E54.35576
G1 F2250 X122.38 Y90.702 E55.24781
G1 F2700 E50.24781
G1 F300 Z0.44
G0 F15000 X124.643 Y90.702 Z0.44
G1 F300 Z0.24
G1 F2700 E55.24781
G1 F2250 X116.741 Y82.8 E56.13985
G1 F2700 E51.13985
G1 F300 Z0.44
G0 F15000 X119.003 Y82.8 Z0.44
G1 F300 Z0.24
G1 F2700 E56.13985
G1 F2250 X126.905 Y90.702 E57.0319
G1 F2700 E52.0319
G1 F300 Z0.44
G0 F15000 X129.169 Y90.702 Z0.44
G1 F300 Z0.24
G1 F2700 E57.0319
G1 F2250 X121.266 Y82.8 E57.924
G1 F2700 E52.924
G1 F300 Z0.44
G0 F15000 X123.529 Y82.8 Z0.44
G1 F300 Z0.24
G1 F2700 E57.924
G1 F2250 X131.432 Y90.702 E58.8161
G1 F2700 E53.8161
G1 F300 Z0.44
G0 F15000 X133.694 Y90.702 Z0.44
G1 F300 Z0.24
G1 F2700 E58.8161
G1 F2250 X125.792 Y82.8 E59.70815
G1 F2700 E54.70815
G1 F300 Z0.44
G0 F15000 X128.054 Y82.8 Z0.44
G1 F300 Z0.24
G1 F2700 E59.70815
G1 F2250 X135.957 Y90.702 E60.60025
G1 F2700 E55.60025
G1 F300 Z0.44
G0 F15000 X138.22 Y90.702 Z0.44
G1 F300 Z0.24
G1 F2700 E60.60025
G1 F2250 X130.317 Y82.8 E61.49235
G1 F2700 E56.49235
G1 F300 Z0.44
G0 F15000 X132.58 Y82.8 Z0.44
G1 F300 Z0.24
G1 F2700 E61.49235
G1 F2250 X141.108 Y91.327 E62.45501
G1 F2700 E57.45501
G1 F300 Z0.44
G0 F15000 X143.67 Y93.89 Z0.44
G1 F300 Z0.24
G1 F2700 E62.45501
G1 F2250 X155.699 Y105.918 E63.81289
G1 F2700 E58.81289
G1 F300 Z0.44
G0 F15000 X155.699 Y103.656 Z0.44
G1 F300 Z0.24
G1 F2700 E63.81289
G1 F2250 X134.843 Y82.8 E66.1673
G1 F2700 E61.1673
G1 F300 Z0.44
G0 F15000 X137.105 Y82.8 Z0.44
G1 F300 Z0.24
G1 F2700 E66.1673
G1 F2250 X155.699 Y101.393 E68.26629
G1 F2700 E63.26629
G1 F300 Z0.44
G0 F15000 X155.699 Y99.13 Z0.44
G1 F300 Z0.24
G1 F2700 E68.26629
G1 F2250 X139.368 Y82.8 E70.10982
G1 F2700 E65.10982
G1 F300 Z0.44
G0 F15000 X141.631 Y82.8 Z0.44
G1 F300 Z0.24
G1 F2700 E70.10982
G1 F2250 X155.699 Y96.867 E71.69788
G1 F2700 E66.69788
G1 F300 Z0.44
G0 F15000 X155.699 Y94.605 Z0.44
G1 F300 Z0.24
G1 F2700 E71.69788
G1 F2250 X143.894 Y82.8 E73.03053
G1 F2700 E68.03053
G1 F300 Z0.44
G0 F15000 X146.156 Y82.8 Z0.44
G1 F300 Z0.24
G1 F2700 E73.03053
G1 F2250 X155.699 Y92.342 E74.10777
G1 F2700 E69.10777
G1 F300 Z0.44
G0 F15000 X155.699 Y90.079 Z0.44
G1 F300 Z0.24
G1 F2700 E74.10777
G1 F2250 X148.419 Y82.8 E74.92955
G1 F2700 E69.92955
G1 F300 Z0.44
G0 F15000 X150.682 Y82.8 Z0.44
G1 F300 Z0.24
G1 F2700 E74.92955
G1 F2250 X155.699 Y87.817 E75.49591
G1 F2700 E70.49591
G1 F300 Z0.44
G0 F15000 X155.646 Y85.501 Z0.44
G1 F300 Z0.24
G1 F2700 E75.49591
G1 F2250 X152.995 Y82.85 E75.79518
G1 F2700 E70.79518
G1 F300 Z0.44
G0 F15000 X144.297 Y96.779 Z0.44
G1 F300 Z0.24
G1 F2700 E75.79518
G1 F2250 X155.699 Y108.181 E77.08233
G1 F2700 E72.08233
G1 F300 Z0.44
G0 F15000 X155.699 Y110.444 Z0.44
G1 F300 Z0.24
G1 F2700 E77.08233
G1 F2250 X144.297 Y99.042 E78.36949
G1 F2700 E73.36949
G1 F300 Z0.44
G0 F15000 X144.297 Y101.305 Z0.44
G1 F300 Z0.24
G1 F2700 E78.36949
G1 F2250 X155.699 Y112.707 E79.65664
G1 F2700 E74.65664
G1 F300 Z0.44
G0 F15000 X155.699 Y114.969 Z0.44
G1 F300 Z0.24
G1 F2700 E79.65664
G1 F2250 X144.297 Y103.567 E80.9438
G1 F2700 E75.9438
G1 F300 Z0.44
G0 F15000 X144.297 Y105.83 Z0.44
G1 F300 Z0.24
G1 F2700 E80.9438
G1 F2250 X155.699 Y117.232 E82.23096
G1 F2700 E77.23096
G1 F300 Z0.44
G0 F15000 X155.699 Y119.495 Z0.44
G1 F300 Z0.24
G1 F2700 E82.23096
G1 F2250 X144.297 Y108.093 E83.51811
G1 F2700 E78.51811
G1 F300 Z0.44
G0 F15000 X144.297 Y110.356 Z0.44
G1 F300 Z0.24
G1 F2700 E83.51811
G1 F2250 X155.699 Y121.758 E84.80527
G1 F2700 E79.80527
G1 F300 Z0.44
G0 F15000 X155.699 Y124.02 Z0.44
G1 F300 Z0.24
G1 F2700 E84.80527
G1 F2250 X144.297 Y112.618 E86.09243
G1 F2700 E81.09243
G1 F300 Z0.44
G0 F15000 X144.297 Y114.881 Z0.44
G1 F300 Z0.24
G1 F2700 E86.09243
G1 F2250 X155.699 Y126.283 E87.37958
G1 F2700 E82.37958
G1 F300 Z0.44
G0 F15000 X155.699 Y128.546 Z0.44
G1 F300 Z0.24
G1 F2700 E87.37958
G1 F2250 X144.297 Y117.144 E88.66674
G1 F2700 E83.66674
G1 F300 Z0.44
G0 F15000 X144.296 Y119.406 Z0.44
G1 F300 Z0.24
G1 F2700 E88.66674
G1 F2250 X155.699 Y130.809 E89.95401
G1 F2700 E84.95401
G1 F300 Z0.44
G0 F15000 X155.699 Y133.071 Z0.44
G1 F300 Z0.24
G1 F2700 E89.95401
G1 F2250 X144.296 Y121.669 E91.24122
G1 F2700 E86.24122
G1 F300 Z0.44
G0 F15000 X144.296 Y123.931 Z0.44
G1 F300 Z0.24
G1 F2700 E91.24122
G1 F2250 X155.699 Y135.334 E92.52849
G1 F2700 E87.52849
G1 F300 Z0.44
G0 F15000 X155.699 Y137.597 Z0.44
G1 F300 Z0.24
G1 F2700 E92.52849
G1 F2250 X144.296 Y126.194 E93.81576
G1 F2700 E88.81576
G1 F300 Z0.44
G0 F15000 X144.296 Y128.457 Z0.44
G1 F300 Z0.24
G1 F2700 E93.81576
G1 F2250 X155.699 Y139.86 E95.10303
G1 F2700 E90.10303
G1 F300 Z0.44
G0 F15000 X155.699 Y142.122 Z0.44
G1 F300 Z0.24
G1 F2700 E95.10303
G1 F2250 X144.296 Y130.72 E96.39024
G1 F2700 E91.39024
G1 F300 Z0.44
G0 F15000 X144.296 Y132.982 Z0.44
G1 F300 Z0.24
G1 F2700 E96.39024
G1 F2250 X155.699 Y144.385 E97.67751
G1 F2700 E92.67751
G1 F300 Z0.44
G0 F15000 X155.699 Y146.648 Z0.44
G1 F300 Z0.24
G1 F2700 E97.67751
G1 F2250 X144.296 Y135.245 E98.96478
G1 F2700 E93.96478
G1 F300 Z0.44
G0 F15000 X144.296 Y137.508 Z0.44
G1 F300 Z0.24
G1 F2700 E98.96478
G1 F2250 X155.697 Y148.908 E100.25177
G1 F2700 E95.25177
G1 F300 Z0.44
G0 F15000 X155.207 Y150.681 Z0.44
G1 F300 Z0.24
G1 F2700 E100.25177
G1 F2250 X144.177 Y139.652 E101.49687
G1 F2700 E96.49687
G1 F300 Z0.44
G0 F15000 X143.566 Y141.303 Z0.44
G1 F300 Z0.24
G1 F2700 E101.49687
G1 F2250 X154.052 Y151.789 E102.68062
G1 F2700 E97.68062
G1 F300 Z0.44
G0 F15000 X152.199 Y152.199 Z0.44
G1 F300 Z0.24
G1 F2700 E102.68062
G1 F2250 X142.593 Y142.593 E103.76503
G1 F2700 E98.76503
G1 F300 Z0.44
G0 F15000 X141.312 Y143.575 Z0.44
G1 F300 Z0.24
G1 F2700 E103.76503
G1 F2250 X149.936 Y152.199 E104.73858
G1 F2700 E99.73858
G1 F300 Z0.44
G0 F15000 X147.673 Y152.199 Z0.44
G1 F300 Z0.24
G1 F2700 E104.73858
G1 F2250 X139.649 Y144.174 E105.64446
G1 F2700 E100.64446
G1 F300 Z0.44
G0 F15000 X137.51 Y144.298 Z0.44
G1 F300 Z0.24
G1 F2700 E105.64446
G1 F2250 X145.41 Y152.199 E106.53633
G1 F2700 E101.53633
G1 F300 Z0.44
G0 F15000 X143.148 Y152.199 Z0.44
G1 F300 Z0.24
G1 F2700 E106.53633
G1 F2250 X135.247 Y144.298 E107.42827
G1 F2700 E102.42827
G1 F300 Z0.44
G0 F15000 X132.984 Y144.298 Z0.44
G1 F300 Z0.24
G1 F2700 E107.42827
G1 F2250 X140.885 Y152.199 E108.3202
G1 F2700 E103.3202
G1 F300 Z0.44
G0 F15000 X138.622 Y152.199 Z0.44
G1 F300 Z0.24
G1 F2700 E108.3202
G1 F2250 X130.722 Y144.298 E109.21208
G1 F2700 E104.21208
G1 F300 Z0.44
G0 F15000 X128.459 Y144.298 Z0.44
G1 F300 Z0.24
G1 F2700 E109.21208
G1 F2250 X136.359 Y152.199 E110.10395
G1 F2700 E105.10395
G1 F300 Z0.44
G0 F15000 X134.097 Y152.199 Z0.44
G1 F300 Z0.24
G1 F2700 E110.10395
G1 F2250 X126.195 Y144.297 E110.996
G1 F2700 E105.996
G1 F300 Z0.44
G0 F15000 X123.933 Y144.297 Z0.44
G1 F300 Z0.24
G1 F2700 E110.996
G1 F2250 X131.834 Y152.199 E111.88799
G1 F2700 E106.88799
G1 F300 Z0.44
G0 F15000 X129.571 Y152.199 Z0.44
G1 F300 Z0.24
G1 F2700 E111.88799
G1 F2250 X121.67 Y144.297 E112.77998
G1 F2700 E107.77998
G1 F300 Z0.44
G0 F15000 X119.407 Y144.297 Z0.44
G1 F300 Z0.24
G1 F2700 E112.77998
G1 F2250 X127.308 Y152.199 E113.67197
G1 F2700 E108.67197
G1 F300 Z0.44
G0 F15000 X125.046 Y152.199 Z0.44
G1 F300 Z0.24
G1 F2700 E113.67197
G1 F2250 X117.144 Y144.297 E114.56401
G1 F2700 E109.56401
G1 F300 Z0.44
G0 F15000 X114.881 Y144.297 Z0.44
G1 F300 Z0.24
G1 F2700 E114.56401
G1 F2250 X122.783 Y152.199 E115.45606
G1 F2700 E110.45606
G1 F300 Z0.44
G0 F15000 X120.52 Y152.199 Z0.44
G1 F300 Z0.24
G1 F2700 E115.45606
G1 F2250 X112.618 Y144.297 E116.34811
G1 F2700 E111.34811
G1 F300 Z0.44
G0 F15000 X110.356 Y144.297 Z0.44
G1 F300 Z0.24
G1 F2700 E116.34811
G1 F2250 X118.257 Y152.199 E117.2401
G1 F2700 E112.2401
G1 F300 Z0.44
G0 F15000 X115.995 Y152.199 Z0.44
G1 F300 Z0.24
G1 F2700 E117.2401
G1 F2250 X108.093 Y144.297 E118.13214
G1 F2700 E113.13214
G1 F300 Z0.44
G0 F15000 X105.829 Y144.296 Z0.44
G1 F300 Z0.24
G1 F2700 E118.13214
G1 F2250 X113.732 Y152.199 E119.0243
G1 F2700 E114.0243
G1 F300 Z0.44
G0 F15000 X111.469 Y152.199 Z0.44
G1 F300 Z0.24
G1 F2700 E119.0243
G1 F2250 X103.567 Y144.296 E119.9164
G1 F2700 E114.9164
G1 F300 Z0.44
G0 F15000 X101.304 Y144.296 Z0.44
G1 F300 Z0.24
G1 F2700 E119.9164
G1 F2250 X109.206 Y152.199 E120.80851
G1 F2700 E115.80851
G1 F300 Z0.44
G0 F15000 X106.944 Y152.199 Z0.44
G1 F300 Z0.24
G1 F2700 E120.80851
G1 F2250 X99.041 Y144.296 E121.70066
G1 F2700 E116.70066
G1 F300 Z0.44
G0 F15000 X96.778 Y144.296 Z0.44
G1 F300 Z0.24
G1 F2700 E121.70066
G1 F2250 X104.681 Y152.199 E122.59282
G1 F2700 E117.59282
G1 F300 Z0.44
G0 F15000 X102.418 Y152.199 Z0.44
G1 F300 Z0.24
G1 F2700 E122.59282
G1 F2250 X93.891 Y143.671 E123.55548
G1 F2700 E118.55548
G1 F300 Z0.44
G0 F15000 X91.327 Y141.107 Z0.44
G1 F300 Z0.24
G1 F2700 E123.55548
G1 F2250 X79.3 Y129.08 E124.91319
G1 F2700 E119.91319
G1 F300 Z0.44
G0 F15000 X79.3 Y126.818 Z0.44
G1 F300 Z0.24
G1 F2700 E124.91319
G1 F2250 X90.702 Y138.219 E126.20029
G1 F2700 E121.20029
G1 F300 Z0.44
G0 F15000 X90.702 Y135.956 Z0.44
G1 F300 Z0.24
G1 F2700 E126.20029
G1 F2250 X79.3 Y124.555 E127.48739
G1 F2700 E122.48739
G1 F300 Z0.44
G0 F15000 X79.3 Y122.292 Z0.44
G1 F300 Z0.24
G1 F2700 E127.48739
G1 F2250 X90.702 Y133.694 E128.77455
G1 F2700 E123.77455
G1 F300 Z0.44
G0 F15000 X90.702 Y131.431 Z0.44
G1 F300 Z0.24
G1 F2700 E128.77455
G1 F2250 X79.3 Y120.029 E130.06171
G1 F2700 E125.06171
G1 F300 Z0.44
G0 F15000 X79.3 Y117.767 Z0.44
G1 F300 Z0.24
G1 F2700 E130.06171
G1 F2250 X90.702 Y129.168 E131.3488
G1 F2700 E126.3488
G1 F300 Z0.44
G0 F15000 X90.702 Y126.905 Z0.44
G1 F300 Z0.24
G1 F2700 E131.3488
G1 F2250 X79.299 Y115.503 E132.63602
G1 F2700 E127.63602
G1 F300 Z0.44
G0 F15000 X79.299 Y113.241 Z0.44
G1 F300 Z0.24
G1 F2700 E132.63602
G1 F2250 X90.702 Y124.643 E133.92323
G1 F2700 E128.92323
G1 F300 Z0.44
G0 F15000 X90.702 Y122.381 Z0.44
G1 F300 Z0.24
G1 F2700 E133.92323
G1 F2250 X79.299 Y110.978 E135.2105
G1 F2700 E130.2105
G1 F300 Z0.44
G0 F15000 X79.299 Y108.715 Z0.44
G1 F300 Z0.24
G1 F2700 E135.2105
