;FLAVOR:Marlin
;TIME:1729
;Filament used: 2.6179m
;Layer height: 0.4
;MINX:81.21
;MINY:85.385
;MINZ:0.24
;MAXX:153.79
;MAXY:149.615
;MAXZ:6.59
;Generated with Cura_SteamEngine 5.3.1
M140 S60
M105
M190 S60
M104 S200
M105
M109 S200
M82 ;absolute extrusion mode
; Ender 3 Custom Start G-code
G92 E0 ; Reset Extruder
G28 ; Home all axes
G1 Z2.0 F3000 ; Move Z Axis up little to prevent scratching of Heat Bed
G1 X0.1 Y20 Z0.3 F5000.0 ; Move to start position
G1 X0.1 Y200.0 Z0.3 F1500.0 E15 ; Draw the first line
G1 X0.4 Y200.0 Z0.3 F5000.0 ; Move to side a little
G1 X0.4 Y20 Z0.3 F1500.0 E30 ; Draw the second line
G92 E0 ; Reset Extruder
G1 Z2.0 F3000 ; Move Z Axis up little to prevent scratching of Heat Bed
G1 X5 Y20 Z0.3 F5000.0 ; Move over to prevent blob squish
G92 E0
G92 E0
G1 F2700 E-5
;LAYER_COUNT:13
;LAYER:-5
M107
G0 F15000 X95.083 Y99.077 Z0.24
;TYPE:SUPPORT-INTERFACE
G1 F2700 E0
G1 F2250 X94.609 Y99.592 E0.05587
G1 X94.218 Y100.143 E0.1098
G1 X93.919 Y100.698 E0.16013
G1 X93.651 Y101.388 E0.21921
G1 X93.492 Y102.054 E0.27387
G1 X93.411 Y102.954 E0.346
G1 X93.41 Y132.051 E2.66865
G1 X93.455 Y132.715 E2.72178
G1 X93.587 Y133.387 E2.77644
G1 X93.787 Y133.997 E2.82769
G1 X94.073 Y134.608 E2.88154
G1 X94.471 Y135.229 E2.94042
G1 X94.902 Y135.742 E2.9939
G1 X95.417 Y136.216 E3.04977
G1 X95.968 Y136.607 E3.1037
G1 X96.523 Y136.906 E3.15403
G1 X97.213 Y137.174 E3.21311
G1 X97.879 Y137.333 E3.26777
G1 X98.779 Y137.414 E3.3399
G1 X136.221 Y137.415 E6.32869
G1 X136.89 Y137.37 E6.38221
G1 X137.562 Y137.238 E6.43688
G1 X138.172 Y137.038 E6.48812
G1 X138.783 Y136.752 E6.54197
G1 X139.404 Y136.354 E6.60085
G1 X139.917 Y135.923 E6.65433
G1 X140.392 Y135.407 E6.71032
G1 X140.782 Y134.857 E6.76414
G1 X141.081 Y134.302 E6.81446
G1 X141.349 Y133.612 E6.87355
G1 X141.504 Y132.98 E6.92549
G1 X141.589 Y132.042 E7.00067
G1 X141.59 Y102.949 E9.323
G1 X141.55 Y102.329 E9.3726
G1 X141.413 Y101.613 E9.43079
G1 X141.213 Y101.003 E9.48203
G1 X140.927 Y100.392 E9.53588
G1 X140.529 Y99.771 E9.59476
G1 X140.098 Y99.258 E9.64824
G1 X139.583 Y98.784 E9.70412
G1 X139.032 Y98.393 E9.75805
G1 X138.477 Y98.094 E9.80837
G1 X137.787 Y97.826 E9.86746
G1 X137.121 Y97.667 E9.92211
G1 X136.221 Y97.586 E9.99425
G1 X98.779 Y97.585 E12.98303
G1 X98.11 Y97.63 E13.03655
G1 X97.438 Y97.762 E13.09122
G1 X96.828 Y97.962 E13.14246
G1 X96.217 Y98.248 E13.19631
G1 X95.596 Y98.646 E13.25519
G1 X95.083 Y99.077 E13.30868
G1 F2700 E8.30868
G1 F300 Z0.44
G0 F15000 X82.246 Y86.463 Z0.44
G1 F300 Z0.24
G1 F2700 E13.30868
G1 F2250 X82.638 Y86.121 E13.3502
G1 X83.041 Y85.854 E13.38879
G1 X83.512 Y85.633 E13.43032
G1 X84.007 Y85.48 E13.47168
G1 X84.43 Y85.415 E13.50584
G1 X84.814 Y85.385 E13.53659
G1 X150.071 Y85.385 E18.74568
G1 X150.552 Y85.414 E18.78415
G1 X150.939 Y85.467 E18.81533
G1 X151.434 Y85.61 E18.85646
G1 X151.891 Y85.816 E18.89647
G1 X152.315 Y86.084 E18.93651
G1 X152.712 Y86.422 E18.97813
G1 X153.054 Y86.813 E19.0196
G1 X153.327 Y87.227 E19.05918
G1 X153.543 Y87.686 E19.09968
G1 X153.694 Y88.177 E19.14068
G1 X153.759 Y88.604 E19.17516
G1 X153.79 Y89.078 E19.21308
G1 X153.79 Y145.896 E23.74854
G1 X153.762 Y146.376 E23.78692
G1 X153.708 Y146.766 E23.81834
G1 X153.564 Y147.26 E23.85942
G1 X153.359 Y147.715 E23.89926
G1 X153.091 Y148.14 E23.93936
G1 X152.753 Y148.537 E23.98098
G1 X152.361 Y148.88 E24.02256
G1 X151.963 Y149.143 E24.06064
G1 X151.489 Y149.368 E24.10252
G1 X150.993 Y149.52 E24.14393
G1 X150.57 Y149.585 E24.1781
G1 X150.186 Y149.614 E24.20884
G1 X84.929 Y149.615 E29.41793
G1 X84.448 Y149.586 E29.4564
G1 X84.061 Y149.533 E29.48758
G1 X83.572 Y149.391 E29.52822
G1 X83.112 Y149.186 E29.56842
G1 X82.671 Y148.906 E29.61012
G1 X82.287 Y148.577 E29.65049
G1 X81.949 Y148.192 E29.69138
G1 X81.673 Y147.773 E29.73143
G1 X81.456 Y147.312 E29.77211
G1 X81.306 Y146.816 E29.81347
G1 X81.241 Y146.396 E29.84739
G1 X81.211 Y145.922 E29.88531
G1 X81.21 Y89.104 E34.42077
G1 X81.239 Y88.622 E34.45931
G1 X81.291 Y88.238 E34.49024
G1 X81.436 Y87.741 E34.53157
G1 X81.641 Y87.284 E34.57155
G1 X81.909 Y86.861 E34.61152
G1 X82.246 Y86.463 E34.65315
G0 F15000 X82.387 Y86.913
G1 F2250 X94.544 Y99.069 E36.02548
G1 F2700 E31.02548
G1 F300 Z0.44
G0 F15000 X95.783 Y98.046 Z0.44
G1 F300 Z0.24
G1 F2700 E36.02548
G1 F2250 X83.723 Y85.986 E37.38692
G1 F2700 E32.38692
G1 F300 Z0.44
G0 F15000 X85.784 Y85.784 Z0.44
G1 F300 Z0.24
G1 F2700 E37.38692
G1 F2250 X97.365 Y97.365 E38.69428
G1 F2700 E33.69428
G1 F300 Z0.44
G0 F15000 X99.448 Y97.185 Z0.44
G1 F300 Z0.24
G1 F2700 E38.69428
G1 F2250 X88.047 Y85.784 E39.98133
G1 F2700 E34.98133
G1 F300 Z0.44
G0 F15000 X90.31 Y85.784 Z0.44
G1 F300 Z0.24
G1 F2700 E39.98133
G1 F2250 X101.71 Y97.185 E41.26831
G1 F2700 E36.26831
G1 F300 Z0.44
G0 F15000 X103.973 Y97.185 Z0.44
G1 F300 Z0.24
G1 F2700 E41.26831
G1 F2250 X92.573 Y85.784 E42.5553
G1 F2700 E37.5553
G1 F300 Z0.44
G0 F15000 X94.835 Y85.784 Z0.44
G1 F300 Z0.24
G1 F2700 E42.5553
G1 F2250 X106.236 Y97.185 E43.84234
G1 F2700 E38.84234
G1 F300 Z0.44
G0 F15000 X108.499 Y97.186 Z0.44
G1 F300 Z0.24
G1 F2700 E43.84234
G1 F2250 X97.098 Y85.784 E45.12944
G1 F2700 E40.12944
G1 F300 Z0.44
G0 F15000 X99.361 Y85.784 Z0.44
G1 F300 Z0.24
G1 F2700 E45.12944
G1 F2250 X110.762 Y97.186 E46.41654
G1 F2700 E41.41654
G1 F300 Z0.44
G0 F15000 X113.025 Y97.186 Z0.44
G1 F300 Z0.24
G1 F2700 E46.41654
G1 F2250 X101.623 Y85.784 E47.7037
G1 F2700 E42.7037
G1 F300 Z0.44
G0 F15000 X103.886 Y85.784 Z0.44
G1 F300 Z0.24
G1 F2700 E47.7037
G1 F2250 X115.288 Y97.186 E48.99086
G1 F2700 E43.99086
G1 F300 Z0.44
G0 F15000 X117.551 Y97.186 Z0.44
G1 F300 Z0.24
G1 F2700 E48.99086
G1 F2250 X106.149 Y85.784 E50.27801
G1 F2700 E45.27801
G1 F300 Z0.44
G0 F15000 X108.412 Y85.784 Z0.44
G1 F300 Z0.24
G1 F2700 E50.27801
G1 F2250 X119.814 Y97.186 E51.56517
G1 F2700 E46.56517
G1 F300 Z0.44
G0 F15000 X122.077 Y97.186 Z0.44
G1 F300 Z0.24
G1 F2700 E51.56517
G1 F2250 X110.674 Y85.784 E52.85238
G1 F2700 E47.85238
G1 F300 Z0.44
G0 F15000 X112.937 Y85.784 Z0.44
G1 F300 Z0.24
G1 F2700 E52.85238
G1 F2250 X124.339 Y97.186 E54.13954
G1 F2700 E49.13954
G1 F300 Z0.44
G0 F15000 X126.602 Y97.186 Z0.44
G1 F300 Z0.24
G1 F2700 E54.13954
G1 F2250 X115.2 Y85.784 E55.4267
G1 F2700 E50.4267
G1 F300 Z0.44
G0 F15000 X117.463 Y85.784 Z0.44
G1 F300 Z0.24
G1 F2700 E55.4267
G1 F2250 X128.865 Y97.187 E56.71391
G1 F2700 E51.71391
G1 F300 Z0.44
G0 F15000 X131.128 Y97.187 Z0.44
G1 F300 Z0.24
G1 F2700 E56.71391
G1 F2250 X119.725 Y85.784 E58.00118
G1 F2700 E53.00118
G1 F300 Z0.44
G0 F15000 X121.988 Y85.784 Z0.44
G1 F300 Z0.24
G1 F2700 E58.00118
G1 F2250 X133.391 Y97.187 E59.28845
G1 F2700 E54.28845
G1 F300 Z0.44
G0 F15000 X135.654 Y97.187 Z0.44
G1 F300 Z0.24
G1 F2700 E59.28845
G1 F2250 X124.251 Y85.784 E60.57572
G1 F2700 E55.57572
G1 F300 Z0.44
G0 F15000 X126.514 Y85.784 Z0.44
G1 F300 Z0.24
G1 F2700 E60.57572
G1 F2250 X138.335 Y97.606 E61.91023
G1 F2700 E56.91023
G1 F300 Z0.44
G0 F15000 X141.584 Y100.855 Z0.44
G1 F300 Z0.24
G1 F2700 E61.91023
G1 F2250 X153.389 Y112.659 E63.24282
G1 F2700 E58.24282
G1 F300 Z0.44
G0 F15000 X153.389 Y110.397 Z0.44
G1 F300 Z0.24
G1 F2700 E63.24282
G1 F2250 X128.776 Y85.784 E66.02135
G1 F2700 E61.02135
G1 F300 Z0.44
G0 F15000 X131.039 Y85.784 Z0.44
G1 F300 Z0.24
G1 F2700 E66.02135
G1 F2250 X153.389 Y108.134 E68.54441
G1 F2700 E63.54441
G1 F300 Z0.44
G0 F15000 X153.389 Y105.871 Z0.44
G1 F300 Z0.24
G1 F2700 E68.54441
G1 F2250 X133.302 Y85.784 E70.81201
G1 F2700 E65.81201
G1 F300 Z0.44
G0 F15000 X135.565 Y85.784 Z0.44
G1 F300 Z0.24
G1 F2700 E70.81201
G1 F2250 X153.389 Y103.608 E72.82413
G1 F2700 E67.82413
G1 F300 Z0.44
G0 F15000 X153.389 Y101.346 Z0.44
G1 F300 Z0.24
G1 F2700 E72.82413
G1 F2250 X137.827 Y85.784 E74.58091
G1 F2700 E69.58091
G1 F300 Z0.44
G0 F15000 X140.09 Y85.784 Z0.44
G1 F300 Z0.24
G1 F2700 E74.58091
G1 F2250 X153.389 Y99.083 E76.08221
G1 F2700 E71.08221
G1 F300 Z0.44
G0 F15000 X153.389 Y96.82 Z0.44
G1 F300 Z0.24
G1 F2700 E76.08221
G1 F2250 X142.353 Y85.784 E77.32805
G1 F2700 E72.32805
G1 F300 Z0.44
G0 F15000 X144.616 Y85.784 Z0.44
G1 F300 Z0.24
G1 F2700 E77.32805
G1 F2250 X153.389 Y94.557 E78.31842
G1 F2700 E73.31842
G1 F300 Z0.44
G0 F15000 X153.389 Y92.295 Z0.44
G1 F300 Z0.24
G1 F2700 E78.31842
G1 F2250 X146.878 Y85.784 E79.05344
G1 F2700 E74.05344
G1 F300 Z0.44
G0 F15000 X149.141 Y85.784 Z0.44
G1 F300 Z0.24
G1 F2700 E79.05344
G1 F2250 X153.389 Y90.032 E79.53299
G1 F2700 E74.53299
G1 F300 Z0.44
G0 F15000 X152.848 Y87.229 Z0.44
G1 F300 Z0.24
G1 F2700 E79.53299
G1 F2250 X151.94 Y86.321 E79.63549
G1 F2700 E74.63549
G1 F300 Z0.44
G0 F15000 X141.987 Y103.52 Z0.44
G1 F300 Z0.24
G1 F2700 E79.63549
G1 F2250 X153.389 Y114.922 E80.92265
G1 F2700 E75.92265
G1 F300 Z0.44
G0 F15000 X153.389 Y117.185 Z0.44
G1 F300 Z0.24
G1 F2700 E80.92265
G1 F2250 X141.987 Y105.783 E82.20981
G1 F2700 E77.20981
G1 F300 Z0.44
G0 F15000 X141.987 Y108.045 Z0.44
G1 F300 Z0.24
G1 F2700 E82.20981
G1 F2250 X153.389 Y119.448 E83.49702
G1 F2700 E78.49702
G1 F300 Z0.44
G0 F15000 X153.389 Y121.71 Z0.44
G1 F300 Z0.24
G1 F2700 E83.49702
G1 F2250 X141.987 Y110.308 E84.78418
G1 F2700 E79.78418
G1 F300 Z0.44
G0 F15000 X141.987 Y112.571 Z0.44
G1 F300 Z0.24
G1 F2700 E84.78418
G1 F2250 X153.389 Y123.973 E86.07133
G1 F2700 E81.07133
G1 F300 Z0.44
G0 F15000 X153.389 Y126.236 Z0.44
G1 F300 Z0.24
G1 F2700 E86.07133
G1 F2250 X141.987 Y114.834 E87.35849
G1 F2700 E82.35849
G1 F300 Z0.44
G0 F15000 X141.987 Y117.096 Z0.44
G1 F300 Z0.24
G1 F2700 E87.35849
G1 F2250 X153.389 Y128.498 E88.64565
G1 F2700 E83.64565
G1 F300 Z0.44
G0 F15000 X153.389 Y130.761 Z0.44
G1 F300 Z0.24
G1 F2700 E88.64565
G1 F2250 X141.986 Y119.358 E89.93291
G1 F2700 E84.93291
G1 F300 Z0.44
G0 F15000 X141.986 Y121.621 Z0.44
G1 F300 Z0.24
G1 F2700 E89.93291
G1 F2250 X153.389 Y133.024 E91.22018
G1 F2700 E86.22018
G1 F300 Z0.44
G0 F15000 X153.389 Y135.287 Z0.44
G1 F300 Z0.24
G1 F2700 E91.22018
G1 F2250 X141.986 Y123.884 E92.50745
G1 F2700 E87.50745
G1 F300 Z0.44
G0 F15000 X141.986 Y126.147 Z0.44
G1 F300 Z0.24
G1 F2700 E92.50745
G1 F2250 X153.389 Y137.549 E93.79467
G1 F2700 E88.79467
G1 F300 Z0.44
G0 F15000 X153.389 Y139.812 Z0.44
G1 F300 Z0.24
G1 F2700 E93.79467
G1 F2250 X141.986 Y128.409 E95.08193
G1 F2700 E90.08193
G1 F300 Z0.44
G0 F15000 X141.986 Y130.672 Z0.44
G1 F300 Z0.24
G1 F2700 E95.08193
G1 F2250 X153.389 Y142.075 E96.3692
G1 F2700 E91.3692
G1 F300 Z0.44
G0 F15000 X153.389 Y144.338 Z0.44
G1 F300 Z0.24
G1 F2700 E96.3692
G1 F2250 X141.914 Y132.863 E97.6646
G1 F2700 E92.6646
G1 F300 Z0.44
G0 F15000 X141.378 Y134.59 Z0.44
G1 F300 Z0.24
G1 F2700 E97.6646
G1 F2250 X153.333 Y146.545 E99.01418
G1 F2700 E94.01418
G1 F300 Z0.44
G0 F15000 X152.611 Y148.085 Z0.44
G1 F300 Z0.24
G1 F2700 E99.01418
G1 F2250 X140.454 Y135.929 E100.38652
G1 F2700 E95.38652
G1 F300 Z0.44
G0 F15000 X139.216 Y136.953 Z0.44
G1 F300 Z0.24
G1 F2700 E100.38652
G1 F2250 X151.277 Y149.014 E101.74807
G1 F2700 E96.74807
G1 F300 Z0.44
G0 F15000 X149.214 Y149.214 Z0.44
G1 F300 Z0.24
G1 F2700 E101.74807
G1 F2250 X137.634 Y137.634 E103.05532
G1 F2700 E98.05532
G1 F300 Z0.44
G0 F15000 X135.55 Y137.813 Z0.44
G1 F300 Z0.24
G1 F2700 E103.05532
G1 F2250 X146.951 Y149.214 E104.34236
G1 F2700 E99.34236
G1 F300 Z0.44
G0 F15000 X144.688 Y149.214 Z0.44
G1 F300 Z0.24
G1 F2700 E104.34236
G1 F2250 X133.288 Y137.813 E105.62935
G1 F2700 E100.62935
G1 F300 Z0.44
G0 F15000 X131.025 Y137.813 Z0.44
G1 F300 Z0.24
G1 F2700 E105.62935
G1 F2250 X142.426 Y149.214 E106.91639
G1 F2700 E101.91639
G1 F300 Z0.44
G0 F15000 X140.163 Y149.214 Z0.44
G1 F300 Z0.24
G1 F2700 E106.91639
G1 F2250 X128.762 Y137.813 E108.20343
G1 F2700 E103.20343
G1 F300 Z0.44
G0 F15000 X126.499 Y137.812 Z0.44
G1 F300 Z0.24
G1 F2700 E108.20343
G1 F2250 X137.9 Y149.214 E109.49053
G1 F2700 E104.49053
G1 F300 Z0.44
G0 F15000 X135.637 Y149.214 Z0.44
G1 F300 Z0.24
G1 F2700 E109.49053
G1 F2250 X124.236 Y137.812 E110.77763
G1 F2700 E105.77763
G1 F300 Z0.44
G0 F15000 X121.973 Y137.812 Z0.44
G1 F300 Z0.24
G1 F2700 E110.77763
G1 F2250 X133.375 Y149.214 E112.06479
G1 F2700 E107.06479
G1 F300 Z0.44
G0 F15000 X131.112 Y149.214 Z0.44
G1 F300 Z0.24
G1 F2700 E112.06479
G1 F2250 X119.711 Y137.812 E113.35189
G1 F2700 E108.35189
G1 F300 Z0.44
G0 F15000 X117.447 Y137.812 Z0.44
G1 F300 Z0.24
G1 F2700 E113.35189
G1 F2250 X128.849 Y149.214 E114.63905
G1 F2700 E109.63905
G1 F300 Z0.44
G0 F15000 X126.586 Y149.214 Z0.44
G1 F300 Z0.24
G1 F2700 E114.63905
G1 F2250 X115.184 Y137.812 E115.9262
G1 F2700 E110.9262
G1 F300 Z0.44
G0 F15000 X112.922 Y137.812 Z0.44
G1 F300 Z0.24
G1 F2700 E115.9262
G1 F2250 X124.324 Y149.214 E117.21336
G1 F2700 E112.21336
G1 F300 Z0.44
G0 F15000 X122.061 Y149.214 Z0.44
G1 F300 Z0.24
G1 F2700 E117.21336
G1 F2250 X110.659 Y137.812 E118.50051
G1 F2700 E113.50051
G1 F300 Z0.44
G0 F15000 X108.396 Y137.812 Z0.44
G1 F300 Z0.24
G1 F2700 E118.50051
G1 F2250 X119.798 Y149.214 E119.78767
G1 F2700 E114.78767
G1 F300 Z0.44
G0 F15000 X117.535 Y149.214 Z0.44
G1 F300 Z0.24
G1 F2700 E119.78767
G1 F2250 X106.133 Y137.811 E121.07488
G1 F2700 E116.07488
G1 F300 Z0.44
G0 F15000 X103.87 Y137.811 Z0.44
G1 F300 Z0.24
G1 F2700 E121.07488
G1 F2250 X115.273 Y149.214 E122.36215
G1 F2700 E117.36215
G1 F300 Z0.44
G0 F15000 X113.01 Y149.214 Z0.44
G1 F300 Z0.24
G1 F2700 E122.36215
G1 F2250 X101.607 Y137.811 E123.64942
G1 F2700 E118.64942
G1 F300 Z0.44
G0 F15000 X99.344 Y137.811 Z0.44
G1 F300 Z0.24
G1 F2700 E123.64942
G1 F2250 X110.747 Y149.214 E124.93669
G1 F2700 E119.93669
G1 F300 Z0.44
G0 F15000 X108.485 Y149.214 Z0.44
G1 F300 Z0.24
G1 F2700 E124.93669
G1 F2250 X96.663 Y137.392 E126.27126
G1 F2700 E121.27126
G1 F300 Z0.44
G0 F15000 X93.415 Y134.144 Z0.44
G1 F300 Z0.24
G1 F2700 E126.27126
G1 F2250 X81.61 Y122.339 E127.60391
G1 F2700 E122.60391
G1 F300 Z0.44
G0 F15000 X81.61 Y124.602 Z0.44
G1 F300 Z0.24
G1 F2700 E127.60391
G1 F2250 X106.222 Y149.214 E130.38233
G1 F2700 E125.38233
G1 F300 Z0.44
G0 F15000 X103.959 Y149.214 Z0.44
G1 F300 Z0.24
G1 F2700 E130.38233
G1 F2250 X81.61 Y126.864 E132.90533
G1 F2700 E127.90533
G1 F300 Z0.44
G0 F15000 X81.61 Y129.127 Z0.44
G1 F300 Z0.24
G1 F2700 E132.90533
G1 F2250 X101.696 Y149.214 E135.17287
G1 F2700 E130.17287
G1 F300 Z0.44
G0 F15000 X99.434 Y149.214 Z0.44
G1 F300 Z0.24
G1 F2700 E135.17287
G1 F2250 X81.61 Y131.39 E137.185
G1 F2700 E132.185
G1 F300 Z0.44
G0 F15000 X81.61 Y133.653 Z0.44
G1 F300 Z0.24
G1 F2700 E137.185
G1 F2250 X97.171 Y149.214 E138.94166
G1 F2700 E133.94166
G1 F300 Z0.44
G0 F15000 X94.908 Y149.214 Z0.44
G1 F300 Z0.24
G1 F2700 E138.94166
G1 F2250 X81.61 Y135.915 E140.44291
G1 F2700 E135.44291
G1 F300 Z0.44
G0 F15000 X81.61 Y138.178 Z0.44
G1 F300 Z0.24
G1 F2700 E140.44291
G1 F2250 X92.645 Y149.214 E141.68869
G1 F2700 E136.68869
G1 F300 Z0.44
G0 F15000 X90.383 Y149.214 Z0.44
G1 F300 Z0.24
G1 F2700 E141.68869
G1 F2250 X81.61 Y140.441 E142.67906
G1 F2700 E137.67906
G1 F300 Z0.44
G0 F15000 X81.61 Y142.704 Z0.44
G1 F300 Z0.24
G1 F2700 E142.67906
G1 F2250 X88.12 Y149.214 E143.41397
G1 F2700 E138.41397
G1 F300 Z0.44
G0 F15000 X85.857 Y149.214 Z0.44
G1 F300 Z0.24
G1 F2700 E143.41397
G1 F2250 X81.61 Y144.966 E143.89346
G1 F2700 E138.89346
G1 F300 Z0.44
G0 F15000 X82.15 Y147.77 Z0.44
G1 F300 Z0.24
G1 F2700 E143.89346
G1 F2250 X83.056 Y148.676 E143.99574
G1 F2700 E138.99574
G1 F300 Z0.44
G0 F15000 X93.012 Y131.478 Z0.44
G1 F300 Z0.24
G1 F2700 E143.99574
G1 F2250 X81.61 Y120.076 E145.28289
G1 F2700 E140.28289
G1 F300 Z0.44
G0 F15000 X81.61 Y117.813 Z0.44
G1 F300 Z0.24
G1 F2700 E145.28289
G1 F2250 X93.012 Y129.215 E146.57005
G1 F2700 E141.57005
G1 F300 Z0.44
G0 F15000 X93.012 Y126.953 Z0.44
G1 F300 Z0.24
G1 F2700 E146.57005
G1 F2250 X81.61 Y115.551 E147.85721
G1 F2700 E142.85721
G1 F300 Z0.44
G0 F15000 X81.61 Y113.288 Z0.44
G1 F300 Z0.24
G1 F2700 E147.85721
G1 F2250 X93.012 Y124.69 E149.14436
G1 F2700 E144.14436
G1 F300 Z0.44
G0 F15000 X93.012 Y122.427 Z0.44
G1 F300 Z0.24
G1 F2700 E149.14436
G1 F2250 X81.61 Y111.025 E150.43152
G1 F2700 E145.43152
G1 F300 Z0.44
G0 F15000 X81.61 Y108.762 Z0.44
G1 F300 Z0.24
G1 F2700 E150.43152
G1 F2250 X93.012 Y120.165 E151.71873
G1 F2700 E146.71873
G1 F300 Z0.44
G0 F15000 X93.012 Y117.902 Z0.44
G1 F300 Z0.24
G1 F2700 E151.71873
G1 F2250 X81.61 Y106.5 E153.00589
G1 F2700 E148.00589
