;FLAVOR:Marlin
;TIME:18121
;Filament used: 34.3352m
;Layer height: 0.4
;MINX:64.389
;MINY:68.212
;MINZ:0.24
;MAXX:170.605
;MAXY:166.788
;MAXZ:73.39
;Generated with Cura_SteamEngine 5.3.1
M140 S60
M105
M190 S60
M104 S200
M105
M109 S200
M82 ;absolute extrusion mode
; Ender 3 Custom Start G-code
G92 E0 ; Reset Extruder
G28 ; Home all axes
G1 Z2.0 F3000 ; Move Z Axis up little to prevent scratching of Heat Bed
G1 X0.1 Y20 Z0.3 F5000.0 ; Move to start position
G1 X0.1 Y200.0 Z0.3 F1500.0 E15 ; Draw the first line
G1 X0.4 Y200.0 Z0.3 F5000.0 ; Move to side a little
G1 X0.4 Y20 Z0.3 F1500.0 E30 ; Draw the second line
G92 E0 ; Reset Extruder
G1 Z2.0 F3000 ; Move Z Axis up little to prevent scratching of Heat Bed
G1 X5 Y20 Z0.3 F5000.0 ; Move over to prevent blob squish
G92 E0
G92 E0
G1 F2700 E-5
;LAYER_COUNT:181
;LAYER:-5
M107
G0 F15000 X67.155 Y85.795 Z0.24
;TYPE:SUPPORT-INTERFACE
G1 F2700 E0
G1 F2250 X70.353 Y83.467 E0.31575
G1 X70.728 Y83.225 E0.35138
G1 X71.1 Y83.027 E0.38502
G1 X71.559 Y82.861 E0.42398
G1 X72.015 Y82.773 E0.46105
G1 X72.449 Y82.728 E0.49588
G1 X72.71 Y82.715 E0.51674
G1 X76.613 Y82.715 E0.8283
G1 X77.251 Y82.674 E0.87933
G1 X77.942 Y82.542 E0.93548
G1 X78.59 Y82.328 E0.98996
G1 X79.189 Y82.045 E1.04284
G1 X79.78 Y81.667 E1.09884
G1 X80.278 Y81.251 E1.15064
G1 X80.766 Y80.73 E1.20762
G1 X81.16 Y80.181 E1.26156
G1 X81.487 Y79.573 E1.31667
G1 X81.736 Y78.926 E1.37201
G1 X81.94 Y78.002 E1.44754
G1 X82.003 Y77.497 E1.48817
G1 X82.112 Y76.987 E1.5298
G1 X83.345 Y73.196 E1.84801
G1 X83.513 Y72.772 E1.88442
G1 X83.685 Y72.421 E1.91562
G1 X83.97 Y72 E1.9562
G1 X84.279 Y71.671 E1.99223
G1 X84.702 Y71.292 E2.03757
G1 X87.9 Y68.964 E2.35332
G1 X88.275 Y68.722 E2.38895
G1 X88.647 Y68.524 E2.42259
G1 X89.106 Y68.358 E2.46155
G1 X89.562 Y68.27 E2.49862
G1 X89.996 Y68.225 E2.53345
G1 X90.257 Y68.212 E2.55431
G1 X144.776 Y68.212 E6.90625
G1 X145.257 Y68.241 E6.94472
G1 X145.645 Y68.294 E6.97598
G1 X146.128 Y68.435 E7.01614
G1 X146.528 Y68.624 E7.05146
G1 X147.04 Y68.921 E7.0987
G1 X150.217 Y71.236 E7.41249
G1 X150.58 Y71.53 E7.44978
G1 X150.886 Y71.826 E7.48376
G1 X151.181 Y72.207 E7.52223
G1 X151.404 Y72.615 E7.55934
G1 X151.629 Y73.121 E7.60355
G1 X152.854 Y76.88 E7.91914
G1 X152.974 Y77.341 E7.95716
G1 X153.133 Y78.007 E8.01182
G1 X153.382 Y78.664 E8.06791
G1 X153.709 Y79.276 E8.12329
G1 X154.109 Y79.835 E8.17816
G1 X154.555 Y80.321 E8.23082
G1 X155.092 Y80.771 E8.28674
G1 X155.647 Y81.13 E8.33951
G1 X156.3 Y81.441 E8.39724
G1 X156.925 Y81.647 E8.44977
G1 X157.619 Y81.78 E8.50618
G1 X158.312 Y81.808 E8.56154
G1 X158.322 Y81.819 E8.56273
G1 X162.324 Y81.82 E8.88219
G1 X162.805 Y81.849 E8.92065
G1 X163.193 Y81.902 E8.95191
G1 X163.676 Y82.043 E8.99208
G1 X164.076 Y82.232 E9.02739
G1 X164.588 Y82.529 E9.07464
G1 X167.765 Y84.844 E9.38843
G1 X168.128 Y85.138 E9.42571
G1 X168.434 Y85.434 E9.4597
G1 X168.729 Y85.815 E9.49816
G1 X168.952 Y86.223 E9.53528
G1 X169.177 Y86.729 E9.57948
G1 X170.402 Y90.488 E9.89507
G1 X170.513 Y90.915 E9.93029
G1 X170.589 Y91.346 E9.96523
G1 X170.605 Y91.826 E10.00356
G1 X170.544 Y92.31 E10.0425
G1 X170.435 Y92.821 E10.08421
G1 X169.202 Y96.612 E10.40243
G1 X169.038 Y97.027 E10.43805
G1 X168.862 Y97.389 E10.47018
G1 X168.571 Y97.816 E10.51143
G1 X168.268 Y98.137 E10.54666
G1 X167.845 Y98.516 E10.592
G1 X164.654 Y100.839 E10.90707
G1 X164.272 Y101.086 E10.94338
G1 X163.9 Y101.284 E10.97702
G1 X163.441 Y101.45 E11.01598
G1 X162.985 Y101.538 E11.05305
G1 X162.551 Y101.583 E11.08788
G1 X162.29 Y101.596 E11.10874
G1 X161.495 Y101.595 E11.1722
G1 X160.819 Y101.639 E11.22627
G1 X160.138 Y101.77 E11.28163
G1 X159.493 Y101.982 E11.33583
G1 X158.895 Y102.265 E11.38864
G1 X158.315 Y102.634 E11.44351
G1 X157.782 Y103.079 E11.49894
G1 X157.313 Y103.584 E11.55395
G1 X156.926 Y104.124 E11.60698
G1 X156.596 Y104.735 E11.66242
G1 X156.346 Y105.379 E11.71756
G1 X156.184 Y106.045 E11.77227
G1 X156.101 Y106.965 E11.84601
G1 X156.1 Y148.881 E15.19193
G1 X156.072 Y149.355 E15.22983
G1 X156.018 Y149.75 E15.26165
G1 X155.874 Y150.245 E15.3028
G1 X155.669 Y150.7 E15.34264
G1 X155.401 Y151.125 E15.38275
G1 X155.063 Y151.522 E15.42437
G1 X154.671 Y151.865 E15.46595
G1 X154.273 Y152.128 E15.50403
G1 X153.799 Y152.353 E15.54591
G1 X153.303 Y152.505 E15.58732
G1 X152.88 Y152.57 E15.62148
G1 X152.496 Y152.599 E15.65222
G1 X106.777 Y152.6 E19.30171
G1 X106.138 Y152.641 E19.35282
G1 X105.46 Y152.77 E19.40791
G1 X104.792 Y152.99 E19.46405
G1 X104.215 Y153.263 E19.51501
G1 X103.613 Y153.646 E19.57196
G1 X103.09 Y154.083 E19.62637
G1 X102.607 Y154.606 E19.68319
G1 X102.226 Y155.14 E19.73556
G1 X101.904 Y155.739 E19.78984
G1 X101.656 Y156.382 E19.84486
G1 X101.455 Y157.288 E19.91894
G1 X101.427 Y157.501 E19.93608
G1 X101.318 Y158.012 E19.97779
G1 X100.085 Y161.804 E20.29609
G1 X99.923 Y162.215 E20.33135
G1 X99.744 Y162.581 E20.36387
G1 X99.453 Y163.008 E20.40512
G1 X99.151 Y163.329 E20.4403
G1 X98.728 Y163.708 E20.48564
G1 X95.53 Y166.036 E20.80139
G1 X95.155 Y166.278 E20.83702
G1 X94.783 Y166.476 E20.87066
G1 X94.324 Y166.642 E20.90962
G1 X93.868 Y166.73 E20.94669
G1 X93.434 Y166.774 E20.98151
G1 X93.173 Y166.788 E21.00237
G1 X89.359 Y166.788 E21.30682
G1 X88.878 Y166.759 E21.34529
G1 X88.49 Y166.706 E21.37655
G1 X88.007 Y166.565 E21.41671
G1 X87.607 Y166.376 E21.45203
G1 X87.095 Y166.079 E21.49928
G1 X83.918 Y163.764 E21.81306
G1 X83.555 Y163.47 E21.85035
G1 X83.247 Y163.173 E21.88451
G1 X82.954 Y162.792 E21.92287
G1 X82.732 Y162.385 E21.95988
G1 X82.506 Y161.88 E22.00404
G1 X81.278 Y158.106 E22.32085
G1 X81.167 Y157.682 E22.35583
G1 X81.108 Y157.347 E22.38299
G1 X81.083 Y157.098 E22.40296
G1 X80.973 Y156.454 E22.45511
G1 X80.77 Y155.784 E22.511
G1 X80.493 Y155.168 E22.56491
G1 X80.136 Y154.581 E22.61975
G1 X79.71 Y154.046 E22.67434
G1 X79.227 Y153.576 E22.72814
G1 X78.682 Y153.169 E22.78244
G1 X78.083 Y152.826 E22.83754
G1 X77.449 Y152.567 E22.89221
G1 X76.81 Y152.392 E22.94509
G1 X76.144 Y152.296 E22.9988
G1 X75.721 Y152.28 E23.03259
G1 X72.676 Y152.28 E23.27566
G1 X72.195 Y152.251 E23.31412
G1 X71.807 Y152.198 E23.34538
G1 X71.324 Y152.057 E23.38555
G1 X70.924 Y151.868 E23.42086
G1 X70.412 Y151.571 E23.46811
G1 X67.235 Y149.256 E23.7819
G1 X66.872 Y148.962 E23.81919
G1 X66.564 Y148.665 E23.85334
G1 X66.271 Y148.284 E23.89171
G1 X66.049 Y147.877 E23.92871
G1 X65.824 Y147.373 E23.97277
G1 X64.594 Y143.598 E24.2897
G1 X64.487 Y143.185 E24.32376
G1 X64.411 Y142.756 E24.35854
G1 X64.398 Y142.386 E24.38809
G1 X64.397 Y142.011 E24.41802
G1 X64.413 Y141.997 E24.41972
G1 X64.422 Y141.666 E24.44615
G1 X64.398 Y140.947 E24.50358
G1 X64.414 Y140.524 E24.53737
G1 X64.4 Y140.207 E24.5627
G1 X64.413 Y140.194 E24.56416
G1 X64.398 Y139.665 E24.60641
G1 X64.44 Y138.904 E24.66725
G1 X64.422 Y138.408 E24.70687
G1 X64.389 Y137.938 E24.74448
G1 X64.389 Y132.964 E25.14152
G1 X64.417 Y132.351 E25.1905
G1 X64.434 Y132.335 E25.19237
G1 X64.443 Y131.935 E25.22431
G1 X64.424 Y131.424 E25.26512
G1 X64.405 Y131.229 E25.28076
G1 X64.399 Y130.913 E25.30599
G1 X64.411 Y130.639 E25.32789
G1 X64.398 Y130.196 E25.36326
G1 X64.412 Y130.183 E25.36479
G1 X64.394 Y129.713 E25.40233
G1 X64.401 Y129.431 E25.42485
G1 X64.527 Y127.64 E25.56817
G1 X64.531 Y126.953 E25.62301
G1 X64.47 Y126.391 E25.66813
G1 X64.44 Y126.238 E25.68058
G1 X64.405 Y125.854 E25.71136
G1 X64.399 Y125.532 E25.73707
G1 X64.411 Y125.259 E25.75888
G1 X64.414 Y124.797 E25.79576
G1 X64.391 Y124.259 E25.83875
G1 X64.528 Y122.25 E25.99948
G1 X64.532 Y121.558 E26.05472
G1 X64.451 Y120.831 E26.11312
G1 X64.438 Y120.82 E26.11447
G1 X64.405 Y120.463 E26.14309
G1 X64.399 Y120.142 E26.16872
G1 X64.41 Y119.845 E26.19245
G1 X64.395 Y119.43 E26.22559
G1 X64.411 Y119.414 E26.2274
G1 X64.394 Y118.946 E26.26478
G1 X64.402 Y118.654 E26.2881
G1 X64.562 Y116.356 E26.47198
G1 X64.568 Y115.732 E26.52179
G1 X64.392 Y112.027 E26.81788
G1 X64.389 Y106.497 E27.2593
G1 X64.415 Y106.046 E27.29537
G1 X64.489 Y105.548 E27.33555
G1 X64.548 Y104.875 E27.38948
G1 X64.542 Y104.468 E27.42197
G1 X64.399 Y101.796 E27.63557
G1 X64.4 Y101.363 E27.67013
G1 X64.428 Y101.049 E27.6953
G1 X64.458 Y100.862 E27.71042
G1 X64.523 Y100.179 E27.76518
G1 X64.511 Y99.6 E27.81141
G1 X64.399 Y98.067 E27.93411
G1 X64.398 Y97.817 E27.95406
G1 X64.424 Y97.411 E27.98654
G1 X64.396 Y96.115 E28.09002
G1 X64.483 Y95.415 E28.14632
G1 X64.523 Y94.774 E28.19759
G1 X64.509 Y94.36 E28.23066
G1 X64.406 Y92.969 E28.342
G1 X64.399 Y92.538 E28.3764
G1 X64.429 Y92.091 E28.41217
G1 X64.49 Y91.734 E28.44108
G1 X64.501 Y91.728 E28.44208
G1 X64.581 Y91.44 E28.46594
G1 X65.798 Y87.699 E28.77996
G1 X65.966 Y87.275 E28.81637
G1 X66.138 Y86.924 E28.84757
G1 X66.423 Y86.503 E28.88815
G1 X66.732 Y86.174 E28.92418
G1 X67.155 Y85.795 E28.96952
G0 F15000 X67.752 Y85.854
G1 F2250 X134.097 Y152.199 E36.45911
G1 F2700 E31.45911
G1 F300 Z0.44
G0 F15000 X136.359 Y152.199 Z0.44
G1 F300 Z0.24
G1 F2700 E36.45911
G1 F2250 X69.062 Y84.901 E44.05624
G1 F2700 E39.05624
G1 F300 Z0.44
G0 F15000 X70.371 Y83.948 Z0.44
G1 F300 Z0.24
G1 F2700 E44.05624
G1 F2250 X138.622 Y152.199 E51.761
G1 F2700 E46.761
G1 F300 Z0.44
G0 F15000 X140.885 Y152.199 Z0.44
G1 F300 Z0.24
G1 F2700 E51.761
G1 F2250 X71.89 Y83.204 E59.54975
G1 F2700 E54.54975
G1 F300 Z0.44
G0 F15000 X74.063 Y83.114 Z0.44
G1 F300 Z0.24
G1 F2700 E59.54975
G1 F2250 X143.148 Y152.199 E67.34866
G1 F2700 E62.34866
G1 F300 Z0.44
G0 F15000 X145.41 Y152.199 Z0.44
G1 F300 Z0.24
G1 F2700 E67.34866
G1 F2250 X76.326 Y83.114 E75.14752
G1 F2700 E70.14752
G1 F300 Z0.44
G0 F15000 X78.314 Y82.839 Z0.44
G1 F300 Z0.24
G1 F2700 E75.14752
G1 F2250 X147.673 Y152.199 E82.97742
G1 F2700 E77.97742
G1 F300 Z0.44
G0 F15000 X149.936 Y152.199 Z0.44
G1 F300 Z0.24
G1 F2700 E82.97742
G1 F2250 X79.839 Y82.102 E90.89057
G1 F2700 E85.89057
G1 F300 Z0.44
G0 F15000 X81.03 Y81.03 Z0.44
G1 F300 Z0.24
G1 F2700 E90.89057
G1 F2250 X152.199 Y152.199 E98.92475
G1 F2700 E93.92475
G1 F300 Z0.44
G0 F15000 X154.052 Y151.789 Z0.44
G1 F300 Z0.24
G1 F2700 E98.92475
G1 F2250 X81.893 Y79.63 E107.07068
G1 F2700 E102.07068
G1 F300 Z0.44
G0 F15000 X82.362 Y77.836 Z0.44
G1 F300 Z0.24
G1 F2700 E107.07068
G1 F2250 X155.207 Y150.681 E115.29405
G1 F2700 E110.29405
G1 F300 Z0.44
G0 F15000 X155.697 Y148.908 Z0.44
G1 F300 Z0.24
G1 F2700 E115.29405
G1 F2250 X82.836 Y76.048 E123.51917
G1 F2700 E118.51917
G1 F300 Z0.44
G0 F15000 X83.392 Y74.341 Z0.44
G1 F300 Z0.24
G1 F2700 E123.51917
G1 F2250 X155.699 Y146.648 E131.68181
G1 F2700 E126.68181
G1 F300 Z0.44
G0 F15000 X155.699 Y144.386 Z0.44
G1 F300 Z0.24
G1 F2700 E131.68181
G1 F2250 X84 Y72.686 E139.77587
G1 F2700 E134.77587
G1 F300 Z0.44
G0 F15000 X85.084 Y71.508 Z0.44
G1 F300 Z0.24
G1 F2700 E139.77587
G1 F2250 X155.699 Y142.123 E147.7475
G1 F2700 E142.7475
G1 F300 Z0.44
G0 F15000 X155.699 Y139.86 Z0.44
G1 F300 Z0.24
G1 F2700 E147.7475
G1 F2250 X86.393 Y70.554 E155.57136
G1 F2700 E150.57136
G1 F300 Z0.44
G0 F15000 X87.703 Y69.601 Z0.44
G1 F300 Z0.24
G1 F2700 E155.57136
G1 F2250 X155.699 Y137.598 E163.2474
G1 F2700 E158.2474
G1 F300 Z0.44
G0 F15000 X155.699 Y135.335 Z0.44
G1 F300 Z0.24
G1 F2700 E163.2474
G1 F2250 X89.137 Y68.772 E170.76155
G1 F2700 E165.76155
G1 F300 Z0.44
G0 F15000 X91.239 Y68.611 Z0.44
G1 F300 Z0.24
G1 F2700 E170.76155
G1 F2250 X155.699 Y133.072 E178.0384
G1 F2700 E173.0384
G1 F300 Z0.44
G0 F15000 X155.699 Y130.809 Z0.44
G1 F300 Z0.24
G1 F2700 E178.0384
G1 F2250 X93.502 Y68.611 E185.0598
G1 F2700 E180.0598
G1 F300 Z0.44
G0 F15000 X95.764 Y68.611 Z0.44
G1 F300 Z0.24
G1 F2700 E185.0598
G1 F2250 X155.699 Y128.547 E191.82583
G1 F2700 E186.82583
G1 F300 Z0.44
G0 F15000 X155.7 Y126.285 Z0.44
G1 F300 Z0.24
G1 F2700 E191.82583
G1 F2250 X98.027 Y68.611 E198.33652
G1 F2700 E193.33652
G1 F300 Z0.44
G0 F15000 X100.29 Y68.611 Z0.44
G1 F300 Z0.24
G1 F2700 E198.33652
G1 F2250 X155.7 Y124.022 E204.59173
G1 F2700 E199.59173
G1 F300 Z0.44
G0 F15000 X155.7 Y121.759 Z0.44
G1 F300 Z0.24
G1 F2700 E204.59173
G1 F2250 X102.553 Y68.611 E210.59148
G1 F2700 E205.59148
G1 F300 Z0.44
G0 F15000 X104.815 Y68.611 Z0.44
G1 F300 Z0.24
G1 F2700 E210.59148
G1 F2250 X155.7 Y119.496 E216.33582
G1 F2700 E211.33582
G1 F300 Z0.44
G0 F15000 X155.7 Y117.234 Z0.44
G1 F300 Z0.24
G1 F2700 E216.33582
G1 F2250 X107.078 Y68.611 E221.82475
G1 F2700 E216.82475
G1 F300 Z0.44
G0 F15000 X109.341 Y68.611 Z0.44
G1 F300 Z0.24
G1 F2700 E221.82475
G1 F2250 X155.7 Y114.971 E227.05821
G1 F2700 E222.05821
G1 F300 Z0.44
G0 F15000 X155.7 Y112.708 Z0.44
G1 F300 Z0.24
G1 F2700 E227.05821
G1 F2250 X111.604 Y68.611 E232.0362
G1 F2700 E227.0362
G1 F300 Z0.44
G0 F15000 X113.866 Y68.611 Z0.44
G1 F300 Z0.24
G1 F2700 E232.0362
G1 F2250 X155.7 Y110.445 E236.75879
G1 F2700 E231.75879
G1 F300 Z0.44
G0 F15000 X155.7 Y108.183 Z0.44
G1 F300 Z0.24
G1 F2700 E236.75879
G1 F2250 X116.129 Y68.611 E241.22596
G1 F2700 E236.22596
G1 F300 Z0.44
G0 F15000 X118.392 Y68.611 Z0.44
G1 F300 Z0.24
G1 F2700 E241.22596
G1 F2250 X155.786 Y106.005 E245.44732
G1 F2700 E240.44732
G1 F300 Z0.44
G0 F15000 X156.365 Y104.322 Z0.44
G1 F300 Z0.24
G1 F2700 E245.44732
G1 F2250 X120.655 Y68.611 E249.47863
G1 F2700 E244.47863
G1 F300 Z0.44
G0 F15000 X122.917 Y68.611 Z0.44
G1 F300 Z0.24
G1 F2700 E249.47863
G1 F2250 X157.307 Y103.002 E253.36092
G1 F2700 E248.36092
G1 F300 Z0.44
G0 F15000 X158.565 Y101.997 Z0.44
G1 F300 Z0.24
G1 F2700 E253.36092
G1 F2250 X125.18 Y68.611 E257.12977
G1 F2700 E252.12977
G1 F300 Z0.44
G0 F15000 X127.443 Y68.611 Z0.44
G1 F300 Z0.24
G1 F2700 E257.12977
G1 F2250 X160.185 Y101.353 E260.82597
G1 F2700 E255.82597
G1 F300 Z0.44
G0 F15000 X162.289 Y101.195 Z0.44
G1 F300 Z0.24
G1 F2700 E260.82597
G1 F2250 X129.706 Y68.611 E264.50427
G1 F2700 E259.50427
G1 F300 Z0.44
G0 F15000 X131.968 Y68.611 Z0.44
G1 F300 Z0.24
G1 F2700 E264.50427
G1 F2250 X164.085 Y100.728 E268.12992
G1 F2700 E263.12992
G1 F300 Z0.44
G0 F15000 X165.411 Y99.791 Z0.44
G1 F300 Z0.24
G1 F2700 E268.12992
G1 F2250 X134.231 Y68.611 E271.64979
G1 F2700 E266.64979
G1 F300 Z0.44
G0 F15000 X136.494 Y68.611 Z0.44
G1 F300 Z0.24
G1 F2700 E271.64979
G1 F2250 X166.72 Y98.838 E275.06202
G1 F2700 E270.06202
G1 F300 Z0.44
G0 F15000 X167.99 Y97.845 Z0.44
G1 F300 Z0.24
G1 F2700 E275.06202
G1 F2250 X138.756 Y68.611 E278.3622
G1 F2700 E273.3622
G1 F300 Z0.44
G0 F15000 X141.019 Y68.611 Z0.44
G1 F300 Z0.24
G1 F2700 E278.3622
G1 F2250 X168.839 Y96.431 E281.50276
G1 F2700 E276.50276
G1 F300 Z0.44
G0 F15000 X169.394 Y94.724 Z0.44
G1 F300 Z0.24
G1 F2700 E281.50276
G1 F2250 X156.645 Y81.974 E282.94204
G1 F2700 E277.94204
G1 F300 Z0.44
G0 F15000 X159.152 Y82.218 Z0.44
G1 F300 Z0.24
G1 F2700 E282.94204
G1 F2250 X169.95 Y93.017 E284.16107
G1 F2700 E279.16107
G1 F300 Z0.44
G0 F15000 X170.095 Y90.899 Z0.44
G1 F300 Z0.24
G1 F2700 E284.16107
G1 F2250 X161.416 Y82.22 E285.14083
G1 F2700 E280.14083
G1 F300 Z0.44
G0 F15000 X164.261 Y82.802 Z0.44
G1 F300 Z0.24
G1 F2700 E285.14083
G1 F2250 X169.03 Y87.571 E285.67919
G1 F2700 E280.67919
G1 F300 Z0.44
G0 F15000 X152.735 Y78.064 Z0.44
G1 F300 Z0.24
G1 F2700 E285.67919
G1 F2250 X143.282 Y68.611 E286.74633
G1 F2700 E281.74633
G1 F300 Z0.44
G0 F15000 X145.643 Y68.71 Z0.44
G1 F300 Z0.24
G1 F2700 E286.74633
G1 F2250 X151.765 Y74.832 E287.43743
G1 F2700 E282.43743
G1 F300 Z0.44
G0 F15000 X131.834 Y152.199 Z0.44
G1 F300 Z0.24
G1 F2700 E287.43743
G1 F2250 X66.595 Y86.959 E294.80223
G1 F2700 E289.80223
G1 F300 Z0.44
G0 F15000 X65.936 Y88.563 Z0.44
G1 F300 Z0.24
G1 F2700 E294.80223
G1 F2250 X129.571 Y152.199 E301.98596
G1 F2700 E296.98596
G1 F300 Z0.44
G0 F15000 X127.308 Y152.199 Z0.44
G1 F300 Z0.24
G1 F2700 E301.98596
G1 F2250 X65.381 Y90.271 E308.97687
G1 F2700 E303.97687
G1 F300 Z0.44
G0 F15000 X64.849 Y92.002 Z0.44
G1 F300 Z0.24
G1 F2700 E308.97687
G1 F2250 X125.046 Y152.199 E315.77243
G1 F2700 E310.77243
G1 F300 Z0.44
G0 F15000 X122.783 Y152.199 Z0.44
G1 F300 Z0.24
G1 F2700 E315.77243
G1 F2250 X64.906 Y94.322 E322.30608
G1 F2700 E317.30608
G1 F300 Z0.44
G0 F15000 X64.804 Y96.482 Z0.44
G1 F300 Z0.24
G1 F2700 E322.30608
G1 F2250 X120.52 Y152.199 E328.59584
G1 F2700 E323.59584
G1 F300 Z0.44
G0 F15000 X118.257 Y152.199 Z0.44
G1 F300 Z0.24
G1 F2700 E328.59584
G1 F2250 X64.853 Y98.794 E334.6246
G1 F2700 E329.6246
G1 F300 Z0.44
