;FLAVOR:Marlin
;TIME:2363
;Filament used: 4.59334m
;Layer height: 0.4
;MINX:94.885
;MINY:94.9
;MINZ:0.24
;MAXX:140.1
;MAXY:140.1
;MAXZ:11.39
;Generated with Cura_SteamEngine 5.3.1
M140 S60
M105
M190 S60
M104 S230
M105
M109 S230
M82 ;absolute extrusion mode
; Ender 3 Custom Start G-code
G92 E0 ; Reset Extruder
G28 ; Home all axes
G1 Z2.0 F3000 ; Move Z Axis up little to prevent scratching of Heat Bed
G1 X0.1 Y20 Z0.3 F5000.0 ; Move to start position
G1 X0.1 Y200.0 Z0.3 F1500.0 E15 ; Draw the first line
G1 X0.4 Y200.0 Z0.3 F5000.0 ; Move to side a little
G1 X0.4 Y20 Z0.3 F1500.0 E30 ; Draw the second line
G92 E0 ; Reset Extruder
G1 Z2.0 F3000 ; Move Z Axis up little to prevent scratching of Heat Bed
G1 X5 Y20 Z0.3 F5000.0 ; Move over to prevent blob squish
G92 E0
G92 E0
G1 F2700 E-5
;LAYER_COUNT:26
;LAYER:-5
M107
G0 F15000 X95.556 Y95.79 Z0.24
;TYPE:SUPPORT-INTERFACE
G1 F2700 E0
G1 F2250 X95.881 Y95.476 E0.03607
G1 X96.214 Y95.254 E0.06802
G1 X96.622 Y95.061 E0.10405
G1 X96.999 Y94.959 E0.13522
G1 X97.451 Y94.9 E0.17161
G1 X137.369 Y94.9 E3.35804
G1 X137.737 Y94.922 E3.38747
G1 X138.1 Y94.981 E3.41682
G1 X138.489 Y95.108 E3.44949
G1 X138.909 Y95.325 E3.48722
G1 X139.238 Y95.578 E3.52035
G1 X139.524 Y95.881 E3.55361
G1 X139.746 Y96.211 E3.58536
G1 X139.941 Y96.624 E3.62182
G1 X140.04 Y96.995 E3.65247
G1 X140.1 Y97.448 E3.68895
G1 X140.1 Y137.36 E6.87489
G1 X140.078 Y137.738 E6.90512
G1 X140.019 Y138.1 E6.9344
G1 X139.885 Y138.515 E6.96921
G1 X139.675 Y138.91 E7.00492
G1 X139.428 Y139.232 E7.03731
G1 X139.143 Y139.501 E7.0686
G1 X138.762 Y139.763 E7.10551
G1 X138.41 Y139.924 E7.1364
G1 X137.999 Y140.042 E7.17054
G1 X137.549 Y140.099 E7.20674
G1 X97.631 Y140.1 E10.39317
G1 X97.263 Y140.078 E10.4226
G1 X96.9 Y140.019 E10.45196
G1 X96.482 Y139.884 E10.48702
G1 X96.089 Y139.674 E10.52259
G1 X95.766 Y139.426 E10.55509
G1 X95.497 Y139.141 E10.58638
G1 X95.249 Y138.778 E10.62147
G1 X95.061 Y138.38 E10.65661
G1 X94.96 Y138.004 E10.68769
G1 X94.901 Y137.549 E10.72431
G1 X94.885 Y97.597 E13.91345
G1 X94.9 Y97.584 E13.91504
G1 X94.919 Y97.273 E13.93991
G1 X94.989 Y96.86 E13.97334
G1 X95.117 Y96.48 E14.00535
G1 X95.326 Y96.09 E14.04067
G1 X95.556 Y95.79 E14.07085
G0 F15000 X95.957 Y95.957
G1 F2250 X139.043 Y139.043 E18.93477
G1 F2700 E13.93477
G1 F300 Z0.44
G0 F15000 X137.435 Y139.698 Z0.44
G1 F300 Z0.24
G1 F2700 E18.93477
G1 F2250 X95.301 Y97.563 E23.69127
G1 F2700 E18.69127
G1 F300 Z0.44
G0 F15000 X95.286 Y99.811 Z0.44
G1 F300 Z0.24
G1 F2700 E23.69127
G1 F2250 X135.172 Y139.698 E28.19401
G1 F2700 E23.19401
G1 F300 Z0.44
G0 F15000 X132.909 Y139.698 Z0.44
G1 F300 Z0.24
G1 F2700 E28.19401
G1 F2250 X95.286 Y102.075 E32.44122
G1 F2700 E27.44122
G1 F300 Z0.44
G0 F15000 X95.287 Y104.338 Z0.44
G1 F300 Z0.24
G1 F2700 E32.44122
G1 F2250 X130.647 Y139.698 E36.43296
G1 F2700 E31.43296
G1 F300 Z0.44
G0 F15000 X128.384 Y139.698 Z0.44
G1 F300 Z0.24
G1 F2700 E36.43296
G1 F2250 X95.288 Y106.602 E40.16912
G1 F2700 E35.16912
G1 F300 Z0.44
G0 F15000 X95.289 Y108.866 Z0.44
G1 F300 Z0.24
G1 F2700 E40.16912
G1 F2250 X126.121 Y139.698 E43.6497
G1 F2700 E38.6497
G1 F300 Z0.44
G0 F15000 X123.858 Y139.698 Z0.44
G1 F300 Z0.24
G1 F2700 E43.6497
G1 F2250 X95.29 Y111.129 E46.87476
G1 F2700 E41.87476
G1 F300 Z0.44
G0 F15000 X95.291 Y113.393 Z0.44
G1 F300 Z0.24
G1 F2700 E46.87476
G1 F2250 X121.596 Y139.698 E49.8443
G1 F2700 E44.8443
G1 F300 Z0.44
G0 F15000 X119.333 Y139.698 Z0.44
G1 F300 Z0.24
G1 F2700 E49.8443
G1 F2250 X95.291 Y115.656 E52.55837
G1 F2700 E47.55837
G1 F300 Z0.44
G0 F15000 X95.293 Y117.92 Z0.44
G1 F300 Z0.24
G1 F2700 E52.55837
G1 F2250 X117.071 Y139.698 E55.01686
G1 F2700 E50.01686
G1 F300 Z0.44
G0 F15000 X114.808 Y139.698 Z0.44
G1 F300 Z0.24
G1 F2700 E55.01686
G1 F2250 X95.293 Y120.184 E57.21982
G1 F2700 E52.21982
G1 F300 Z0.44
G0 F15000 X95.294 Y122.447 Z0.44
G1 F300 Z0.24
G1 F2700 E57.21982
G1 F2250 X112.545 Y139.698 E59.16726
G1 F2700 E54.16726
G1 F300 Z0.44
G0 F15000 X110.283 Y139.698 Z0.44
G1 F300 Z0.24
G1 F2700 E59.16726
G1 F2250 X95.295 Y124.711 E60.85918
G1 F2700 E55.85918
G1 F300 Z0.44
G0 F15000 X95.296 Y126.975 Z0.44
G1 F300 Z0.24
G1 F2700 E60.85918
G1 F2250 X108.02 Y139.698 E62.29552
G1 F2700 E57.29552
G1 F300 Z0.44
G0 F15000 X105.757 Y139.698 Z0.44
G1 F300 Z0.24
G1 F2700 E62.29552
G1 F2250 X95.297 Y129.238 E63.47634
G1 F2700 E58.47634
G1 F300 Z0.44
G0 F15000 X95.298 Y131.502 Z0.44
G1 F300 Z0.24
G1 F2700 E63.47634
G1 F2250 X103.494 Y139.698 E64.40157
G1 F2700 E59.40157
G1 F300 Z0.44
G0 F15000 X101.232 Y139.698 Z0.44
G1 F300 Z0.24
G1 F2700 E64.40157
G1 F2250 X95.298 Y133.765 E65.0714
G1 F2700 E60.0714
G1 F300 Z0.44
G0 F15000 X95.3 Y136.029 Z0.44
G1 F300 Z0.24
G1 F2700 E65.0714
G1 F2250 X98.969 Y139.698 E65.48558
G1 F2700 E60.48558
G1 F300 Z0.44
G0 F15000 X96.387 Y139.379 Z0.44
G1 F300 Z0.24
G1 F2700 E65.48558
G1 F2250 X95.621 Y138.613 E65.57206
G1 F2700 E60.57206
G1 F300 Z0.44
G0 F15000 X97.563 Y95.3 Z0.44
G1 F300 Z0.24
G1 F2700 E65.57206
G1 F2250 X139.695 Y137.432 E70.32828
G1 F2700 E65.32828
G1 F300 Z0.44
G0 F15000 X139.699 Y135.174 Z0.44
G1 F300 Z0.24
G1 F2700 E70.32828
G1 F2250 X99.825 Y95.3 E74.8296
G1 F2700 E69.8296
G1 F300 Z0.44
G0 F15000 X102.088 Y95.3 Z0.44
G1 F300 Z0.24
G1 F2700 E74.8296
G1 F2250 X139.699 Y132.911 E79.07546
G1 F2700 E74.07546
G1 F300 Z0.44
G0 F15000 X139.699 Y130.648 Z0.44
G1 F300 Z0.24
G1 F2700 E79.07546
G1 F2250 X104.351 Y95.3 E83.06585
G1 F2700 E78.06585
G1 F300 Z0.44
G0 F15000 X106.614 Y95.3 Z0.44
G1 F300 Z0.24
G1 F2700 E83.06585
G1 F2250 X139.699 Y128.385 E86.80077
G1 F2700 E81.80077
G1 F300 Z0.44
G0 F15000 X139.699 Y126.123 Z0.44
G1 F300 Z0.24
G1 F2700 E86.80077
G1 F2250 X108.876 Y95.3 E90.28033
G1 F2700 E85.28033
G1 F300 Z0.44
G0 F15000 X111.139 Y95.3 Z0.44
G1 F300 Z0.24
G1 F2700 E90.28033
G1 F2250 X139.699 Y123.86 E93.50443
G1 F2700 E88.50443
G1 F300 Z0.44
G0 F15000 X139.699 Y121.597 Z0.44
G1 F300 Z0.24
G1 F2700 E93.50443
G1 F2250 X113.402 Y95.3 E96.47307
G1 F2700 E91.47307
G1 F300 Z0.44
G0 F15000 X115.664 Y95.3 Z0.44
G1 F300 Z0.24
G1 F2700 E96.47307
G1 F2250 X139.699 Y119.334 E99.18629
G1 F2700 E94.18629
G1 F300 Z0.44
G0 F15000 X139.699 Y117.072 Z0.44
G1 F300 Z0.24
G1 F2700 E99.18629
G1 F2250 X117.927 Y95.3 E101.6441
G1 F2700 E96.6441
G1 F300 Z0.44
G0 F15000 X120.19 Y95.3 Z0.44
G1 F300 Z0.24
G1 F2700 E101.6441
G1 F2250 X139.699 Y114.809 E103.84644
G1 F2700 E98.84644
G1 F300 Z0.44
G0 F15000 X139.699 Y112.546 Z0.44
G1 F300 Z0.24
G1 F2700 E103.84644
G1 F2250 X122.453 Y95.3 E105.79332
G1 F2700 E100.79332
G1 F300 Z0.44
G0 F15000 X124.715 Y95.3 Z0.44
G1 F300 Z0.24
G1 F2700 E105.79332
G1 F2250 X139.699 Y110.283 E107.48479
G1 F2700 E102.48479
G1 F300 Z0.44
G0 F15000 X139.699 Y108.021 Z0.44
G1 F300 Z0.24
G1 F2700 E107.48479
G1 F2250 X126.978 Y95.3 E108.92084
G1 F2700 E103.92084
G1 F300 Z0.44
G0 F15000 X129.241 Y95.3 Z0.44
G1 F300 Z0.24
G1 F2700 E108.92084
G1 F2250 X139.699 Y105.758 E110.10143
G1 F2700 E105.10143
G1 F300 Z0.44
G0 F15000 X139.699 Y103.495 Z0.44
G1 F300 Z0.24
G1 F2700 E110.10143
G1 F2250 X131.504 Y95.3 E111.02656
G1 F2700 E106.02656
G1 F300 Z0.44
G0 F15000 X133.766 Y95.3 Z0.44
G1 F300 Z0.24
G1 F2700 E111.02656
G1 F2250 X139.699 Y101.232 E111.69627
G1 F2700 E106.69627
G1 F300 Z0.44
G0 F15000 X139.699 Y98.97 Z0.44
G1 F300 Z0.24
G1 F2700 E111.69627
G1 F2250 X136.029 Y95.3 E112.11057
G1 F2700 E107.11057
G1 F300 Z0.44
G0 F15000 X138.617 Y95.625 Z0.44
G1 F300 Z0.24
G1 F2700 E112.11057
G1 F2250 X139.388 Y96.396 E112.19761
G1 F2700 E107.19761
G1 F300 Z0.44
G0 F15000 X96.732 Y95.449 Z0.44
;TIME_ELAPSED:61.500693
;LAYER:-4
G0 X96.732 Y95.449 Z1.04
;TYPE:SUPPORT
G1 F300 Z0.84
G1 F2700 E112.19761
G1 F2250 X96.42 Y95.594 E112.26626
G1 X96.117 Y95.801 E112.3395
G1 X95.863 Y96.044 E112.40964
G1 X95.653 Y96.322 E112.47917
G1 X95.48 Y96.657 E112.55441
G1 X95.386 Y96.946 E112.61506
G1 X96.976 Y95.356 E113.06379
G1 X97.423 Y95.304 E113.1536
G1 X98.443 Y95.303 E113.35715
G1 X95.3 Y98.446 E114.24417
G1 X95.3 Y99.861 E114.52655
G1 X99.857 Y95.303 E115.81278
G1 X101.271 Y95.303 E116.09495
G1 X95.3 Y101.275 E117.78024
G1 X95.3 Y102.689 E118.06242
G1 X102.686 Y95.303 E120.14691
G1 X104.1 Y95.303 E120.42909
G1 X95.3 Y104.103 E122.91264
G1 X95.3 Y105.518 E123.19502
G1 X105.515 Y95.303 E126.07791
G1 X106.929 Y95.303 E126.36009
G1 X95.3 Y106.932 E129.64204
G1 X95.3 Y108.346 E129.92422
G1 X108.343 Y95.303 E133.60524
G1 X109.758 Y95.302 E133.88762
G1 X95.3 Y109.76 E137.96798
G1 X95.3 Y111.174 E138.25016
G1 X111.172 Y95.302 E142.72958
G1 X112.586 Y95.302 E143.01176
G1 X95.3 Y112.589 E147.89038
G1 X95.3 Y114.003 E148.17256
G1 X114.001 Y95.302 E153.45039
G1 X115.416 Y95.301 E153.73276
G1 X95.3 Y115.417 E159.40993
G1 X95.3 Y116.831 E159.69211
G1 X116.83 Y95.301 E165.76834
G1 X118.244 Y95.301 E166.05052
G1 X95.3 Y118.245 E172.52582
G1 X95.3 Y119.66 E172.80819
G1 X119.658 Y95.301 E179.68269
G1 X121.073 Y95.301 E179.96507
G1 X95.3 Y121.074 E187.23877
G1 X95.3 Y122.488 E187.52094
G1 X122.487 Y95.301 E195.1937
G1 X123.902 Y95.301 E195.47608
G1 X95.3 Y123.902 E203.54804
G1 X95.3 Y125.316 E203.83022
G1 X125.316 Y95.301 E212.30124
G1 X126.731 Y95.3 E212.58362
G1 X95.3 Y126.731 E221.45413
G1 X95.3 Y128.145 E221.73631
G1 X128.145 Y95.3 E231.00588
G1 X129.559 Y95.3 E231.28806
G1 X95.3 Y129.559 E240.95669
G1 X95.3 Y130.973 E241.23887
G1 X130.973 Y95.3 E251.30656
G1 X132.388 Y95.299 E251.58894
G1 X95.3 Y132.388 E262.05611
G1 X95.3 Y133.802 E262.33829
G1 X133.802 Y95.299 E273.20453
G1 X135.217 Y95.299 E273.48691
G1 X95.3 Y135.216 E284.75235
G1 X95.3 Y136.63 E285.03453
G1 X136.631 Y95.299 E296.69903
G1 X137.365 Y95.299 E296.8455
G1 X137.684 Y95.318 E296.90928
G1 X137.978 Y95.366 E296.96872
G1 X95.368 Y137.977 E308.99433
G1 X95.433 Y138.22 E309.04453
G1 X95.57 Y138.534 E309.11289
G1 X95.832 Y138.927 E309.20715
G1 X138.928 Y95.831 E321.36977
G1 X139.196 Y96.117 E321.44799
G1 X139.404 Y96.421 E321.5215
G1 X139.514 Y96.659 E321.57382
G1 X96.655 Y139.518 E333.66956
G1 X96.986 Y139.626 E333.73904
G1 X97.315 Y139.681 E333.80561
G1 X97.633 Y139.699 E333.86917
G1 X97.888 Y139.699 E333.92006
G1 X139.698 Y97.889 E345.71974
G1 X139.698 Y99.303 E346.00192
G1 X99.302 Y139.699 E357.40254
G1 X100.716 Y139.699 E357.68472
G1 X139.698 Y100.717 E368.68628
G1 X139.698 Y102.131 E368.96846
G1 X102.13 Y139.699 E379.57097
G1 X103.545 Y139.698 E379.85334
G1 X139.698 Y103.545 E390.0565
G1 X139.698 Y104.96 E390.33888
G1 X104.96 Y139.698 E400.14269
G1 X106.374 Y139.698 E400.42487
G1 X139.698 Y106.374 E409.82963
G1 X139.698 Y107.788 E410.1118
G1 X107.789 Y139.698 E419.11736
G1 X109.203 Y139.698 E419.39953
G1 X139.698 Y109.202 E428.00602
G1 X139.698 Y110.616 E428.2882
G1 X110.617 Y139.698 E436.49563
G1 X112.031 Y139.698 E436.77781
G1 X139.698 Y112.031 E444.58603
G1 X139.698 Y113.445 E444.86821
G1 X113.446 Y139.697 E452.27709
G1 X114.861 Y139.697 E452.55947
G1 X139.698 Y114.859 E459.56915
G1 X139.698 Y116.273 E459.85133
G1 X116.275 Y139.697 E466.46195
G1 X117.69 Y139.696 E466.74433
G1 X139.698 Y117.688 E472.95546
G1 X139.698 Y119.102 E473.23764
G1 X119.104 Y139.696 E479.04971
G1 X120.518 Y139.696 E479.33189
G1 X139.698 Y120.516 E484.7449
G1 X139.698 Y121.93 E485.02708
G1 X121.932 Y139.696 E490.04103
G1 X123.347 Y139.696 E490.32341
G1 X139.698 Y123.344 E494.93815
G1 X139.698 Y124.759 E495.22053
G1 X124.761 Y139.696 E499.43608
G1 X126.176 Y139.696 E499.71845
G1 X139.698 Y126.173 E503.5348
G1 X139.698 Y127.587 E503.81698
G1 X127.591 Y139.695 E507.23397
G1 X129.005 Y139.695 E507.51615
G1 X139.698 Y129.001 E510.53409
G1 X139.698 Y130.415 E510.81627
G1 X130.419 Y139.695 E513.43514
G1 X131.833 Y139.695 E513.71732
G1 X139.698 Y131.83 E515.937
G1 X139.698 Y133.244 E516.21917
G1 X133.248 Y139.694 E518.0395
G1 X134.662 Y139.694 E518.32168
G1 X139.698 Y134.658 E519.74295
G1 X139.698 Y136.072 E520.02513
G1 X136.077 Y139.694 E521.0472
G1 X137.491 Y139.694 E521.32937
G1 X139.691 Y137.494 E521.95026
G1 X139.681 Y137.685 E521.98843
G1 X139.626 Y138.013 E522.0548
G1 X139.519 Y138.342 E522.12384
G1 X139.345 Y138.676 E522.199
G1 X139.135 Y138.954 E522.26852
G1 X138.882 Y139.197 E522.33853
G1 X138.583 Y139.401 E522.41076
G1 X138.254 Y139.554 E522.48317
G1 X137.921 Y139.647 E522.55217
G1 X137.566 Y139.693 E522.6236
G1 F2700 E517.6236
G1 F300 Z1.04
G0 F15000 X95.804 Y138.884 Z1.04
;TIME_ELAPSED:122.446828
;LAYER:-3
;TYPE:SUPPORT-INTERFACE
G1 F300 Z1.04
G1 F2700 E522.6236
G1 F3000 X96.044 Y139.135 E522.63515
G1 X96.323 Y139.345 E522.64677
G1 X96.385 Y139.377 E522.64909
G1 X95.592 Y138.586 E522.68634
G1 X95.433 Y138.22 E522.69961
G1 X95.339 Y137.875 E522.71151
G1 X95.325 Y137.752 E522.71562
G1 X97.251 Y139.677 E522.80619
G1 X97.852 Y139.712 E522.82622
G1 X95.3 Y137.161 E522.94623
G1 X95.3 Y136.595 E522.96506
G1 X98.403 Y139.698 E523.11101
G1 X98.969 Y139.698 E523.12984
G1 X95.3 Y136.029 E523.30242
G1 X95.3 Y135.463 E523.32124
G1 X99.535 Y139.698 E523.52044
G1 X100.1 Y139.698 E523.53924
G1 X95.3 Y134.898 E523.76501
G1 X95.3 Y134.332 E523.78384
G1 X100.666 Y139.698 E524.03624
G1 X101.232 Y139.698 E524.05506
G1 X95.3 Y133.766 E524.33409
G1 X95.3 Y133.201 E524.35288
G1 X101.797 Y139.698 E524.65848
G1 X102.363 Y139.698 E524.6773
G1 X95.3 Y132.635 E525.00952
G1 X95.3 Y132.069 E525.02835
G1 X102.928 Y139.698 E525.38717
G1 X103.494 Y139.698 E525.406
G1 X95.3 Y131.504 E525.79142
G1 X95.3 Y130.938 E525.81024
G1 X104.059 Y139.698 E526.22226
G1 X104.625 Y139.698 E526.24109
G1 X95.3 Y130.372 E526.67973
G1 X95.3 Y129.807 E526.69852
G1 X105.191 Y139.698 E527.16376
G1 X105.757 Y139.698 E527.18259
G1 X95.3 Y129.241 E527.67446
G1 X95.3 Y128.675 E527.69328
G1 X106.322 Y139.698 E528.21175
G1 X106.888 Y139.698 E528.23057
G1 X95.3 Y128.11 E528.77563
G1 X95.3 Y127.544 E528.79446
G1 X107.454 Y139.698 E529.36615
G1 X108.019 Y139.697 E529.38494
G1 X95.3 Y126.978 E529.9832
G1 X95.3 Y126.413 E530.00199
G1 X108.584 Y139.697 E530.62683
G1 X109.15 Y139.697 E530.64566
G1 X95.3 Y125.847 E531.29712
G1 X95.3 Y125.281 E531.31594
G1 X109.716 Y139.697 E531.99403
G1 X110.281 Y139.697 E532.01282
G1 X95.3 Y124.715 E532.7175
G1 X95.3 Y124.15 E532.7363
G1 X110.847 Y139.697 E533.46758
G1 X111.413 Y139.697 E533.4864
G1 X95.3 Y123.584 E534.24431
G1 X95.3 Y123.018 E534.26314
G1 X111.978 Y139.697 E535.04764
G1 X112.544 Y139.697 E535.06647
G1 X95.3 Y122.453 E535.87757
G1 X95.3 Y121.887 E535.8964
G1 X113.109 Y139.696 E536.73408
G1 X113.675 Y139.696 E536.7529
G1 X95.3 Y121.321 E537.61721
G1 X95.3 Y120.756 E537.636
G1 X114.24 Y139.696 E538.52688
G1 X114.806 Y139.696 E538.5457
G1 X95.3 Y120.19 E539.46321
G1 X95.3 Y119.624 E539.48203
G1 X115.372 Y139.696 E540.42616
G1 X115.937 Y139.696 E540.44495
G1 X95.3 Y119.059 E541.41565
G1 X95.3 Y118.493 E541.43447
G1 X116.503 Y139.696 E542.4318
G1 X117.069 Y139.696 E542.45062
G1 X95.3 Y117.927 E543.47457
G1 X95.3 Y117.362 E543.49336
G1 X117.634 Y139.696 E544.54389
G1 X118.199 Y139.696 E544.56268
G1 X95.3 Y116.796 E545.6398
G1 X95.3 Y116.23 E545.65863
G1 X118.765 Y139.696 E546.76237
G1 X119.331 Y139.696 E546.7812
G1 X95.3 Y115.664 E547.91156
G1 X95.3 Y115.099 E547.93036
G1 X119.897 Y139.696 E549.08732
G1 X120.462 Y139.696 E549.10612
G1 X95.3 Y114.533 E550.28968
G1 X95.3 Y113.967 E550.30851
G1 X121.028 Y139.696 E551.5187
G1 X121.594 Y139.696 E551.53752
G1 X95.3 Y113.402 E552.77431
G1 X95.3 Y112.836 E552.79314
G1 X122.159 Y139.696 E554.05653
G1 X122.724 Y139.695 E554.07532
G1 X95.3 Y112.27 E555.36528
G1 X95.3 Y111.705 E555.38407
G1 X123.29 Y139.695 E556.70064
G1 X123.856 Y139.695 E556.71946
G1 X95.3 Y111.139 E558.06265
G1 X95.3 Y110.573 E558.08147
G1 X124.421 Y139.695 E559.45126
G1 X124.987 Y139.695 E559.47009
G1 X95.3 Y110.008 E560.86647
G1 X95.3 Y109.442 E560.8853
G1 X125.553 Y139.695 E562.3083
G1 X126.118 Y139.695 E562.3271
G1 X95.3 Y108.876 E563.7767
G1 X95.3 Y108.311 E563.7955
G1 X126.684 Y139.695 E565.2717
G1 X127.25 Y139.695 E565.29053
G1 X95.3 Y107.745 E566.79336
G1 X95.3 Y107.179 E566.81218
G1 X127.815 Y139.694 E568.34159
G1 X128.38 Y139.694 E568.36038
G1 X95.3 Y106.614 E569.91636
G1 X95.3 Y106.048 E569.93519
G1 X128.946 Y139.694 E571.51779
G1 X129.512 Y139.694 E571.53662
G1 X95.3 Y105.482 E573.14585
G1 X95.3 Y104.916 E573.16467
G1 X130.077 Y139.694 E574.8005
