;FLAVOR:Marlin
;TIME:470
;Filament used: 0.799534m
;Layer height: 0.4
;MINX:98.051
;MINY:98.051
;MINZ:0.24
;MAXX:136.949
;MAXY:136.949
;MAXZ:6.59
;Generated with Cura_SteamEngine 5.3.1
M140 S60
M105
M190 S60
M104 S230
M105
M109 S230
M82 ;absolute extrusion mode
; Ender 3 Custom Start G-code
G92 E0 ; Reset Extruder
G28 ; Home all axes
G1 Z2.0 F3000 ; Move Z Axis up little to prevent scratching of Heat Bed
G1 X0.1 Y20 Z0.3 F5000.0 ; Move to start position
G1 X0.1 Y200.0 Z0.3 F1500.0 E15 ; Draw the first line
G1 X0.4 Y200.0 Z0.3 F5000.0 ; Move to side a little
G1 X0.4 Y20 Z0.3 F1500.0 E30 ; Draw the second line
G92 E0 ; Reset Extruder
G1 Z2.0 F3000 ; Move Z Axis up little to prevent scratching of Heat Bed
G1 X5 Y20 Z0.3 F5000.0 ; Move over to prevent blob squish
G92 E0
G92 E0
G1 F2700 E-5
;LAYER_COUNT:13
;LAYER:-5
M107
G0 F15000 X109.254 Y109.131 Z0.24
;TYPE:SUPPORT-INTERFACE
G1 F2700 E0
G1 F2250 X108.989 Y109.403 E0.03031
G1 X108.557 Y109.883 E0.08186
G1 X108.315 Y110.175 E0.11213
G1 X107.941 Y110.67 E0.16166
G1 X107.707 Y111.008 E0.19447
G1 X107.477 Y111.37 E0.22871
G1 X107.276 Y111.711 E0.26031
G1 X106.999 Y112.23 E0.30727
G1 X106.693 Y112.888 E0.36519
G1 X106.582 Y113.159 E0.38857
G1 X106.35 Y113.801 E0.44306
G1 X106.244 Y114.141 E0.47149
G1 X106.106 Y114.627 E0.51182
G1 X105.985 Y115.165 E0.55584
G1 X105.924 Y115.499 E0.58294
G1 X105.857 Y115.944 E0.61886
G1 X105.803 Y116.393 E0.65496
G1 X105.773 Y116.813 E0.68857
G1 X105.758 Y117.155 E0.7159
G1 X105.752 Y117.601 E0.7515
G1 X105.773 Y118.185 E0.79815
G1 X105.801 Y118.619 E0.83287
G1 X105.908 Y119.411 E0.89666
G1 X105.988 Y119.855 E0.93267
G1 X106.147 Y120.541 E0.98888
G1 X106.337 Y121.171 E1.04141
G1 X106.482 Y121.583 E1.07628
G1 X106.645 Y121.991 E1.11135
G1 X106.808 Y122.37 E1.14428
G1 X106.992 Y122.757 E1.17849
G1 X107.173 Y123.104 E1.20973
G1 X107.375 Y123.462 E1.24254
G1 X107.712 Y124.001 E1.29328
G1 X107.927 Y124.311 E1.3234
G1 X108.22 Y124.688 E1.36151
G1 X108.217 Y124.707 E1.36305
G1 X108.545 Y125.102 E1.40403
G1 X108.981 Y125.591 E1.45633
G1 X109.283 Y125.897 E1.49064
G1 X109.531 Y126.129 E1.51775
G1 X110.033 Y126.571 E1.57114
G1 X110.358 Y126.828 E1.60422
G1 X110.657 Y127.05 E1.63395
G1 X111.024 Y127.304 E1.66957
G1 X111.367 Y127.521 E1.70197
G1 X111.712 Y127.724 E1.73392
G1 X112.23 Y128.001 E1.78081
G1 X113.095 Y128.39 E1.85652
G1 X113.11 Y128.383 E1.85784
G1 X113.412 Y128.505 E1.88384
G1 X113.42 Y128.501 E1.88456
G1 X113.801 Y128.651 E1.91724
G1 X114.144 Y128.758 E1.94592
G1 X114.627 Y128.894 E1.98598
G1 X115.165 Y129.015 E2.03
G1 X115.545 Y129.083 E2.06081
G1 X115.943 Y129.143 E2.09294
G1 X116.376 Y129.195 E2.12775
G1 X116.813 Y129.227 E2.16273
G1 X117.192 Y129.243 E2.19301
G1 X117.594 Y129.248 E2.2251
G1 X118.185 Y129.227 E2.27231
G1 X118.618 Y129.2 E2.30694
G1 X119.412 Y129.092 E2.3709
G1 X119.864 Y129.01 E2.40757
G1 X120.553 Y128.851 E2.46402
G1 X121.419 Y128.576 E2.53655
G1 X121.878 Y128.401 E2.57576
G1 X122.596 Y128.088 E2.63828
G1 X123.267 Y127.737 E2.69873
G1 X123.612 Y127.535 E2.73064
G1 X123.98 Y127.302 E2.76541
G1 X124.324 Y127.065 E2.79876
G1 X124.647 Y126.824 E2.83093
G1 X124.97 Y126.569 E2.86378
G1 X125.43 Y126.169 E2.91244
G1 X125.746 Y125.869 E2.94722
G1 X126.011 Y125.597 E2.97753
G1 X126.575 Y124.963 E3.04527
G1 X126.832 Y124.638 E3.07834
G1 X127.054 Y124.337 E3.1082
G1 X127.317 Y123.955 E3.14522
G1 X127.518 Y123.639 E3.17511
G1 X127.742 Y123.258 E3.21039
G1 X128.014 Y122.746 E3.25667
G1 X128.312 Y122.101 E3.31339
G1 X128.419 Y121.838 E3.33605
G1 X128.658 Y121.176 E3.39223
G1 X128.877 Y120.429 E3.45437
G1 X129.084 Y119.456 E3.53378
G1 X129.143 Y119.056 E3.56605
G1 X129.197 Y118.607 E3.60215
G1 X129.227 Y118.187 E3.63577
G1 X129.242 Y117.845 E3.66309
G1 X129.249 Y117.407 E3.69806
G1 X129.227 Y116.814 E3.74543
G1 X129.162 Y116.159 E3.79797
G1 X129.173 Y116.146 E3.79933
G1 X129.09 Y115.573 E3.84555
G1 X129.01 Y115.135 E3.88109
G1 X128.926 Y114.758 E3.91192
G1 X128.779 Y114.212 E3.95705
G1 X128.575 Y113.579 E4.01014
G1 X128.444 Y113.227 E4.04012
G1 X128.182 Y112.605 E4.094
G1 X127.936 Y112.104 E4.13855
G1 X127.737 Y111.732 E4.17223
G1 X127.517 Y111.359 E4.2068
G1 X127.179 Y110.842 E4.2561
G1 X126.824 Y110.357 E4.30408
G1 X126.452 Y109.893 E4.35155
G1 X126.168 Y109.571 E4.38583
G1 X125.87 Y109.255 E4.4205
G1 X125.598 Y108.989 E4.45087
G1 X124.963 Y108.425 E4.51866
G1 X124.637 Y108.168 E4.5518
G1 X124.342 Y107.95 E4.58108
G1 X123.976 Y107.696 E4.61664
G1 X123.627 Y107.475 E4.64961
G1 X123.276 Y107.268 E4.68214
G1 X122.77 Y106.998 E4.72792
G1 X122.38 Y106.813 E4.76238
G1 X121.584 Y106.493 E4.83086
G1 X121.576 Y106.498 E4.83162
G1 X121.211 Y106.353 E4.86297
G1 X120.856 Y106.242 E4.89266
G1 X120.373 Y106.106 E4.93271
G1 X119.835 Y105.985 E4.97673
G1 X119.457 Y105.917 E5.00739
G1 X119.057 Y105.857 E5.03967
G1 X118.621 Y105.804 E5.07473
G1 X118.187 Y105.773 E5.10947
G1 X117.584 Y105.752 E5.15763
G1 X117.197 Y105.757 E5.18852
G1 X116.386 Y105.8 E5.25335
G1 X115.588 Y105.908 E5.31763
G1 X115.136 Y105.99 E5.3543
G1 X114.459 Y106.147 E5.40978
G1 X113.581 Y106.424 E5.48327
G1 X113.122 Y106.599 E5.52248
G1 X112.41 Y106.91 E5.5845
G1 X111.733 Y107.263 E5.64545
G1 X111.395 Y107.462 E5.67676
G1 X111.02 Y107.699 E5.71217
G1 X110.672 Y107.938 E5.74587
G1 X110.353 Y108.176 E5.77764
G1 X110.031 Y108.431 E5.81042
G1 X109.576 Y108.827 E5.85857
G1 X109.254 Y109.131 E5.89392
G1 F2700 E0.89392
G1 F300 Z0.44
G0 F15000 X103.702 Y103.793 Z0.44
G1 F300 Z0.24
G1 F2700 E5.89392
G1 F2250 X104.246 Y103.265 E5.95444
G1 X104.755 Y102.809 E6.00899
G1 X105.265 Y102.381 E6.06214
G1 X105.753 Y101.999 E6.11161
G1 X106.372 Y101.55 E6.17265
G1 X106.903 Y101.191 E6.22381
G1 X107.732 Y100.681 E6.30151
G1 X108.418 Y100.302 E6.36407
G1 X108.957 Y100.025 E6.41244
G1 X110.032 Y99.526 E6.50705
G1 X110.046 Y99.534 E6.50833
G1 X110.427 Y99.38 E6.54114
G1 X111.223 Y99.091 E6.60874
G1 X111.779 Y98.911 E6.65539
G1 X112.2 Y98.786 E6.69044
G1 X112.499 Y98.707 E6.71513
G1 X113.482 Y98.472 E6.79581
G1 X114.135 Y98.345 E6.84891
G1 X115.331 Y98.162 E6.94549
G1 X115.343 Y98.172 E6.94674
G1 X116.298 Y98.089 E7.02326
G1 X116.895 Y98.06 E7.07097
G1 X117.506 Y98.051 E7.11975
G1 X118.234 Y98.064 E7.17787
G1 X118.791 Y98.091 E7.22238
G1 X119.483 Y98.151 E7.27783
G1 X120.267 Y98.25 E7.34091
G1 X121.308 Y98.418 E7.42508
G1 X121.317 Y98.432 E7.42641
G1 X122.414 Y98.684 E7.51625
G1 X122.769 Y98.777 E7.54555
G1 X123.673 Y99.045 E7.62081
G1 X123.681 Y99.062 E7.62231
G1 X124.929 Y99.511 E7.72819
G1 X124.934 Y99.526 E7.72945
G1 X126.338 Y100.163 E7.85252
G1 X126.343 Y100.181 E7.85401
G1 X127.268 Y100.681 E7.93794
G1 X127.831 Y101.021 E7.99044
G1 X128.61 Y101.533 E8.06485
G1 X129.15 Y101.926 E8.11817
G1 X129.754 Y102.396 E8.17926
G1 X130.305 Y102.861 E8.23681
G1 X130.802 Y103.312 E8.29038
G1 X131.291 Y103.788 E8.34486
G1 X131.762 Y104.277 E8.39905
G1 X132.147 Y104.703 E8.44489
G1 X132.59 Y105.232 E8.49997
G1 X133.003 Y105.757 E8.55329
G1 X133.457 Y106.381 E8.61489
G1 X133.983 Y107.175 E8.69091
G1 X134.311 Y107.718 E8.74155
G1 X134.697 Y108.417 E8.80529
G1 X135.015 Y109.043 E8.86134
G1 X135.469 Y110.039 E8.94871
G1 X135.463 Y110.048 E8.94958
G1 X135.643 Y110.493 E8.98789
G1 X135.909 Y111.224 E9.04999
G1 X136.065 Y111.704 E9.09028
G1 X136.232 Y112.265 E9.137
G1 X136.509 Y113.385 E9.2291
G1 X136.637 Y114.033 E9.28182
G1 X136.768 Y114.858 E9.3485
G1 X136.849 Y115.532 E9.40269
G1 X136.902 Y116.162 E9.45316
G1 X136.94 Y116.878 E9.51039
G1 X136.949 Y117.411 E9.55295
G1 X136.94 Y118.127 E9.61011
G1 X136.91 Y118.791 E9.66316
G1 X136.852 Y119.459 E9.71669
G1 X136.739 Y120.391 E9.79163
G1 X136.584 Y121.274 E9.86319
G1 X136.51 Y121.615 E9.89104
G1 X136.299 Y122.484 E9.96243
G1 X136.185 Y122.903 E9.99709
G1 X135.963 Y123.643 E10.05876
G1 X135.95 Y123.65 E10.05994
G1 X135.638 Y124.519 E10.13364
G1 X135.425 Y125.05 E10.17931
G1 X134.919 Y126.174 E10.27771
G1 X134.388 Y127.173 E10.36801
G1 X134.369 Y127.181 E10.36966
G1 X133.781 Y128.14 E10.45946
G1 X133.433 Y128.655 E10.50907
G1 X133.049 Y129.184 E10.56125
G1 X132.569 Y129.797 E10.6234
G1 X132.141 Y130.302 E10.67624
G1 X131.72 Y130.77 E10.72649
G1 X131.298 Y131.207 E10.77498
G1 X130.753 Y131.735 E10.83556
G1 X130.296 Y132.148 E10.88472
G1 X129.757 Y132.6 E10.94088
G1 X129.199 Y133.036 E10.9974
G1 X128.726 Y133.383 E11.04423
G1 X128.067 Y133.828 E11.1077
G1 X127.269 Y134.318 E11.18245
G1 X126.582 Y134.698 E11.24512
G1 X126.044 Y134.974 E11.29339
G1 X125.174 Y135.371 E11.36973
G1 X124.421 Y135.677 E11.43461
G1 X123.78 Y135.907 E11.48897
G1 X123.25 Y136.079 E11.53345
G1 X122.765 Y136.224 E11.57386
G1 X122.444 Y136.308 E11.60034
G1 X121.518 Y136.528 E11.67632
G1 X120.878 Y136.652 E11.72836
G1 X119.669 Y136.839 E11.82601
G1 X119.657 Y136.828 E11.82731
G1 X118.702 Y136.911 E11.90383
G1 X118.041 Y136.942 E11.95665
G1 X117.495 Y136.949 E12.00024
G1 X116.766 Y136.936 E12.05844
G1 X116.209 Y136.909 E12.10295
G1 X115.517 Y136.848 E12.15841
G1 X114.755 Y136.754 E12.21969
G1 X113.692 Y136.582 E12.30565
G1 X113.683 Y136.568 E12.30698
G1 X112.586 Y136.316 E12.39683
G1 X112.231 Y136.223 E12.42612
G1 X111.365 Y135.968 E12.49818
G1 X111.359 Y135.954 E12.4994
G1 X110.492 Y135.642 E12.57295
G1 X109.81 Y135.364 E12.63174
G1 X109.044 Y135.014 E12.69897
G1 X108.335 Y134.654 E12.76244
G1 X107.724 Y134.314 E12.81826
G1 X106.9 Y133.807 E12.89549
G1 X106.345 Y133.433 E12.94891
G1 X105.687 Y132.951 E13.01402
G1 X105.183 Y132.552 E13.06533
G1 X104.679 Y132.124 E13.11811
G1 X104.268 Y131.754 E13.16225
G1 X103.697 Y131.201 E13.22571
G1 X103.263 Y130.749 E13.27573
G1 X102.66 Y130.087 E13.34721
G1 X102.661 Y130.071 E13.34849
G1 X102.348 Y129.694 E13.3876
G1 X101.996 Y129.242 E13.43333
G1 X101.616 Y128.726 E13.48448
G1 X101.203 Y128.115 E13.54335
G1 X100.655 Y127.225 E13.62678
G1 X100.299 Y126.577 E13.6858
G1 X99.982 Y125.95 E13.74188
G1 X99.623 Y125.161 E13.81108
G1 X99.257 Y124.268 E13.88812
G1 X99.264 Y124.256 E13.88923
G1 X99.089 Y123.771 E13.93038
G1 X98.909 Y123.215 E13.97703
G1 X98.736 Y122.614 E14.02696
G1 X98.489 Y121.607 E14.10972
G1 X98.351 Y120.901 E14.16714
G1 X98.259 Y120.354 E14.21142
G1 X98.146 Y119.418 E14.28668
G1 X98.09 Y118.723 E14.34234
G1 X98.058 Y118.058 E14.39548
G1 X98.051 Y117.505 E14.43963
G1 X98.06 Y116.873 E14.49008
G1 X98.09 Y116.209 E14.54314
G1 X98.147 Y115.541 E14.59666
G1 X98.245 Y114.762 E14.65933
G1 X98.339 Y114.168 E14.70734
G1 X98.435 Y113.643 E14.74994
G1 X98.49 Y113.386 E14.77092
G1 X98.711 Y112.48 E14.84536
G1 X99.038 Y111.352 E14.93911
G1 X99.052 Y111.347 E14.94029
G1 X99.366 Y110.467 E15.01488
G1 X99.575 Y109.951 E15.05932
G1 X99.998 Y109.015 E15.14131
G1 X100.306 Y108.408 E15.19564
G1 X100.634 Y107.809 E15.25016
G1 X101.021 Y107.169 E15.30986
G1 X101.538 Y106.387 E15.38469
G1 X102.004 Y105.747 E15.44789
G1 X102.354 Y105.298 E15.49333
G1 X102.834 Y104.727 E15.55287
G1 X103.284 Y104.225 E15.60669
G1 X103.702 Y103.793 E15.65467
G0 F15000 X104.03 Y104.03
G1 F2250 X108.91 Y108.91 E16.20557
G1 F2700 E11.20557
G1 F300 Z0.44
G0 F15000 X110.115 Y107.852 Z0.44
G1 F300 Z0.24
G1 F2700 E16.20557
G1 F2250 X105.211 Y102.948 E16.75918
G1 F2700 E11.75918
G1 F300 Z0.44
G0 F15000 X106.486 Y101.96 Z0.44
G1 F300 Z0.24
G1 F2700 E16.75918
G1 F2250 X111.475 Y106.949 E17.32238
G1 F2700 E12.32238
G1 F300 Z0.44
G0 F15000 X113.003 Y106.215 Z0.44
G1 F300 Z0.24
G1 F2700 E17.32238
G1 F2250 X107.86 Y101.072 E17.90296
G1 F2700 E12.90296
G1 F300 Z0.44
G0 F15000 X109.339 Y100.288 Z0.44
G1 F300 Z0.24
G1 F2700 E17.90296
G1 F2250 X114.724 Y105.673 E18.51087
G1 F2700 E13.51087
G1 F300 Z0.44
G0 F15000 X116.697 Y105.383 Z0.44
G1 F300 Z0.24
G1 F2700 E18.51087
G1 F2250 X110.935 Y99.621 E19.16133
G1 F2700 E14.16133
G1 F300 Z0.44
G0 F15000 X112.656 Y99.079 Z0.44
G1 F300 Z0.24
G1 F2700 E19.16133
G1 F2250 X119.026 Y105.45 E19.88049
G1 F2700 E14.88049
G1 F300 Z0.44
G0 F15000 X122.113 Y106.274 Z0.44
G1 F300 Z0.24
G1 F2700 E19.88049
G1 F2250 X114.528 Y98.689 E20.73675
G1 F2700 E15.73675
G1 F300 Z0.44
G0 F15000 X116.578 Y98.476 Z0.44
G1 F300 Z0.24
G1 F2700 E20.73675
G1 F2250 X136.526 Y118.424 E22.98865
G1 F2700 E17.98865
G1 F300 Z0.44
G0 F15000 X136.316 Y120.477 Z0.44
G1 F300 Z0.24
G1 F2700 E22.98865
G1 F2250 X128.74 Y112.9 E23.84395
G1 F2700 E18.84395
G1 F300 Z0.44
G0 F15000 X129.555 Y115.978 Z0.44
G1 F300 Z0.24
G1 F2700 E23.84395
G1 F2250 X135.92 Y122.344 E24.56255
G1 F2700 E19.56255
G1 F300 Z0.44
G0 F15000 X135.376 Y124.062 Z0.44
G1 F300 Z0.24
G1 F2700 E24.56255
G1 F2250 X129.614 Y118.301 E25.21295
G1 F2700 E20.21295
G1 F300 Z0.44
G0 F15000 X129.319 Y120.268 Z0.44
G1 F300 Z0.24
G1 F2700 E25.21295
G1 F2250 X134.71 Y125.659 E25.82154
G1 F2700 E20.82154
G1 F300 Z0.44
G0 F15000 X133.926 Y127.137 Z0.44
G1 F300 Z0.24
G1 F2700 E25.82154
G1 F2250 X128.785 Y121.997 E26.40184
G1 F2700 E21.40184
G1 F300 Z0.44
G0 F15000 X128.048 Y123.523 Z0.44
G1 F300 Z0.24
G1 F2700 E26.40184
G1 F2250 X133.04 Y128.514 E26.96532
G1 F2700 E21.96532
G1 F300 Z0.44
G0 F15000 X132.051 Y129.788 Z0.44
G1 F300 Z0.24
G1 F2700 E26.96532
G1 F2250 X127.146 Y124.883 E27.51904
G1 F2700 E22.51904
G1 F300 Z0.44
G0 F15000 X126.088 Y126.088 Z0.44
G1 F300 Z0.24
G1 F2700 E27.51904
G1 F2250 X130.968 Y130.968 E28.06994
G1 F2700 E23.06994
G1 F300 Z0.44
G0 F15000 X129.788 Y132.05 Z0.44
G1 F300 Z0.24
G1 F2700 E28.06994
G1 F2250 X124.883 Y127.146 E28.6236
G1 F2700 E23.6236
G1 F300 Z0.44
G0 F15000 X123.525 Y128.05 Z0.44
G1 F300 Z0.24
G1 F2700 E28.6236
G1 F2250 X128.515 Y133.04 E29.18692
G1 F2700 E24.18692
G1 F300 Z0.44
G0 F15000 X127.138 Y133.926 Z0.44
G1 F300 Z0.24
G1 F2700 E29.18692
G1 F2250 X121.995 Y128.783 E29.7675
G1 F2700 E24.7675
G1 F300 Z0.44
G0 F15000 X120.274 Y129.325 Z0.44
G1 F300 Z0.24
G1 F2700 E29.7675
G1 F2250 X125.658 Y134.709 E30.3753
G1 F2700 E25.3753
G1 F300 Z0.44
G0 F15000 X124.064 Y135.378 Z0.44
G1 F300 Z0.24
G1 F2700 E30.3753
G1 F2250 X118.306 Y129.619 E31.02536
G1 F2700 E26.02536
G1 F300 Z0.44
G0 F15000 X115.972 Y129.549 Z0.44
G1 F300 Z0.24
G1 F2700 E31.02536
G1 F2250 X122.342 Y135.919 E31.74447
G1 F2700 E26.74447
G1 F300 Z0.44
G0 F15000 X120.47 Y136.309 Z0.44
G1 F300 Z0.24
G1 F2700 E31.74447
G1 F2250 X112.896 Y128.735 E32.59948
G1 F2700 E27.59948
G1 F300 Z0.44
G0 F15000 X110.2 Y135.09 Z0.44
G1 F300 Z0.24
G1 F2700 E32.59948
G1 F2250 X99.905 Y124.795 E33.76167
G1 F2700 E28.76167
G1 F300 Z0.44
G0 F15000 X98.876 Y121.504 Z0.44
G1 F300 Z0.24
G1 F2700 E33.76167
G1 F2250 X113.482 Y136.11 E35.41052
G1 F2700 E30.41052
G1 F300 Z0.44
G0 F15000 X116.135 Y136.499 Z0.44
G1 F300 Z0.24
G1 F2700 E35.41052
G1 F2250 X98.502 Y118.867 E37.40103
G1 F2700 E32.40103
G1 F300 Z0.44
G0 F15000 X98.473 Y116.575 Z0.44
G1 F300 Z0.24
G1 F2700 E37.40103
G1 F2250 X118.419 Y136.521 E39.65271
G1 F2700 E34.65271
G1 F300 Z0.44
G0 F15000 X106.256 Y122.096 Z0.44
G1 F300 Z0.24
G1 F2700 E39.65271
G1 F2250 X98.686 Y114.525 E40.50733
G1 F2700 E35.50733
G1 F300 Z0.44
G0 F15000 X99.079 Y112.656 Z0.44
G1 F300 Z0.24
G1 F2700 E40.50733
G1 F2250 X105.453 Y119.03 E41.22689
G1 F2700 E36.22689
G1 F300 Z0.44
G0 F15000 X105.384 Y116.698 Z0.44
G1 F300 Z0.24
G1 F2700 E41.22689
G1 F2250 X99.622 Y110.935 E41.87741
G1 F2700 E36.87741
G1 F300 Z0.44
G0 F15000 X100.289 Y109.34 Z0.44
G1 F300 Z0.24
G1 F2700 E41.87741
G1 F2250 X105.674 Y114.725 E42.48531
G1 F2700 E37.48531
G1 F300 Z0.44
G0 F15000 X106.213 Y113.002 Z0.44
G1 F300 Z0.24
G1 F2700 E42.48531
G1 F2250 X101.071 Y107.859 E43.06584
G1 F2700 E38.06584
G1 F300 Z0.44
G0 F15000 X101.959 Y106.485 Z0.44
G1 F300 Z0.24
G1 F2700 E43.06584
G1 F2250 X106.949 Y111.475 E43.62916
G1 F2700 E38.62916
G1 F300 Z0.44
G0 F15000 X107.856 Y110.119 Z0.44
G1 F300 Z0.24
G1 F2700 E43.62916
G1 F2250 X102.948 Y105.211 E44.18321
G1 F2700 E39.18321
G1 F300 Z0.44
G0 F15000 X118.863 Y98.499 Z0.44
G1 F300 Z0.24
G1 F2700 E44.18321
G1 F2250 X136.497 Y116.132 E46.17384
G1 F2700 E41.17384
G1 F300 Z0.44
G0 F15000 X136.122 Y113.494 Z0.44
G1 F300 Z0.24
G1 F2700 E46.17384
G1 F2250 X121.516 Y98.888 E47.82269
G1 F2700 E42.82269
G1 F300 Z0.44
G0 F15000 X124.79 Y99.9 Z0.44
G1 F300 Z0.24
G1 F2700 E47.82269
G1 F2250 X135.094 Y110.204 E48.98589
G1 F2700 E43.98589
G1 F300 Z0.44
G0 F15000 X127.651 Y124.172 Z0.44
;TIME_ELAPSED:40.815976
;LAYER:-4
G0 X127.651 Y124.172 Z1.04
