;FLAVOR:Marlin
;TIME:1560
;Filament used: 2.76283m
;Layer height: 0.4
;MINX:112.7
;MINY:77.7
;MINZ:0.2
;MAXX:133.8
;MAXY:157.3
;MAXZ:5.2
;Generated with Cura_SteamEngine 5.3.1
M140 S60
M105
M190 S60
M104 S230
M105
M109 S230
M82 ;absolute extrusion mode
; Ender 3 Custom Start G-code
G92 E0 ; Reset Extruder
G28 ; Home all axes
G1 Z2.0 F3000 ; Move Z Axis up little to prevent scratching of Heat Bed
G1 X0.1 Y20 Z0.3 F5000.0 ; Move to start position
G1 X0.1 Y200.0 Z0.3 F1500.0 E15 ; Draw the first line
G1 X0.4 Y200.0 Z0.3 F5000.0 ; Move to side a little
G1 X0.4 Y20 Z0.3 F1500.0 E30 ; Draw the second line
G92 E0 ; Reset Extruder
G1 Z2.0 F3000 ; Move Z Axis up little to prevent scratching of Heat Bed
G1 X5 Y20 Z0.3 F5000.0 ; Move over to prevent blob squish
G92 E0
G92 E0
G1 F2700 E-5
;LAYER_COUNT:13
;LAYER:0
M107
G1 F300 Z0.4
;MESH:Cube_Holder_TestFit_V2.stl
G0 F6000 X116.841 Y87.54 Z0.4
;TYPE:WALL-INNER
G1 F300 Z0.2
G1 F2700 E0
G1 F1200 X116.309 Y87.363 E0.01865
G1 X115.873 Y87.157 E0.03469
G1 X115.44 Y86.817 E0.053
G1 X115.1 Y86.484 E0.06883
G1 X114.72 Y85.902 E0.09194
G1 X114.526 Y85.376 E0.11059
G1 X114.447 Y85.045 E0.12191
G1 X114.406 Y84.704 E0.13333
G1 X114.409 Y84.261 E0.14807
G1 X114.46 Y83.845 E0.16201
G1 X114.608 Y83.382 E0.17817
G1 X114.844 Y82.87 E0.19693
G1 X115.183 Y82.441 E0.21511
G1 X115.519 Y82.098 E0.23108
G1 X116.101 Y81.718 E0.2542
G1 X116.624 Y81.526 E0.27273
G1 X116.955 Y81.447 E0.28405
G1 X117.296 Y81.406 E0.29547
G1 X117.739 Y81.41 E0.31021
G1 X118.159 Y81.46 E0.32427
G1 X118.691 Y81.637 E0.34292
G1 X119.126 Y81.842 E0.35892
G1 X119.56 Y82.183 E0.37727
G1 X119.897 Y82.513 E0.39296
G1 X120.279 Y83.095 E0.41612
G1 X120.452 Y83.554 E0.43243
G1 X120.557 Y83.989 E0.44731
G1 X120.598 Y84.366 E0.45993
G1 X120.591 Y84.739 E0.47234
G1 X120.544 Y85.129 E0.4854
G1 X120.392 Y85.618 E0.50243
G1 X120.159 Y86.124 E0.52096
G1 X119.817 Y86.559 E0.53937
G1 X119.481 Y86.902 E0.55534
G1 X118.902 Y87.281 E0.57835
G1 X118.376 Y87.474 E0.59699
G1 X118.011 Y87.558 E0.60944
G1 X117.704 Y87.594 E0.61973
G1 X117.261 Y87.59 E0.63446
G1 X116.841 Y87.54 E0.64853
G1 F2700 E-4.35147
G1 F300 Z0.4
G0 F6000 X121.9 Y156.9 Z0.4
G1 F300 Z0.2
G1 F2700 E0.64853
G1 F1200 X121.9 Y78.1 E3.26943
G1 X113.1 Y78.1 E3.56212
G1 X113.1 Y156.9 E6.18301
G1 X121.9 Y156.9 E6.4757
G0 F6000 X122.3 Y157.3
;TYPE:WALL-OUTER
G1 F1200 X122.3 Y77.7 E9.12321
G1 X112.7 Y77.7 E9.44251
G1 X112.7 Y157.3 E12.09001
G1 X122.3 Y157.3 E12.40931
G1 F2700 E7.40931
G1 F300 Z0.4
G0 F6000 X116.913 Y87.142 Z0.4
G1 F300 Z0.2
G1 F2700 E12.40931
G1 F1200 X116.505 Y87.011 E12.42356
G1 X116.068 Y86.802 E12.43968
G1 X115.738 Y86.547 E12.45355
G1 X115.426 Y86.243 E12.46804
G1 X115.091 Y85.739 E12.48816
G1 X114.922 Y85.305 E12.50365
G1 X114.841 Y84.976 E12.51492
G1 X114.804 Y84.658 E12.52557
G1 X114.807 Y84.309 E12.53718
G1 X114.858 Y83.914 E12.55043
G1 X114.989 Y83.504 E12.56474
G1 X115.198 Y83.068 E12.58082
G1 X115.453 Y82.738 E12.59469
G1 X115.79 Y82.399 E12.61059
G1 X116.268 Y82.087 E12.62958
G1 X116.695 Y81.922 E12.6448
G1 X117.024 Y81.841 E12.65607
G1 X117.342 Y81.804 E12.66672
G1 X117.691 Y81.807 E12.67833
G1 X118.087 Y81.858 E12.69161
G1 X118.495 Y81.989 E12.70586
G1 X118.898 Y82.177 E12.72065
G1 X119.262 Y82.453 E12.73585
G1 X119.574 Y82.757 E12.75033
G1 X119.909 Y83.261 E12.77046
G1 X120.078 Y83.695 E12.78595
G1 X120.156 Y84.011 E12.79678
G1 X120.198 Y84.366 E12.80867
G1 X120.193 Y84.691 E12.81948
G1 X120.149 Y85.06 E12.83184
G1 X120.011 Y85.496 E12.84705
G1 X119.802 Y85.932 E12.86313
G1 X119.547 Y86.262 E12.877
G1 X119.21 Y86.601 E12.8929
G1 X118.7 Y86.929 E12.91307
G1 X118.305 Y87.078 E12.92711
G1 X117.989 Y87.156 E12.93794
G1 X117.658 Y87.196 E12.94903
G1 X117.309 Y87.193 E12.96063
G1 X116.913 Y87.142 E12.97391
G1 F2700 E7.97391
G1 F300 Z0.4
G0 F6000 X121.54 Y156.54 Z0.4
;TYPE:SKIN
G1 F300 Z0.2
G1 F2700 E12.97391
G1 F1200 X113.46 Y156.54 E13.24266
G1 X113.46 Y85.544 E15.60399
G1 F1048 X113.519 Y85.138 E15.61962
G1 F954.3 X113.505 Y84.66 E15.63962
G1 F971.7 X113.508 Y84.185 E15.65913
G1 F941.2 X113.521 Y83.747 E15.67771
G1 F946.7 X113.505 Y83.647 E15.68198
G1 F1076.2 X113.46 Y83.155 E15.7003
G1 F1200 X113.461 Y78.461 E15.85642
G1 X121.54 Y78.46 E16.12513
G1 X121.54 Y83.344 E16.28758
G1 F1050.3 X121.483 Y83.878 E16.30798
G1 F954.3 X121.495 Y84.367 E16.32844
G1 F971.7 X121.492 Y84.815 E16.34684
G1 F941.2 X121.479 Y85.251 E16.36534
G1 F1041.2 X121.54 Y85.889 E16.38991
G1 F1200 X121.54 Y156.54 E18.73977
G1 F2700 E13.73977
G1 F300 Z0.4
G0 F6000 X116.745 Y87.887 Z0.4
G1 F300 Z0.2
G1 F2700 E18.73977
G1 F1200 X117.219 Y87.948 E18.75567
G1 X117.696 Y87.957 E18.77153
G1 X118.076 Y87.912 E18.78426
G1 X118.456 Y87.826 E18.79722
G1 X119.084 Y87.593 E18.8195
G1 X119.693 Y87.195 E18.8437
G1 X120.153 Y86.722 E18.86564
G1 X120.479 Y86.293 E18.88356
G1 X120.714 Y85.793 E18.90194
G1 F1064.3 X120.939 Y85.235 E18.9245
G1 F937.5 X120.959 Y85.206 E18.926
G1 F941.2 X120.996 Y84.785 E18.94392
G1 F971.7 X121.003 Y84.341 E18.96216
G1 F954.3 X120.969 Y83.904 E18.98049
G1 F1050.3 X120.613 Y82.954 E19.01905
G1 F1200 X120.193 Y82.306 E19.04473
G1 X119.813 Y81.926 E19.0626
G1 X119.339 Y81.55 E19.08273
G1 X118.832 Y81.306 E19.10144
G1 X118.255 Y81.113 E19.12168
G1 X117.781 Y81.052 E19.13757
G1 X117.305 Y81.043 E19.15341
G1 X116.889 Y81.092 E19.16734
G1 X116.52 Y81.182 E19.17997
G1 X115.959 Y81.385 E19.19981
G1 X115.303 Y81.807 E19.22576
G1 X114.851 Y82.272 E19.24733
G1 X114.543 Y82.671 E19.26409
G1 X114.269 Y83.256 E19.28558
G1 F1116.3 X114.041 Y83.801 E19.3067
G1 F1002.1 X114.004 Y84.214 E19.32321
G1 F971.7 X113.997 Y84.699 E19.34314
G1 F952.4 X114.033 Y85.108 E19.36034
G1 F1048 X114.176 Y85.459 E19.37478
G1 F1200 X114.387 Y86.045 E19.39549
G1 X114.808 Y86.698 E19.42134
G1 X115.273 Y87.149 E19.44288
G1 X115.703 Y87.477 E19.46087
G1 X116.15 Y87.687 E19.47729
G1 X116.745 Y87.887 E19.49817
G1 F2700 E14.49817
G1 F300 Z0.4
G0 F6000 X121.087 Y78.66 Z0.4
G1 F300 Z0.2
G1 F2700 E19.49817
G1 F1200 X121.339 Y78.913 E19.51005
G0 F6000 X121.339 Y79.478
G1 F1200 X120.521 Y78.66 E19.54853
G0 F6000 X119.955 Y78.66
G1 F1200 X121.339 Y80.044 E19.61362
G0 F6000 X121.339 Y80.61
G1 F1200 X119.39 Y78.66 E19.70532
G0 F6000 X118.824 Y78.66
G1 F1200 X121.339 Y81.175 E19.82362
G0 F6000 X121.339 Y81.741
G1 F1200 X118.258 Y78.66 E19.96854
G0 F6000 X117.692 Y78.66
G1 F1200 X121.339 Y82.307 E20.14009
G0 F6000 X121.339 Y82.872
G1 F1200 X117.127 Y78.661 E20.33818
G0 F6000 X116.562 Y78.661
G1 F1200 X119.12 Y81.219 E20.4585
G0 F6000 X118.24 Y80.905
G1 F1200 X115.996 Y78.661 E20.56405
G0 F6000 X115.43 Y78.661
G1 F1200 X117.618 Y80.849 E20.66697
G0 F6000 X117.072 Y80.868
G1 F1200 X114.865 Y78.661 E20.77078
G0 F6000 X114.299 Y78.661
G1 F1200 X116.596 Y80.958 E20.87882
G0 F6000 X116.168 Y81.095
G1 F1200 X113.733 Y78.661 E20.99334
G0 F6000 X113.659 Y79.152
G1 F1200 X115.769 Y81.262 E21.09258
G0 F6000 X115.427 Y81.486
G1 F1200 X113.659 Y79.718 E21.17575
G0 F6000 X113.659 Y80.284
G1 F1200 X115.098 Y81.723 E21.24343
G0 F6000 X114.821 Y82.011
G1 F1200 X113.659 Y80.849 E21.29809
G0 F6000 X113.659 Y81.415
G1 F1200 X114.563 Y82.319 E21.34061
G0 F6000 X114.327 Y82.649
G1 F1200 X113.659 Y81.981 E21.37203
G0 F6000 X113.659 Y82.546
G1 F1200 X114.151 Y83.038 E21.39517
G0 F6000 X113.962 Y83.415
G1 F1200 X113.659 Y83.112 E21.40942
G1 F2700 E16.40942
G1 F300 Z0.4
G0 F6000 X113.697 Y85.412 Z0.4
G1 F300 Z0.2
G1 F2700 E21.40942
G1 F1200 X114.086 Y85.802 E21.42775
G0 F6000 X113.659 Y85.941
G1 F1200 X121.34 Y93.621 E21.78901
G0 F6000 X121.34 Y94.187
G1 F1200 X113.659 Y86.506 E22.1503
G0 F6000 X113.659 Y87.072
G1 F1200 X121.34 Y94.753 E22.51159
G0 F6000 X121.34 Y95.318
G1 F1200 X113.659 Y87.638 E22.87286
G0 F6000 X113.659 Y88.203
G1 F1200 X121.34 Y95.884 E23.23415
G0 F6000 X121.34 Y96.45
G1 F1200 X113.659 Y88.769 E23.59544
G0 F6000 X113.659 Y89.335
G1 F1200 X121.34 Y97.015 E23.95671
G0 F6000 X121.34 Y97.581
G1 F1200 X113.659 Y89.9 E24.318
G0 F6000 X113.659 Y90.466
G1 F1200 X121.34 Y98.147 E24.67929
G0 F6000 X121.34 Y98.712
G1 F1200 X113.659 Y91.032 E25.04056
G0 F6000 X113.659 Y91.597
G1 F1200 X121.34 Y99.278 E25.40185
G0 F6000 X121.34 Y99.844
G1 F1200 X113.659 Y92.163 E25.76314
G0 F6000 X113.659 Y92.729
G1 F1200 X121.34 Y100.409 E26.12441
G0 F6000 X121.34 Y100.975
G1 F1200 X113.659 Y93.294 E26.4857
G0 F6000 X113.659 Y93.86
G1 F1200 X121.34 Y101.541 E26.84699
G0 F6000 X121.34 Y102.106
G1 F1200 X113.659 Y94.426 E27.20826
G0 F6000 X113.659 Y94.992
G1 F1200 X121.34 Y102.672 E27.56952
G0 F6000 X121.34 Y103.238
G1 F1200 X113.659 Y95.557 E27.93081
G0 F6000 X113.659 Y96.123
G1 F1200 X121.34 Y103.803 E28.29208
G0 F6000 X121.34 Y104.369
G1 F1200 X113.659 Y96.689 E28.65335
G0 F6000 X113.659 Y97.254
G1 F1200 X121.34 Y104.935 E29.01464
G0 F6000 X121.34 Y105.501
G1 F1200 X113.659 Y97.82 E29.37593
G0 F6000 X113.659 Y98.386
G1 F1200 X121.34 Y106.066 E29.7372
G0 F6000 X121.34 Y106.632
G1 F1200 X113.659 Y98.951 E30.09849
G0 F6000 X113.659 Y99.517
G1 F1200 X121.34 Y107.198 E30.45978
G0 F6000 X121.34 Y107.763
G1 F1200 X113.659 Y100.083 E30.82104
G0 F6000 X113.659 Y100.648
G1 F1200 X121.34 Y108.329 E31.18234
G0 F6000 X121.34 Y108.895
G1 F1200 X113.659 Y101.214 E31.54363
G0 F6000 X113.659 Y101.78
G1 F1200 X121.34 Y109.46 E31.90489
G0 F6000 X121.34 Y110.026
G1 F1200 X113.659 Y102.345 E32.26618
G0 F6000 X113.659 Y102.911
G1 F1200 X121.34 Y110.592 E32.62747
G0 F6000 X121.34 Y111.157
G1 F1200 X113.659 Y103.477 E32.98874
G0 F6000 X113.659 Y104.042
G1 F1200 X121.34 Y111.723 E33.35003
G0 F6000 X121.34 Y112.289
G1 F1200 X113.659 Y104.608 E33.71132
G0 F6000 X113.659 Y105.174
G1 F1200 X121.34 Y112.854 E34.07259
G0 F6000 X121.34 Y113.42
G1 F1200 X113.659 Y105.74 E34.43386
G0 F6000 X113.659 Y106.305
G1 F1200 X121.34 Y113.986 E34.79515
G0 F6000 X121.34 Y114.552
G1 F1200 X113.659 Y106.871 E35.15644
G0 F6000 X113.659 Y107.437
G1 F1200 X121.34 Y115.117 E35.51771
G0 F6000 X121.34 Y115.683
G1 F1200 X113.659 Y108.002 E35.879
G0 F6000 X113.659 Y108.568
G1 F1200 X121.34 Y116.249 E36.24029
G0 F6000 X121.34 Y116.814
G1 F1200 X113.659 Y109.134 E36.60155
G0 F6000 X113.659 Y109.699
G1 F1200 X121.34 Y117.38 E36.96285
G0 F6000 X121.34 Y117.946
G1 F1200 X113.659 Y110.265 E37.32414
G0 F6000 X113.659 Y110.831
G1 F1200 X121.34 Y118.511 E37.6854
G0 F6000 X121.34 Y119.077
G1 F1200 X113.659 Y111.396 E38.04669
G0 F6000 X113.659 Y111.962
G1 F1200 X121.34 Y119.643 E38.40798
G0 F6000 X121.34 Y120.208
G1 F1200 X113.659 Y112.528 E38.76925
G0 F6000 X113.659 Y113.093
G1 F1200 X121.34 Y120.774 E39.13054
G0 F6000 X121.34 Y121.34
G1 F1200 X113.659 Y113.659 E39.49183
G0 F6000 X113.659 Y114.225
G1 F1200 X121.34 Y121.905 E39.8531
G0 F6000 X121.34 Y122.471
G1 F1200 X113.659 Y114.791 E40.21437
G0 F6000 X113.659 Y115.356
G1 F1200 X121.34 Y123.037 E40.57566
G0 F6000 X121.34 Y123.602
G1 F1200 X113.659 Y115.922 E40.93693
G0 F6000 X113.659 Y116.488
G1 F1200 X121.34 Y124.168 E41.29819
G0 F6000 X121.34 Y124.734
G1 F1200 X113.659 Y117.053 E41.65948
G0 F6000 X113.659 Y117.619
G1 F1200 X121.34 Y125.3 E42.02077
G0 F6000 X121.34 Y125.865
G1 F1200 X113.659 Y118.185 E42.38204
G0 F6000 X113.659 Y118.75
G1 F1200 X121.34 Y126.431 E42.74333
G0 F6000 X121.34 Y126.997
G1 F1200 X113.659 Y119.316 E43.10462
G0 F6000 X113.659 Y119.882
G1 F1200 X121.34 Y127.562 E43.46589
G0 F6000 X121.34 Y128.128
G1 F1200 X113.659 Y120.447 E43.82718
G0 F6000 X113.659 Y121.013
G1 F1200 X121.34 Y128.694 E44.18847
G0 F6000 X121.34 Y129.259
G1 F1200 X113.659 Y121.579 E44.54974
G0 F6000 X113.659 Y122.144
G1 F1200 X121.34 Y129.825 E44.91103
G0 F6000 X121.34 Y130.391
G1 F1200 X113.659 Y122.71 E45.27232
G0 F6000 X113.659 Y123.276
G1 F1200 X121.34 Y130.956 E45.63359
G0 F6000 X121.34 Y131.522
G1 F1200 X113.659 Y123.841 E45.99488
G0 F6000 X113.659 Y124.407
G1 F1200 X121.34 Y132.088 E46.35617
G0 F6000 X121.34 Y132.653
G1 F1200 X113.659 Y124.973 E46.71744
G0 F6000 X113.659 Y125.539
G1 F1200 X121.34 Y133.219 E47.0787
G0 F6000 X121.34 Y133.785
G1 F1200 X113.659 Y126.104 E47.43999
G0 F6000 X113.659 Y126.67
G1 F1200 X121.34 Y134.35 E47.80126
G0 F6000 X121.34 Y134.916
G1 F1200 X113.659 Y127.236 E48.16253
G0 F6000 X113.659 Y127.801
G1 F1200 X121.34 Y135.482 E48.52382
G0 F6000 X121.34 Y136.048
G1 F1200 X113.659 Y128.367 E48.88511
G0 F6000 X113.659 Y128.933
G1 F1200 X121.34 Y136.613 E49.24638
G0 F6000 X121.34 Y137.179
G1 F1200 X113.659 Y129.498 E49.60767
G0 F6000 X113.659 Y130.064
G1 F1200 X121.34 Y137.745 E49.96896
G0 F6000 X121.34 Y138.31
G1 F1200 X113.659 Y130.63 E50.33022
G0 F6000 X113.659 Y131.195
G1 F1200 X121.34 Y138.876 E50.69152
G0 F6000 X121.34 Y139.442
G1 F1200 X113.659 Y131.761 E51.05281
G0 F6000 X113.659 Y132.327
G1 F1200 X121.34 Y140.007 E51.41407
G0 F6000 X121.34 Y140.573
G1 F1200 X113.659 Y132.892 E51.77536
G0 F6000 X113.659 Y133.458
G1 F1200 X121.34 Y141.139 E52.13665
G0 F6000 X121.34 Y141.704
G1 F1200 X113.659 Y134.024 E52.49792
G0 F6000 X113.659 Y134.589
G1 F1200 X121.34 Y142.27 E52.85921
G0 F6000 X121.34 Y142.836
G1 F1200 X113.659 Y135.155 E53.2205
G0 F6000 X113.659 Y135.721
G1 F1200 X121.34 Y143.401 E53.58177
G0 F6000 X121.34 Y143.967
G1 F1200 X113.659 Y136.287 E53.94304
G0 F6000 X113.659 Y136.852
G1 F1200 X121.34 Y144.533 E54.30433
G0 F6000 X121.34 Y145.099
G1 F1200 X113.659 Y137.418 E54.66562
G0 F6000 X113.659 Y137.984
G1 F1200 X121.34 Y145.664 E55.02689
G0 F6000 X121.34 Y146.23
G1 F1200 X113.659 Y138.549 E55.38818
G0 F6000 X113.659 Y139.115
G1 F1200 X121.34 Y146.796 E55.74947
G0 F6000 X121.34 Y147.361
G1 F1200 X113.659 Y139.681 E56.11073
G0 F6000 X113.659 Y140.246
G1 F1200 X121.34 Y147.927 E56.47203
G0 F6000 X121.34 Y148.493
G1 F1200 X113.659 Y140.812 E56.83332
G0 F6000 X113.659 Y141.378
G1 F1200 X121.34 Y149.058 E57.19458
G0 F6000 X121.34 Y149.624
G1 F1200 X113.659 Y141.943 E57.55587
G0 F6000 X113.659 Y142.509
G1 F1200 X121.34 Y150.19 E57.91716
G0 F6000 X121.34 Y150.755
G1 F1200 X113.659 Y143.075 E58.27843
G0 F6000 X113.659 Y143.64
G1 F1200 X121.34 Y151.321 E58.63972
G0 F6000 X121.34 Y151.887
G1 F1200 X113.659 Y144.206 E59.00101
G0 F6000 X113.659 Y144.772
G1 F1200 X121.34 Y152.452 E59.36228
G0 F6000 X121.34 Y153.018
G1 F1200 X113.659 Y145.338 E59.72355
G0 F6000 X113.659 Y145.903
G1 F1200 X121.34 Y153.584 E60.08484
G0 F6000 X121.34 Y154.149
G1 F1200 X113.659 Y146.469 E60.44611
G0 F6000 X113.659 Y147.035
G1 F1200 X121.34 Y154.715 E60.80737
G0 F6000 X121.34 Y155.281
G1 F1200 X113.659 Y147.6 E61.16866
G0 F6000 X113.659 Y148.166
G1 F1200 X121.34 Y155.847 E61.52995
G0 F6000 X121.266 Y156.339
G1 F1200 X113.659 Y148.732 E61.88776
G0 F6000 X113.659 Y149.297
G1 F1200 X120.701 Y156.339 E62.219
G0 F6000 X120.135 Y156.339
G1 F1200 X113.659 Y149.863 E62.52361
G0 F6000 X113.659 Y150.429
G1 F1200 X119.569 Y156.339 E62.8016
G0 F6000 X119.003 Y156.339
G1 F1200 X113.659 Y150.994 E63.05299
G0 F6000 X113.659 Y151.56
G1 F1200 X118.438 Y156.339 E63.27778
G0 F6000 X117.872 Y156.339
G1 F1200 X113.659 Y152.126 E63.47594
G0 F6000 X113.659 Y152.691
G1 F1200 X117.306 Y156.339 E63.64751
G0 F6000 X116.741 Y156.339
G1 F1200 X113.659 Y153.257 E63.79248
G0 F6000 X113.659 Y153.823
G1 F1200 X116.175 Y156.339 E63.91082
G0 F6000 X115.609 Y156.339
G1 F1200 X113.659 Y154.388 E64.00257
G0 F6000 X113.659 Y154.954
G1 F1200 X115.044 Y156.339 E64.06771
G0 F6000 X114.478 Y156.339
G1 F1200 X113.659 Y155.52 E64.10624
G0 F6000 X113.659 Y156.086
G1 F1200 X113.912 Y156.339 E64.11814
G1 F2700 E59.11814
G1 F300 Z0.4
G0 F6000 X121.34 Y93.055 Z0.4
G1 F300 Z0.2
G1 F2700 E64.11814
G1 F1200 X116.197 Y87.913 E64.36003
G0 F6000 X116.97 Y88.12
G1 F1200 X121.34 Y92.49 E64.56558
G0 F6000 X121.34 Y91.924
G1 F1200 X117.569 Y88.153 E64.74295
G0 F6000 X118.091 Y88.11
G1 F1200 X121.34 Y91.358 E64.89575
G0 F6000 X121.34 Y90.793
G1 F1200 X118.55 Y88.003 E65.02699
G0 F6000 X118.966 Y87.853
G1 F1200 X121.34 Y90.227 E65.13865
G0 F6000 X121.34 Y89.661
G1 F1200 X119.341 Y87.662 E65.23268
G0 F6000 X119.683 Y87.439
G1 F1200 X121.34 Y89.096 E65.31062
G0 F6000 X121.34 Y88.53
G1 F1200 X119.989 Y87.179 E65.37416
G0 F6000 X120.267 Y86.892
G1 F1200 X121.34 Y87.964 E65.42461
G0 F6000 X121.34 Y87.399
G1 F1200 X120.516 Y86.575 E65.46337
G0 F6000 X120.729 Y86.223
G1 F1200 X121.34 Y86.833 E65.49209
G0 F6000 X121.34 Y86.267
