;FLAVOR:Marlin
;TIME:1255
;Filament used: 2.18327m
;Layer height: 0.4
;MINX:79.841
;MINY:87.08
;MINZ:0.24
;MAXX:155.154
;MAXY:147.919
;MAXZ:6.59
;Generated with Cura_SteamEngine 5.3.1
M140 S60
M105
M190 S60
M104 S210
M105
M109 S210
M82 ;absolute extrusion mode
; Ender 3 Custom Start G-code
G92 E0 ; Reset Extruder
G28 ; Home all axes
G1 Z2.0 F3000 ; Move Z Axis up little to prevent scratching of Heat Bed
G1 X0.1 Y20 Z0.3 F5000.0 ; Move to start position
G1 X0.1 Y200.0 Z0.3 F1500.0 E15 ; Draw the first line
G1 X0.4 Y200.0 Z0.3 F5000.0 ; Move to side a little
G1 X0.4 Y20 Z0.3 F1500.0 E30 ; Draw the second line
G92 E0 ; Reset Extruder
G1 Z2.0 F3000 ; Move Z Axis up little to prevent scratching of Heat Bed
G1 X5 Y20 Z0.3 F5000.0 ; Move over to prevent blob squish
G92 E0
G92 E0
G1 F2700 E-5
;LAYER_COUNT:13
;LAYER:-5
M107
G0 F15000 X109.945 Y88.556 Z0.24
;TYPE:SUPPORT-INTERFACE
G1 F2700 E0
G1 F2250 X110.282 Y88.158 E0.04163
G1 X110.674 Y87.816 E0.08316
G1 X111.077 Y87.549 E0.12174
G1 X111.548 Y87.328 E0.16327
G1 X112.043 Y87.175 E0.20463
G1 X112.466 Y87.11 E0.23879
G1 X112.85 Y87.08 E0.26954
G1 X122.727 Y87.08 E1.05796
G1 X123.208 Y87.109 E1.09643
G1 X123.595 Y87.162 E1.12761
G1 X124.09 Y87.305 E1.16874
G1 X124.547 Y87.511 E1.20875
G1 X124.971 Y87.779 E1.24879
G1 X125.368 Y88.117 E1.29041
G1 X125.71 Y88.508 E1.33188
G1 X125.983 Y88.922 E1.37147
G1 X126.199 Y89.381 E1.41196
G1 X126.35 Y89.872 E1.45296
G1 X126.415 Y90.299 E1.48744
G1 X126.446 Y90.773 E1.52536
G1 X126.446 Y99.105 E2.19046
G1 X126.488 Y99.741 E2.24133
G1 X126.623 Y100.441 E2.29824
G1 X126.831 Y101.073 E2.35135
G1 X127.109 Y101.662 E2.40334
G1 X127.5 Y102.276 E2.46145
G1 X127.929 Y102.787 E2.51471
G1 X128.413 Y103.238 E2.56752
G1 X129.004 Y103.661 E2.62553
G1 X129.593 Y103.976 E2.67885
G1 X130.19 Y104.218 E2.73027
G1 X130.199 Y104.211 E2.73118
G1 X131.046 Y104.53 E2.80343
G1 X131.658 Y104.77 E2.8559
G1 X132.271 Y105.028 E2.90899
G1 X133.413 Y105.54 E3.00889
G1 X134.989 Y106.306 E3.14877
G1 X134.993 Y106.324 E3.15024
G1 X136.358 Y107.077 E3.27468
G1 X136.919 Y107.407 E3.32664
G1 X137.974 Y108.068 E3.42601
G1 X138.584 Y108.474 E3.48451
G1 X139.169 Y108.879 E3.5413
G1 X140.205 Y109.635 E3.64368
G1 X141.215 Y110.425 E3.74603
G1 X141.746 Y110.863 E3.80098
G1 X142.659 Y111.661 E3.89777
G1 X143.591 Y112.527 E3.99933
G1 X144.64 Y113.575 E4.11769
G1 X145.469 Y114.468 E4.21496
G1 X146.382 Y115.503 E4.32513
G1 X146.381 Y115.522 E4.32665
G1 X147.189 Y116.52 E4.42915
G1 X147.854 Y117.401 E4.51726
G1 X148.654 Y118.535 E4.62804
G1 X149.009 Y119.068 E4.67916
G1 X149.443 Y119.744 E4.74328
G1 X150.095 Y120.831 E4.84446
G1 X150.437 Y121.439 E4.90015
G1 X151.192 Y122.862 E5.02873
G1 X151.949 Y124.453 E5.16938
G1 X151.94 Y124.468 E5.17077
G1 X152.416 Y125.589 E5.26799
G1 X152.836 Y126.678 E5.36116
G1 X153.072 Y127.337 E5.41703
G1 X153.291 Y127.99 E5.47201
G1 X153.624 Y129.055 E5.56109
G1 X153.861 Y129.901 E5.63122
G1 X154.034 Y130.564 E5.68591
G1 X154.347 Y131.939 E5.79848
G1 X154.617 Y133.265 E5.9065
G1 X154.606 Y133.279 E5.90792
G1 X154.685 Y133.744 E5.94557
G1 X154.869 Y135.042 E6.05022
G1 X154.936 Y135.605 E6.09547
G1 X155.014 Y136.391 E6.15852
G1 X155.072 Y137.173 E6.22112
G1 X155.129 Y138.211 E6.3041
G1 X155.151 Y138.895 E6.35873
G1 X155.154 Y140.343 E6.47432
G1 X155.116 Y141.534 E6.56943
G1 X155.087 Y142.1 E6.61467
G1 X154.961 Y143.568 E6.73229
G1 X154.834 Y144.655 E6.81965
G1 X154.745 Y145.125 E6.85783
G1 X154.637 Y145.517 E6.89029
G1 X154.439 Y145.976 E6.93019
G1 X154.172 Y146.41 E6.97087
G1 X153.843 Y146.807 E7.01202
G1 X153.474 Y147.142 E7.05181
G1 X153.044 Y147.435 E7.09334
G1 X152.572 Y147.661 E7.13512
G1 X152.118 Y147.808 E7.17321
G1 X151.659 Y147.882 E7.21032
G1 X151.193 Y147.919 E7.24764
G1 X146.145 Y147.855 E7.65062
G1 X146.132 Y147.84 E7.65221
G1 X145.698 Y147.811 E7.68693
G1 X145.273 Y147.742 E7.7213
G1 X144.788 Y147.595 E7.76175
G1 X144.34 Y147.385 E7.80125
G1 X143.9 Y147.096 E7.84327
G1 X143.507 Y146.747 E7.88522
G1 X143.183 Y146.364 E7.92527
G1 X142.921 Y145.95 E7.96438
G1 X142.742 Y145.55 E7.99936
G1 X142.622 Y145.218 E8.02754
G1 X142.627 Y145.207 E8.0285
G1 X142.551 Y144.885 E8.05491
G1 X142.497 Y144.482 E8.08737
G1 X142.497 Y144.092 E8.1185
G1 X142.532 Y143.641 E8.15461
G1 X142.651 Y142.822 E8.22067
G1 X142.751 Y141.822 E8.30089
G1 X142.808 Y140.967 E8.36929
G1 X142.836 Y140.064 E8.44141
G1 X142.833 Y139.153 E8.51413
G1 X142.8 Y138.298 E8.58243
G1 X142.745 Y137.532 E8.64373
G1 X142.64 Y136.532 E8.724
G1 X142.51 Y135.629 E8.79682
G1 X142.362 Y134.803 E8.86381
G1 X142.149 Y133.817 E8.94433
G1 X141.964 Y133.095 E9.00382
G1 X141.696 Y132.171 E9.08062
G1 X141.328 Y131.074 E9.17298
G1 X141.131 Y130.552 E9.21752
G1 X140.89 Y129.97 E9.2678
G1 X140.897 Y129.957 E9.26898
G1 X140.675 Y129.445 E9.31353
G1 X140.281 Y128.599 E9.38803
G1 X140.036 Y128.109 E9.43176
G1 X139.645 Y127.379 E9.49786
G1 X139.235 Y126.666 E9.56351
G1 X138.933 Y126.174 E9.6096
G1 X138.448 Y125.434 E9.68022
G1 X137.936 Y124.708 E9.75114
G1 X137.364 Y123.953 E9.82675
G1 X137.152 Y123.691 E9.85365
G1 X136.546 Y122.973 E9.92865
G1 X136.064 Y122.433 E9.98643
G1 X135.457 Y121.805 E10.05615
G1 X134.699 Y121.087 E10.13949
G1 X134.151 Y120.581 E10.19903
G1 X133.445 Y119.986 E10.27273
G1 X133.049 Y119.67 E10.31317
G1 X132.401 Y119.181 E10.37797
G1 X132.077 Y118.949 E10.40978
G1 X131.199 Y118.359 E10.49422
G1 X130.479 Y117.912 E10.56187
G1 X129.902 Y117.575 E10.61521
G1 X128.908 Y117.047 E10.70506
G1 X128.324 Y116.759 E10.75703
G1 X127.851 Y116.554 E10.79818
G1 X127.848 Y116.544 E10.79902
G1 X127.285 Y116.296 E10.84813
G1 X126.456 Y115.964 E10.91941
G1 X125.794 Y115.724 E10.97562
G1 X124.78 Y115.394 E11.06074
G1 X123.626 Y115.073 E11.15635
G1 X122.597 Y114.837 E11.24063
G1 X121.799 Y114.686 E11.30546
G1 X120.627 Y114.507 E11.40009
G1 X119.733 Y114.414 E11.47184
G1 X118.709 Y114.342 E11.55378
G1 X117.782 Y114.313 E11.62782
G1 X116.907 Y114.316 E11.69766
G1 X116.203 Y114.337 E11.75389
G1 X115.113 Y114.418 E11.84113
G1 X114.254 Y114.51 E11.9101
G1 X113.367 Y114.639 E11.98164
G1 X112.515 Y114.791 E12.05073
G1 X112.023 Y114.892 E12.09082
G1 X110.977 Y115.141 E12.17665
G1 X109.984 Y115.429 E12.25918
G1 X109.261 Y115.663 E12.31984
G1 X108.152 Y116.066 E12.41403
G1 X107.085 Y116.516 E12.50647
G1 X106.326 Y116.87 E12.57332
G1 X105.885 Y117.091 E12.6127
G1 X104.881 Y117.63 E12.70366
G1 X103.889 Y118.226 E12.79604
G1 X102.931 Y118.862 E12.88783
G1 X102.224 Y119.372 E12.95742
G1 X101.548 Y119.894 E13.02559
G1 X100.706 Y120.603 E13.11346
G1 X100.14 Y121.113 E13.17427
G1 X99.762 Y121.471 E13.21583
G1 X99.008 Y122.234 E13.30146
G1 X98.321 Y122.99 E13.383
G1 X97.722 Y123.699 E13.45709
G1 X97.513 Y123.957 E13.4836
G1 X96.921 Y124.739 E13.56189
G1 X96.354 Y125.55 E13.64088
G1 X95.874 Y126.292 E13.71142
G1 X95.634 Y126.685 E13.74818
G1 X95.241 Y127.364 E13.8108
G1 X95.063 Y127.689 E13.84038
G1 X94.641 Y128.513 E13.91428
G1 X94.278 Y129.286 E13.98245
G1 X94.029 Y129.857 E14.03218
G1 X93.698 Y130.689 E14.10365
G1 X93.447 Y131.379 E14.16226
G1 X93.124 Y132.373 E14.24569
G1 X92.805 Y133.523 E14.34096
G1 X92.574 Y134.53 E14.42343
G1 X92.365 Y135.666 E14.51563
G1 X92.237 Y136.541 E14.58622
G1 X92.13 Y137.594 E14.67071
G1 X92.069 Y138.496 E14.74287
G1 X92.055 Y138.875 E14.77315
G1 X92.042 Y139.8 E14.84699
G1 X92.063 Y140.884 E14.93354
G1 X92.147 Y141.997 E15.02264
G1 X92.239 Y142.861 E15.09199
G1 X92.347 Y143.629 E15.1539
G1 X92.384 Y144.096 E15.1913
G1 X92.384 Y144.5 E15.22355
G1 X92.314 Y144.999 E15.26377
G1 X92.173 Y145.475 E15.3034
G1 X91.961 Y145.948 E15.34477
G1 X91.691 Y146.373 E15.38497
G1 X91.367 Y146.755 E15.42495
G1 X90.974 Y147.103 E15.46685
G1 X90.544 Y147.383 E15.50781
G1 X90.096 Y147.593 E15.54731
G1 X89.614 Y147.742 E15.58758
G1 X89.176 Y147.809 E15.62295
G1 X88.688 Y147.839 E15.66198
G1 X83.862 Y147.84 E16.04721
G1 X83.381 Y147.811 E16.08567
G1 X82.993 Y147.758 E16.11693
G1 X82.505 Y147.616 E16.1575
G1 X82.046 Y147.412 E16.1976
G1 X81.616 Y147.14 E16.23821
G1 X81.219 Y146.802 E16.27983
G1 X80.873 Y146.406 E16.32181
G1 X80.607 Y145.999 E16.36062
G1 X80.386 Y145.528 E16.40215
G1 X80.261 Y145.097 E16.43797
G1 X80.166 Y144.643 E16.475
G1 X80.009 Y143.267 E16.58555
G1 X79.952 Y142.567 E16.64161
G1 X79.879 Y141.385 E16.73614
G1 X79.843 Y140.134 E16.83605
G1 X79.841 Y139.568 E16.88123
G1 X79.851 Y138.779 E16.94421
G1 X79.921 Y137.086 E17.07947
G1 X79.936 Y137.072 E17.08111
G1 X79.994 Y136.299 E17.14299
G1 X80.124 Y135.074 E17.24132
G1 X80.33 Y133.673 E17.35436
G1 X80.456 Y132.933 E17.41428
G1 X80.614 Y132.104 E17.48164
G1 X80.928 Y130.722 E17.59477
G1 X81.026 Y130.342 E17.6261
G1 X81.403 Y128.985 E17.73852
G1 X81.553 Y128.494 E17.7795
G1 X81.892 Y127.45 E17.86712
G1 X82.205 Y126.587 E17.9404
G1 X82.672 Y125.393 E18.04274
G1 X82.942 Y124.754 E18.09812
G1 X83.409 Y123.723 E18.18847
G1 X83.768 Y122.981 E18.25426
G1 X84.271 Y122.003 E18.34205
G1 X84.502 Y121.571 E18.38116
G1 X85.364 Y120.089 E18.51801
G1 X85.979 Y119.119 E18.60969
G1 X86.378 Y118.522 E18.66701
G1 X87.127 Y117.464 E18.77049
G1 X87.889 Y116.459 E18.87116
G1 X88.631 Y115.547 E18.96501
G1 X89.237 Y114.843 E19.03916
G1 X90.12 Y113.875 E19.14375
G1 X91.02 Y112.956 E19.24643
G1 X91.483 Y112.505 E19.29802
G1 X92.375 Y111.684 E19.3948
G1 X92.969 Y111.164 E19.45781
G1 X93.942 Y110.357 E19.55872
G1 X94.996 Y109.543 E19.66502
G1 X95.487 Y109.184 E19.71358
G1 X96.67 Y108.366 E19.82839
G1 X97.155 Y108.05 E19.87459
G1 X97.731 Y107.689 E19.92886
G1 X98.858 Y107.022 E20.03339
G1 X99.982 Y106.409 E20.13559
G1 X100.563 Y106.11 E20.18775
G1 X101.883 Y105.466 E20.30499
G1 X101.898 Y105.474 E20.30635
G1 X102.942 Y105.018 E20.39729
G1 X103.626 Y104.738 E20.45628
G1 X104.676 Y104.341 E20.54589
G1 X105.584 Y104.032 E20.62245
G1 X106.223 Y103.767 E20.67767
G1 X106.815 Y103.429 E20.73209
G1 X107.334 Y103.04 E20.78386
G1 X107.838 Y102.556 E20.83964
G1 X108.283 Y101.996 E20.89674
G1 X108.624 Y101.434 E20.94921
G1 X108.904 Y100.81 E21.00381
G1 X109.103 Y100.153 E21.0586
G1 X109.216 Y99.494 E21.11198
G1 X109.246 Y98.93 E21.15706
G1 X109.246 Y90.799 E21.80611
G1 X109.275 Y90.317 E21.84466
G1 X109.327 Y89.933 E21.87559
G1 X109.472 Y89.436 E21.91692
G1 X109.677 Y88.979 E21.9569
G1 X109.945 Y88.556 E21.99687
G0 F15000 X110.834 Y88.207
G1 F2250 X153.75 Y131.123 E26.8416
G1 F2700 E21.8416
G1 F300 Z0.44
G0 F15000 X154.309 Y133.944 Z0.44
G1 F300 Z0.24
G1 F2700 E26.8416
G1 F2250 X109.875 Y89.511 E31.85764
G1 F2700 E26.85764
G1 F300 Z0.44
G0 F15000 X109.644 Y91.542 Z0.44
G1 F300 Z0.24
G1 F2700 E31.85764
G1 F2250 X154.62 Y136.518 E36.93492
G1 F2700 E31.93492
G1 F300 Z0.44
G0 F15000 X154.751 Y138.911 Z0.44
G1 F300 Z0.24
G1 F2700 E36.93492
G1 F2250 X109.644 Y93.805 E42.02693
G1 F2700 E37.02693
G1 F300 Z0.44
G0 F15000 X109.643 Y96.067 Z0.44
G1 F300 Z0.24
G1 F2700 E42.02693
G1 F2250 X131.979 Y118.402 E44.54835
G1 F2700 E39.54835
G1 F300 Z0.44
G0 F15000 X127.107 Y115.793 Z0.44
G1 F300 Z0.24
G1 F2700 E44.54835
G1 F2250 X109.643 Y98.33 E46.51978
G1 F2700 E41.51978
G1 F300 Z0.44
G0 F15000 X109.445 Y100.395 Z0.44
G1 F300 Z0.24
G1 F2700 E46.51978
G1 F2250 X123.741 Y114.69 E48.13358
G1 F2700 E43.13358
G1 F300 Z0.44
G0 F15000 X120.938 Y114.15 Z0.44
G1 F300 Z0.24
G1 F2700 E48.13358
G1 F2250 X108.762 Y101.973 E49.50817
G1 F2700 E44.50817
G1 F300 Z0.44
G0 F15000 X107.736 Y103.21 Z0.44
G1 F300 Z0.24
G1 F2700 E49.50817
G1 F2250 X118.458 Y113.932 E50.71856
G1 F2700 E45.71856
G1 F300 Z0.44
G0 F15000 X116.199 Y113.936 Z0.44
G1 F300 Z0.24
G1 F2700 E50.71856
G1 F2250 X106.391 Y104.128 E51.82577
G1 F2700 E46.82577
G1 F300 Z0.44
G0 F15000 X104.743 Y104.743 Z0.44
G1 F300 Z0.24
G1 F2700 E51.82577
G1 F2250 X114.123 Y114.123 E52.88467
G1 F2700 E47.88467
G1 F300 Z0.44
G0 F15000 X112.186 Y114.448 Z0.44
G1 F300 Z0.24
G1 F2700 E52.88467
G1 F2250 X103.115 Y105.378 E53.90863
G1 F2700 E48.90863
G1 F300 Z0.44
G0 F15000 X101.549 Y106.074 Z0.44
G1 F300 Z0.24
G1 F2700 E53.90863
G1 F2250 X110.373 Y114.898 E54.90476
G1 F2700 E49.90476
G1 F300 Z0.44
G0 F15000 X108.664 Y115.452 Z0.44
G1 F300 Z0.24
G1 F2700 E54.90476
G1 F2250 X100.042 Y106.831 E55.87802
G1 F2700 E50.87802
G1 F300 Z0.44
G0 F15000 X98.592 Y107.643 Z0.44
G1 F300 Z0.24
G1 F2700 E55.87802
G1 F2250 X107.046 Y116.097 E56.83239
G1 F2700 E51.83239
G1 F300 Z0.44
G0 F15000 X105.518 Y116.832 Z0.44
G1 F300 Z0.24
G1 F2700 E56.83239
G1 F2250 X97.191 Y108.504 E57.77247
G1 F2700 E52.77247
G1 F300 Z0.44
G0 F15000 X95.844 Y109.421 Z0.44
G1 F300 Z0.24
G1 F2700 E57.77247
G1 F2250 X104.071 Y117.648 E58.7012
G1 F2700 E53.7012
G1 F300 Z0.44
G0 F15000 X102.696 Y118.535 Z0.44
G1 F300 Z0.24
G1 F2700 E58.7012
G1 F2250 X94.552 Y110.391 E59.62057
G1 F2700 E54.62057
G1 F300 Z0.44
G0 F15000 X93.303 Y111.405 Z0.44
G1 F300 Z0.24
G1 F2700 E59.62057
G1 F2250 X101.399 Y119.501 E60.53451
G1 F2700 E55.53451
G1 F300 Z0.44
G0 F15000 X100.175 Y120.54 Z0.44
G1 F300 Z0.24
G1 F2700 E60.53451
G1 F2250 X92.108 Y112.473 E61.44518
G1 F2700 E56.44518
G1 F300 Z0.44
G0 F15000 X90.96 Y113.587 Z0.44
G1 F300 Z0.24
G1 F2700 E61.44518
G1 F2250 X99.022 Y121.649 E62.35529
G1 F2700 E57.35529
G1 F300 Z0.44
G0 F15000 X97.935 Y122.825 Z0.44
G1 F300 Z0.24
G1 F2700 E62.35529
G1 F2250 X89.861 Y114.751 E63.26676
G1 F2700 E58.26676
G1 F300 Z0.44
G0 F15000 X88.808 Y115.961 Z0.44
G1 F300 Z0.24
G1 F2700 E63.26676
G1 F2250 X96.921 Y124.074 E64.18262
G1 F2700 E59.18262
G1 F300 Z0.44
G0 F15000 X95.978 Y125.394 Z0.44
G1 F300 Z0.24
G1 F2700 E64.18262
G1 F2250 X87.809 Y117.224 E65.10486
G1 F2700 E60.10486
G1 F300 Z0.44
G0 F15000 X86.857 Y118.535 Z0.44
G1 F300 Z0.24
G1 F2700 E65.10486
G1 F2250 X95.111 Y126.789 E66.03665
G1 F2700 E61.03665
G1 F300 Z0.44
G0 F15000 X94.32 Y128.262 Z0.44
G1 F300 Z0.24
G1 F2700 E66.03665
G1 F2250 X85.957 Y119.898 E66.98079
G1 F2700 E61.98079
G1 F300 Z0.44
G0 F15000 X85.112 Y121.316 Z0.44
G1 F300 Z0.24
G1 F2700 E66.98079
G1 F2250 X93.613 Y129.817 E67.94046
G1 F2700 E62.94046
G1 F300 Z0.44
G0 F15000 X92.998 Y131.465 Z0.44
G1 F300 Z0.24
G1 F2700 E67.94046
G1 F2250 X84.319 Y122.786 E68.92022
G1 F2700 E63.92022
G1 F300 Z0.44
G0 F15000 X83.58 Y124.31 Z0.44
G1 F300 Z0.24
G1 F2700 E68.92022
G1 F2250 X92.478 Y133.207 E69.92465
G1 F2700 E64.92465
G1 F300 Z0.44
G0 F15000 X92.07 Y135.062 Z0.44
G1 F300 Z0.24
G1 F2700 E69.92465
G1 F2250 X82.904 Y125.896 E70.95938
G1 F2700 E65.95938
G1 F300 Z0.44
G0 F15000 X82.283 Y127.538 Z0.44
G1 F300 Z0.24
G1 F2700 E70.95938
G1 F2250 X91.784 Y137.039 E72.03194
G1 F2700 E67.03194
G1 F300 Z0.44
G0 F15000 X91.65 Y139.168 Z0.44
G1 F300 Z0.24
G1 F2700 E72.03194
G1 F2250 X81.74 Y129.258 E73.15066
G1 F2700 E68.15066
G1 F300 Z0.44
G0 F15000 X81.264 Y131.045 Z0.44
G1 F300 Z0.24
G1 F2700 E73.15066
G1 F2250 X91.708 Y141.488 E74.32962
G1 F2700 E69.32962
G1 F300 Z0.44
G0 F15000 X91.976 Y144.019 Z0.44
G1 F300 Z0.24
G1 F2700 E74.32962
G1 F2250 X80.868 Y132.911 E75.58358
G1 F2700 E70.58358
G1 F300 Z0.44
G0 F15000 X80.558 Y134.864 Z0.44
G1 F300 Z0.24
G1 F2700 E75.58358
G1 F2250 X91.547 Y145.853 E76.82412
G1 F2700 E71.82412
G1 F300 Z0.44
G0 F15000 X90.418 Y146.986 Z0.44
G1 F300 Z0.24
G1 F2700 E76.82412
G1 F2250 X80.348 Y136.917 E77.96085
G1 F2700 E72.96085
G1 F300 Z0.44
G0 F15000 X80.246 Y139.078 Z0.44
G1 F300 Z0.24
G1 F2700 E77.96085
G1 F2250 X88.606 Y147.438 E78.9046
G1 F2700 E73.9046
G1 F300 Z0.44
G0 F15000 X86.344 Y147.438 Z0.44
G1 F300 Z0.24
G1 F2700 E78.9046
G1 F2250 X80.279 Y141.373 E79.58927
G1 F2700 E74.58927
G1 F300 Z0.44
G0 F15000 X80.474 Y143.831 Z0.44
G1 F300 Z0.24
G1 F2700 E79.58927
G1 F2250 X84.081 Y147.438 E79.99646
G1 F2700 E74.99646
G1 F300 Z0.44
G0 F15000 X138.761 Y125.185 Z0.44
G1 F300 Z0.24
G1 F2700 E79.99646
G1 F2250 X154.727 Y141.151 E81.79884
G1 F2700 E76.79884
G1 F300 Z0.44
G0 F15000 X154.584 Y143.271 Z0.44
G1 F300 Z0.24
G1 F2700 E81.79884
G1 F2250 X141.348 Y130.034 E83.29309
G1 F2700 E78.29309
G1 F300 Z0.44
G0 F15000 X142.455 Y133.404 Z0.44
G1 F300 Z0.24
G1 F2700 E83.29309
G1 F2250 X154.296 Y145.245 E84.6298
G1 F2700 E79.6298
G1 F300 Z0.44
G0 F15000 X153.429 Y146.641 Z0.44
G1 F300 Z0.24
G1 F2700 E84.6298
G1 F2250 X142.996 Y136.207 E85.80763
G1 F2700 E80.80763
G1 F300 Z0.44
G0 F15000 X143.214 Y138.689 Z0.44
G1 F300 Z0.24
G1 F2700 E85.80763
