;FLAVOR:Marlin
;TIME:1344
;Filament used: 2.32748m
;Layer height: 0.4
;MINX:76.9
;MINY:85.4
;MINZ:0.24
;MAXX:158.099
;MAXY:149.6
;MAXZ:6.59
;Generated with Cura_SteamEngine 5.3.1
M140 S60
M105
M190 S60
M104 S200
M105
M109 S200
M82 ;absolute extrusion mode
; Ender 3 Custom Start G-code
G92 E0 ; Reset Extruder
G28 ; Home all axes
G1 Z2.0 F3000 ; Move Z Axis up little to prevent scratching of Heat Bed
G1 X0.1 Y20 Z0.3 F5000.0 ; Move to start position
G1 X0.1 Y200.0 Z0.3 F1500.0 E15 ; Draw the first line
G1 X0.4 Y200.0 Z0.3 F5000.0 ; Move to side a little
G1 X0.4 Y20 Z0.3 F1500.0 E30 ; Draw the second line
G92 E0 ; Reset Extruder
G1 Z2.0 F3000 ; Move Z Axis up little to prevent scratching of Heat Bed
G1 X5 Y20 Z0.3 F5000.0 ; Move over to prevent blob squish
G92 E0
G92 E0
G1 F2700 E-5
;LAYER_COUNT:13
;LAYER:-5
M107
G0 F15000 X109.599 Y86.876 Z0.24
;TYPE:SUPPORT-INTERFACE
G1 F2700 E0
G1 F2250 X109.936 Y86.478 E0.04163
G1 X110.328 Y86.136 E0.08316
G1 X110.731 Y85.869 E0.12174
G1 X111.202 Y85.648 E0.16327
G1 X111.697 Y85.495 E0.20463
G1 X112.12 Y85.43 E0.23879
G1 X112.504 Y85.4 E0.26954
G1 X122.381 Y85.4 E1.05796
G1 X122.862 Y85.429 E1.09643
G1 X123.249 Y85.482 E1.12761
G1 X123.744 Y85.625 E1.16874
G1 X124.201 Y85.831 E1.20875
G1 X124.625 Y86.099 E1.24879
G1 X125.022 Y86.437 E1.29041
G1 X125.364 Y86.828 E1.33188
G1 X125.637 Y87.242 E1.37147
G1 X125.853 Y87.701 E1.41196
G1 X126.004 Y88.192 E1.45296
G1 X126.069 Y88.619 E1.48744
G1 X126.1 Y89.093 E1.52536
G1 X126.1 Y97.219 E2.17401
G1 X126.142 Y97.861 E2.22537
G1 X126.269 Y98.528 E2.27957
G1 X126.482 Y99.179 E2.33424
G1 X126.772 Y99.793 E2.38845
G1 X127.131 Y100.356 E2.44175
G1 X127.582 Y100.9 E2.49816
G1 X128.067 Y101.352 E2.55108
G1 X128.614 Y101.748 E2.60498
G1 X129.244 Y102.089 E2.66217
G1 X129.818 Y102.295 E2.71085
G1 X129.828 Y102.316 E2.7127
G1 X130.603 Y102.574 E2.7779
G1 X131.661 Y102.949 E2.86751
G1 X132.311 Y103.198 E2.92307
G1 X133.108 Y103.522 E2.99174
G1 X133.861 Y103.843 E3.05709
G1 X134.964 Y104.336 E3.15353
G1 X134.968 Y104.354 E3.155
G1 X136.213 Y104.957 E3.26542
G1 X136.218 Y104.976 E3.26699
G1 X137.083 Y105.436 E3.3452
G1 X137.657 Y105.758 E3.39773
G1 X138.248 Y106.102 E3.45232
G1 X139.514 Y106.888 E3.57127
G1 X140.605 Y107.616 E3.67597
G1 X141.27 Y108.086 E3.74097
G1 X141.839 Y108.505 E3.79737
G1 X142.904 Y109.332 E3.90501
G1 X143.455 Y109.78 E3.9617
G1 X144.04 Y110.277 E4.02297
G1 X144.652 Y110.816 E4.08807
G1 X145.698 Y111.792 E4.20227
G1 X146.625 Y112.713 E4.30658
G1 X147.065 Y113.173 E4.35739
G1 X147.548 Y113.697 E4.41428
G1 X148.151 Y114.376 E4.48676
G1 X148.975 Y115.355 E4.58891
G1 X149.439 Y115.937 E4.64832
G1 X150.276 Y117.041 E4.75891
G1 X150.645 Y117.552 E4.80923
G1 X151.11 Y118.224 E4.87446
G1 X151.773 Y119.237 E4.9711
G1 X152.194 Y119.913 E5.03467
G1 X152.857 Y121.05 E5.13973
G1 X153.263 Y121.785 E5.20676
G1 X153.598 Y122.421 E5.26414
G1 X154.019 Y123.259 E5.339
G1 X154.544 Y124.382 E5.43796
G1 X154.824 Y125.025 E5.49394
G1 X155.198 Y125.939 E5.57277
G1 X155.622 Y127.035 E5.66658
G1 X155.808 Y127.553 E5.71051
G1 X156.077 Y128.344 E5.7772
G1 X156.473 Y129.627 E5.88438
G1 X156.848 Y130.998 E5.99784
G1 X157.031 Y131.747 E6.05939
G1 X157.302 Y132.992 E6.1611
G1 X157.452 Y133.78 E6.22513
G1 X157.583 Y134.538 E6.28653
G1 X157.682 Y135.193 E6.33941
G1 X157.836 Y136.395 E6.43615
G1 X157.935 Y137.335 E6.5116
G1 X158.036 Y138.758 E6.62547
G1 X158.068 Y139.411 E6.67766
G1 X158.089 Y140.078 E6.73093
G1 X158.099 Y140.788 E6.78761
G1 X158.096 Y141.591 E6.85171
G1 X158.05 Y143.011 E6.96512
G1 X157.979 Y144.145 E7.05582
G1 X157.888 Y145.147 E7.13613
G1 X157.746 Y146.343 E7.23227
G1 X157.66 Y146.803 E7.26963
G1 X157.553 Y147.191 E7.30175
G1 X157.347 Y147.667 E7.34316
G1 X157.083 Y148.098 E7.3835
G1 X156.754 Y148.492 E7.42447
G1 X156.39 Y148.822 E7.46369
G1 X155.971 Y149.106 E7.5041
G1 X155.5 Y149.337 E7.54598
G1 X155.025 Y149.49 E7.58581
G1 X154.578 Y149.563 E7.62196
G1 X154.134 Y149.599 E7.65752
G1 X149.226 Y149.6 E8.0493
G1 X148.745 Y149.571 E8.08777
G1 X148.358 Y149.518 E8.11895
G1 X147.869 Y149.376 E8.15959
G1 X147.409 Y149.171 E8.19979
G1 X146.975 Y148.896 E8.24081
G1 X146.583 Y148.562 E8.28192
G1 X146.244 Y148.174 E8.32304
G1 X145.968 Y147.755 E8.36309
G1 X145.753 Y147.296 E8.40355
G1 X145.6 Y146.795 E8.44537
G1 X145.525 Y146.314 E8.48423
G1 X145.52 Y145.889 E8.51816
G1 X145.555 Y145.398 E8.55745
G1 X145.683 Y144.51 E8.62907
G1 X145.8 Y143.366 E8.72086
G1 X145.872 Y142.224 E8.8122
G1 X145.886 Y141.861 E8.8412
G1 X145.901 Y140.941 E8.91465
G1 X145.894 Y140.442 E8.95448
G1 X145.854 Y139.412 E9.03676
G1 X145.779 Y138.403 E9.11753
G1 X145.679 Y137.469 E9.19251
G1 X145.608 Y136.944 E9.2348
G1 X145.48 Y136.147 E9.29924
G1 X145.279 Y135.086 E9.38544
G1 X145.195 Y134.707 E9.41642
G1 X144.859 Y133.362 E9.52709
G1 X144.466 Y132.088 E9.63351
G1 X144.038 Y130.887 E9.73529
G1 X143.741 Y130.138 E9.7996
G1 X143.435 Y129.426 E9.86147
G1 X142.989 Y128.479 E9.94502
G1 X142.525 Y127.574 E10.02621
G1 X142.045 Y126.719 E10.10448
G1 X141.544 Y125.886 E10.18207
G1 X141.335 Y125.56 E10.21298
G1 X140.702 Y124.622 E10.30331
G1 X140.488 Y124.32 E10.33286
G1 X140.185 Y123.913 E10.37336
G1 X139.558 Y123.115 E10.45437
G1 X138.962 Y122.402 E10.52855
G1 X138.553 Y121.939 E10.57786
G1 X137.997 Y121.343 E10.64293
G1 X137.253 Y120.596 E10.72708
G1 X136.805 Y120.185 E10.77562
G1 X136.805 Y120.174 E10.77649
G1 X136.179 Y119.609 E10.84381
G1 X135.796 Y119.28 E10.88411
G1 X135.058 Y118.68 E10.96003
G1 X134.109 Y117.962 E11.05503
G1 X132.898 Y117.135 E11.17208
G1 X132.463 Y116.862 E11.21308
G1 X131.637 Y116.369 E11.28986
G1 X130.9 Y115.961 E11.35711
G1 X129.944 Y115.47 E11.4429
G1 X129.09 Y115.073 E11.51807
G1 X128.549 Y114.837 E11.56519
G1 X127.727 Y114.504 E11.63598
G1 X127.177 Y114.299 E11.68284
G1 X126.101 Y113.954 E11.77303
G1 X126.096 Y113.958 E11.77355
G1 X124.902 Y113.579 E11.87354
G1 X123.717 Y113.289 E11.97093
G1 X123.307 Y113.202 E12.00438
G1 X122.321 Y113.014 E12.08451
G1 X121.358 Y112.864 E12.1623
G1 X120.688 Y112.779 E12.21622
G1 X119.875 Y112.701 E12.28141
G1 X118.759 Y112.629 E12.37068
G1 X118.399 Y112.616 E12.39944
G1 X117.412 Y112.602 E12.47823
G1 X116.454 Y112.62 E12.55472
G1 X115.966 Y112.642 E12.59371
G1 X115.045 Y112.708 E12.66742
G1 X114.307 Y112.782 E12.72662
G1 X113.655 Y112.861 E12.77905
G1 X112.885 Y112.988 E12.84134
G1 X112.872 Y112.978 E12.84265
G1 X111.612 Y113.218 E12.94504
G1 X111.045 Y113.345 E12.99142
G1 X110.19 Y113.557 E13.06174
G1 X109.529 Y113.745 E13.11659
G1 X108.772 Y113.976 E13.17977
G1 X108.214 Y114.161 E13.2267
G1 X107.24 Y114.52 E13.30956
G1 X106.271 Y114.909 E13.39291
G1 X104.992 Y115.505 E13.50555
G1 X103.986 Y116.025 E13.59594
G1 X103.384 Y116.358 E13.65086
G1 X102.382 Y116.957 E13.74405
G1 X101.97 Y117.224 E13.78324
G1 X101.135 Y117.788 E13.86367
G1 X100.245 Y118.46 E13.95269
G1 X100.227 Y118.457 E13.95415
G1 X99.199 Y119.284 E14.05946
G1 X98.903 Y119.537 E14.09055
G1 X98.074 Y120.282 E14.17952
G1 X97.813 Y120.529 E14.2082
G1 X96.99 Y121.355 E14.30128
G1 X96.433 Y121.953 E14.36651
G1 X96.03 Y122.408 E14.41503
G1 X95.389 Y123.175 E14.49482
G1 X94.55 Y124.274 E14.60519
G1 X94.29 Y124.634 E14.64064
G1 X93.641 Y125.595 E14.7332
G1 X93.366 Y126.029 E14.77422
G1 X92.884 Y126.84 E14.84952
G1 X92.514 Y127.499 E14.90985
G1 X92.002 Y128.498 E14.99946
G1 X91.527 Y129.51 E15.0887
G1 X91.391 Y129.822 E15.11587
G1 X90.959 Y130.892 E15.20798
G1 X90.8 Y131.323 E15.24465
G1 X90.406 Y132.53 E15.346
G1 X90.41 Y132.536 E15.34658
G1 X90.179 Y133.246 E15.40617
G1 X90.057 Y133.692 E15.44308
G1 X89.815 Y134.666 E15.5232
G1 X89.698 Y135.21 E15.56761
G1 X89.515 Y136.171 E15.6457
G1 X89.387 Y136.984 E15.7114
G1 X89.322 Y137.454 E15.74928
G1 X89.198 Y138.655 E15.84565
G1 X89.138 Y139.567 E15.91861
G1 X89.106 Y140.462 E15.9901
G1 X89.1 Y140.969 E16.03057
G1 X89.128 Y142.354 E16.14115
G1 X89.218 Y143.557 E16.23745
G1 X89.325 Y144.56 E16.31797
G1 X89.447 Y145.423 E16.38754
G1 X89.481 Y145.76 E16.41458
G1 X89.479 Y146.255 E16.45409
G1 X89.41 Y146.754 E16.4943
G1 X89.263 Y147.253 E16.53583
G1 X89.059 Y147.705 E16.57541
G1 X88.785 Y148.135 E16.61611
G1 X88.456 Y148.521 E16.6566
G1 X88.056 Y148.873 E16.69913
G1 X87.641 Y149.143 E16.73865
G1 X87.203 Y149.348 E16.77726
G1 X86.703 Y149.503 E16.81904
G1 X86.29 Y149.566 E16.85239
G1 X85.783 Y149.599 E16.89295
G1 X80.958 Y149.6 E17.2781
G1 X80.477 Y149.571 E17.31656
G1 X80.09 Y149.518 E17.34775
G1 X79.601 Y149.376 E17.38839
G1 X79.141 Y149.171 E17.42859
G1 X78.707 Y148.896 E17.46961
G1 X78.315 Y148.562 E17.51071
G1 X77.976 Y148.174 E17.55184
G1 X77.7 Y147.755 E17.59189
G1 X77.485 Y147.296 E17.63235
G1 X77.361 Y146.872 E17.66762
G1 X77.262 Y146.398 E17.70627
G1 X77.089 Y144.905 E17.82624
G1 X77.024 Y144.146 E17.88705
G1 X76.942 Y142.823 E17.99286
G1 X76.919 Y142.221 E18.04095
G1 X76.904 Y141.545 E18.09493
G1 X76.9 Y140.904 E18.1461
G1 X76.908 Y140.195 E18.20269
G1 X76.933 Y139.365 E18.26898
G1 X77 Y138.133 E18.36747
G1 X77.066 Y137.326 E18.4321
G1 X77.214 Y135.96 E18.54178
G1 X77.43 Y134.38 E18.66907
G1 X77.447 Y134.367 E18.67078
G1 X77.544 Y133.8 E18.7167
G1 X77.767 Y132.597 E18.81437
G1 X77.784 Y132.586 E18.81598
G1 X77.939 Y131.864 E18.87493
G1 X78.266 Y130.559 E18.98232
G1 X78.408 Y130.03 E19.02604
G1 X78.738 Y128.925 E19.1181
G1 X78.938 Y128.301 E19.1704
G1 X79.181 Y127.582 E19.23099
G1 X79.395 Y126.984 E19.28169
G1 X79.899 Y125.69 E19.39254
G1 X80.188 Y124.996 E19.45255
G1 X80.439 Y124.42 E19.5027
G1 X80.788 Y123.667 E19.56895
G1 X81.421 Y122.385 E19.68308
G1 X82.096 Y121.128 E19.79697
G1 X82.808 Y119.91 E19.90959
G1 X83.167 Y119.332 E19.9639
G1 X83.961 Y118.121 E20.0795
G1 X84.364 Y117.541 E20.13587
G1 X84.804 Y116.933 E20.19578
G1 X85.636 Y115.841 E20.30537
G1 X86.392 Y114.893 E20.40216
G1 X86.413 Y114.891 E20.40384
G1 X86.96 Y114.251 E20.47105
G1 X87.471 Y113.677 E20.53239
G1 X87.912 Y113.199 E20.58431
G1 X88.37 Y112.72 E20.63721
G1 X89.447 Y111.652 E20.75828
G1 X90.396 Y110.773 E20.86154
G1 X90.998 Y110.243 E20.92556
G1 X92.06 Y109.358 E21.03591
G1 X93.175 Y108.494 E21.14851
G1 X94.326 Y107.664 E21.26179
G1 X95.6 Y106.814 E21.38404
G1 X96.636 Y106.172 E21.48133
G1 X97.356 Y105.752 E21.54786
G1 X97.956 Y105.413 E21.60288
G1 X98.576 Y105.079 E21.65909
G1 X99.933 Y104.398 E21.78029
G1 X100.538 Y104.114 E21.83364
G1 X101.303 Y103.773 E21.9005
G1 X101.839 Y103.544 E21.94702
G1 X103.09 Y103.045 E22.05453
G1 X103.864 Y102.759 E22.1204
G1 X104.371 Y102.582 E22.16327
G1 X105.193 Y102.31 E22.23238
G1 X105.813 Y102.061 E22.28571
G1 X106.388 Y101.744 E22.33813
G1 X106.942 Y101.344 E22.39267
G1 X107.446 Y100.87 E22.4479
G1 X107.885 Y100.333 E22.50327
G1 X108.251 Y99.749 E22.55828
G1 X108.542 Y99.115 E22.61397
G1 X108.74 Y98.486 E22.66661
G1 X108.866 Y97.795 E22.72267
G1 X108.9 Y97.216 E22.76897
G1 X108.9 Y89.119 E23.41531
G1 X108.929 Y88.637 E23.45385
G1 X108.981 Y88.253 E23.48479
G1 X109.126 Y87.756 E23.52611
G1 X109.331 Y87.299 E23.5661
G1 X109.599 Y86.876 E23.60607
G0 F15000 X109.85 Y87.223
G1 F2250 X157.178 Y134.551 E28.94886
G1 F2700 E23.94886
G1 F300 Z0.44
G0 F15000 X157.512 Y137.148 Z0.44
G1 F300 Z0.24
G1 F2700 E28.94886
G1 F2250 X109.31 Y88.945 E34.39038
G1 F2700 E29.39038
G1 F300 Z0.44
G0 F15000 X109.298 Y91.196 Z0.44
G1 F300 Z0.24
G1 F2700 E34.39038
G1 F2250 X157.667 Y139.565 E39.85069
G1 F2700 E34.85069
G1 F300 Z0.44
G0 F15000 X157.686 Y141.847 Z0.44
G1 F300 Z0.24
G1 F2700 E39.85069
G1 F2250 X142.433 Y126.594 E41.57258
G1 F2700 E36.57258
G1 F300 Z0.44
G0 F15000 X144.461 Y130.884 Z0.44
G1 F300 Z0.24
G1 F2700 E41.57258
G1 F2250 X157.585 Y144.009 E43.05418
G1 F2700 E38.05418
G1 F300 Z0.44
G0 F15000 X157.375 Y146.062 Z0.44
G1 F300 Z0.24
G1 F2700 E43.05418
G1 F2250 X145.468 Y134.155 E44.39835
G1 F2700 E39.39835
G1 F300 Z0.44
G0 F15000 X146.012 Y136.961 Z0.44
G1 F300 Z0.24
G1 F2700 E44.39835
G1 F2250 X156.816 Y147.765 E45.618
G1 F2700 E40.618
G1 F300 Z0.44
G0 F15000 X155.62 Y148.831 Z0.44
G1 F300 Z0.24
G1 F2700 E45.618
G1 F2250 X146.255 Y139.467 E46.67514
G1 F2700 E41.67514
G1 F300 Z0.44
G0 F15000 X146.286 Y141.761 Z0.44
G1 F300 Z0.24
G1 F2700 E46.67514
G1 F2250 X153.724 Y149.198 E47.51475
G1 F2700 E42.51475
G1 F300 Z0.44
G0 F15000 X151.462 Y149.199 Z0.44
G1 F300 Z0.24
G1 F2700 E47.51475
G1 F2250 X146.147 Y143.884 E48.11476
G1 F2700 E43.11476
G1 F300 Z0.44
G0 F15000 X145.919 Y145.919 Z0.44
G1 F300 Z0.24
G1 F2700 E48.11476
G1 F2250 X149.197 Y149.197 E48.48481
G1 F2700 E43.48481
G1 F300 Z0.44
G0 F15000 X156.612 Y131.722 Z0.44
G1 F300 Z0.24
G1 F2700 E48.48481
G1 F2250 X111.051 Y86.16 E53.62818
G1 F2700 E48.62818
G1 F300 Z0.44
G0 F15000 X112.952 Y85.799 Z0.44
G1 F300 Z0.24
G1 F2700 E53.62818
G1 F2250 X125.929 Y98.776 E55.09314
G1 F2700 E50.09314
G1 F300 Z0.44
G0 F15000 X125.699 Y96.283 Z0.44
G1 F300 Z0.24
G1 F2700 E55.09314
G1 F2250 X115.215 Y85.799 E56.27666
G1 F2700 E51.27666
G1 F300 Z0.44
G0 F15000 X117.478 Y85.799 Z0.44
G1 F300 Z0.24
G1 F2700 E56.27666
G1 F2250 X125.699 Y94.021 E57.20478
G1 F2700 E52.20478
G1 F300 Z0.44
G0 F15000 X125.699 Y91.758 Z0.44
G1 F300 Z0.24
G1 F2700 E57.20478
G1 F2250 X119.74 Y85.799 E57.87748
G1 F2700 E52.87748
G1 F300 Z0.44
G0 F15000 X122.003 Y85.799 Z0.44
G1 F300 Z0.24
G1 F2700 E57.87748
G1 F2250 X125.699 Y89.495 E58.29472
G1 F2700 E53.29472
G1 F300 Z0.44
G0 F15000 X129.92 Y102.768 Z0.44
G1 F300 Z0.24
G1 F2700 E58.29472
G1 F2250 X155.728 Y128.576 E61.20815
G1 F2700 E56.20815
G1 F300 Z0.44
G0 F15000 X154.345 Y124.929 Z0.44
G1 F300 Z0.24
G1 F2700 E61.20815
G1 F2250 X133.57 Y104.154 E63.55341
G1 F2700 E58.55341
G1 F300 Z0.44
G0 F15000 X138.257 Y106.579 Z0.44
G1 F300 Z0.24
G1 F2700 E63.55341
G1 F2250 X151.923 Y120.244 E65.09609
G1 F2700 E60.09609
G1 F300 Z0.44
G0 F15000 X131.897 Y116.058 Z0.44
G1 F300 Z0.24
G1 F2700 E65.09609
G1 F2250 X109.298 Y93.459 E67.64726
G1 F2700 E62.64726
G1 F300 Z0.44
G0 F15000 X109.298 Y95.721 Z0.44
G1 F300 Z0.24
G1 F2700 E67.64726
G1 F2250 X127.609 Y114.032 E69.71436
G1 F2700 E64.71436
G1 F300 Z0.44
G0 F15000 X124.344 Y113.03 Z0.44
G1 F300 Z0.24
G1 F2700 E69.71436
G1 F2250 X109.244 Y97.93 E71.41898
G1 F2700 E66.41898
G1 F300 Z0.44
G0 F15000 X108.725 Y99.674 Z0.44
G1 F300 Z0.24
G1 F2700 E71.41898
G1 F2250 X121.538 Y112.487 E72.86542
G1 F2700 E67.86542
G1 F300 Z0.44
G0 F15000 X119.033 Y112.245 Z0.44
G1 F300 Z0.24
G1 F2700 E72.86542
G1 F2250 X107.823 Y101.035 E74.1309
G1 F2700 E69.1309
G1 F300 Z0.44
G0 F15000 X106.606 Y102.08 Z0.44
G1 F300 Z0.24
G1 F2700 E74.1309
G1 F2250 X116.739 Y112.214 E75.27486
G1 F2700 E70.27486
G1 F300 Z0.44
G0 F15000 X114.611 Y112.348 Z0.44
G1 F300 Z0.24
G1 F2700 E75.27486
G1 F2250 X105.043 Y102.78 E76.35498
G1 F2700 E71.35498
G1 F300 Z0.44
G0 F15000 X103.368 Y103.368 Z0.44
G1 F300 Z0.24
G1 F2700 E76.35498
G1 F2250 X112.618 Y112.618 E77.3992
G1 F2700 E72.3992
G1 F300 Z0.44
G0 F15000 X110.743 Y113.006 Z0.44
G1 F300 Z0.24
G1 F2700 E77.3992
G1 F2250 X101.752 Y104.015 E78.41418
G1 F2700 E73.41418
G1 F300 Z0.44
G0 F15000 X100.192 Y104.718 Z0.44
G1 F300 Z0.24
G1 F2700 E78.41418
G1 F2250 X108.97 Y113.496 E79.40512
G1 F2700 E74.40512
G1 F300 Z0.44
G0 F15000 X107.287 Y114.075 Z0.44
G1 F300 Z0.24
G1 F2700 E79.40512
G1 F2250 X98.685 Y105.474 E80.37613
G1 F2700 E75.37613
G1 F300 Z0.44
G0 F15000 X97.234 Y106.285 Z0.44
G1 F300 Z0.24
G1 F2700 E80.37613
G1 F2250 X105.687 Y114.737 E81.33032
G1 F2700 E76.33032
G1 F300 Z0.44
G0 F15000 X104.166 Y115.48 Z0.44
G1 F300 Z0.24
G1 F2700 E81.33032
G1 F2250 X95.828 Y107.142 E82.27159
G1 F2700 E77.27159
G1 F300 Z0.44
G0 F15000 X94.474 Y108.05 Z0.44
G1 F300 Z0.24
G1 F2700 E82.27159
G1 F2250 X102.715 Y116.291 E83.2019
G1 F2700 E78.2019
G1 F300 Z0.44
G0 F15000 X101.331 Y117.171 Z0.44
G1 F300 Z0.24
G1 F2700 E83.2019
G1 F2250 X93.166 Y109.006 E84.12364
G1 F2700 E79.12364
G1 F300 Z0.44
G0 F15000 X91.905 Y110.007 Z0.44
G1 F300 Z0.24
G1 F2700 E84.12364
G1 F2250 X100.021 Y118.123 E85.03984
G1 F2700 E80.03984
G1 F300 Z0.44
G0 F15000 X98.763 Y119.128 Z0.44
G1 F300 Z0.24
G1 F2700 E85.03984
G1 F2250 X90.685 Y111.05 E85.95176
G1 F2700 E80.95176
G1 F300 Z0.44
G0 F15000 X89.517 Y112.145 Z0.44
G1 F300 Z0.24
G1 F2700 E85.95176
G1 F2250 X97.575 Y120.202 E86.86136
G1 F2700 E81.86136
G1 F300 Z0.44
G0 F15000 X96.453 Y121.343 Z0.44
