;FLAVOR:Marlin
;TIME:1234
;Filament used: 2.10962m
;Layer height: 0.4
;MINX:81.308
;MINY:87.92
;MINZ:0.24
;MAXX:153.694
;MAXY:147.078
;MAXZ:6.59
;Generated with Cura_SteamEngine 5.3.1
M140 S60
M105
M190 S60
M104 S200
M105
M109 S200
M82 ;absolute extrusion mode
; Ender 3 Custom Start G-code
G92 E0 ; Reset Extruder
G28 ; Home all axes
G1 Z2.0 F3000 ; Move Z Axis up little to prevent scratching of Heat Bed
G1 X0.1 Y20 Z0.3 F5000.0 ; Move to start position
G1 X0.1 Y200.0 Z0.3 F1500.0 E15 ; Draw the first line
G1 X0.4 Y200.0 Z0.3 F5000.0 ; Move to side a little
G1 X0.4 Y20 Z0.3 F1500.0 E30 ; Draw the second line
G92 E0 ; Reset Extruder
G1 Z2.0 F3000 ; Move Z Axis up little to prevent scratching of Heat Bed
G1 X5 Y20 Z0.3 F5000.0 ; Move over to prevent blob squish
G92 E0
G92 E0
G1 F2700 E-5
;LAYER_COUNT:13
;LAYER:-5
M107
G0 F15000 X110.113 Y89.396 Z0.24
;TYPE:SUPPORT-INTERFACE
G1 F2700 E0
G1 F2250 X110.45 Y88.998 E0.04163
G1 X110.842 Y88.656 E0.08316
G1 X111.245 Y88.389 E0.12174
G1 X111.716 Y88.168 E0.16327
G1 X112.211 Y88.015 E0.20463
G1 X112.634 Y87.95 E0.23879
G1 X113.018 Y87.92 E0.26954
G1 X122.895 Y87.92 E1.05796
G1 X123.376 Y87.949 E1.09643
G1 X123.763 Y88.002 E1.12761
G1 X124.258 Y88.145 E1.16874
G1 X124.715 Y88.351 E1.20875
G1 X125.139 Y88.619 E1.24879
G1 X125.536 Y88.957 E1.29041
G1 X125.878 Y89.348 E1.33188
G1 X126.151 Y89.762 E1.37147
G1 X126.367 Y90.221 E1.41196
G1 X126.518 Y90.712 E1.45296
G1 X126.583 Y91.139 E1.48744
G1 X126.614 Y91.613 E1.52536
G1 X126.614 Y100.057 E2.1994
G1 X126.656 Y100.7 E2.25083
G1 X126.791 Y101.392 E2.30711
G1 X127.007 Y102.044 E2.36194
G1 X127.29 Y102.639 E2.41453
G1 X127.662 Y103.219 E2.46954
G1 X128.112 Y103.753 E2.52528
G1 X128.621 Y104.222 E2.58053
G1 X129.172 Y104.613 E2.63446
G1 X129.728 Y104.913 E2.68489
G1 X131.295 Y105.526 E2.81921
G1 X131.301 Y105.544 E2.82072
G1 X132.112 Y105.887 E2.89101
G1 X133.272 Y106.428 E2.99318
G1 X133.867 Y106.724 E3.04623
G1 X134.865 Y107.252 E3.13636
G1 X135.538 Y107.631 E3.19801
G1 X136.57 Y108.249 E3.29403
G1 X138.089 Y109.232 E3.43846
G1 X138.096 Y109.253 E3.44023
G1 X139.203 Y110.053 E3.54925
G1 X139.731 Y110.457 E3.60232
G1 X140.709 Y111.246 E3.70263
G1 X141.668 Y112.079 E3.80402
G1 X142.597 Y112.943 E3.9053
G1 X143.497 Y113.844 E4.00695
G1 X144.234 Y114.628 E4.09284
G1 X144.776 Y115.225 E4.15721
G1 X144.775 Y115.244 E4.15873
G1 X145.502 Y116.099 E4.24832
G1 X145.972 Y116.685 E4.30828
G1 X146.66 Y117.594 E4.39928
G1 X147.447 Y118.708 E4.50816
G1 X147.799 Y119.238 E4.55894
G1 X148.143 Y119.776 E4.60992
G1 X148.531 Y120.412 E4.66939
G1 X149.022 Y121.257 E4.7474
G1 X149.376 Y121.896 E4.80571
G1 X149.956 Y123.029 E4.90731
G1 X150.231 Y123.594 E4.95747
G1 X150.776 Y124.807 E5.06362
G1 X151.24 Y125.943 E5.16158
G1 X151.483 Y126.59 E5.21675
G1 X151.867 Y127.697 E5.31028
G1 X152.235 Y128.879 E5.4091
G1 X152.453 Y129.66 E5.47382
G1 X152.724 Y130.725 E5.56154
G1 X152.994 Y131.959 E5.66238
G1 X153.247 Y133.391 E5.77846
G1 X153.361 Y134.187 E5.84265
G1 X153.471 Y135.058 E5.91272
G1 X153.542 Y135.733 E5.9669
G1 X153.642 Y137.156 E6.08077
G1 X153.687 Y138.334 E6.17488
G1 X153.694 Y138.925 E6.22205
G1 X153.679 Y140.126 E6.31793
G1 X153.653 Y140.795 E6.37137
G1 X153.593 Y141.781 E6.45023
G1 X153.497 Y142.833 E6.53455
G1 X153.382 Y143.802 E6.61244
G1 X153.302 Y144.248 E6.64861
G1 X153.198 Y144.639 E6.68091
G1 X152.998 Y145.113 E6.72198
G1 X152.732 Y145.553 E6.76302
G1 X152.41 Y145.946 E6.80357
G1 X152.049 Y146.282 E6.84294
G1 X151.614 Y146.582 E6.88512
G1 X151.171 Y146.801 E6.92457
G1 X150.694 Y146.96 E6.96471
G1 X150.23 Y147.037 E7.00225
G1 X149.702 Y147.078 E7.04452
G1 X144.581 Y146.96 E7.45341
G1 X144.146 Y146.924 E7.48826
G1 X143.721 Y146.854 E7.52264
G1 X143.266 Y146.71 E7.56073
G1 X142.772 Y146.472 E7.6045
G1 X142.367 Y146.202 E7.64336
G1 X141.986 Y145.862 E7.68412
G1 X141.657 Y145.469 E7.72503
G1 X141.39 Y145.04 E7.76537
G1 X141.183 Y144.572 E7.80622
G1 X141.046 Y144.084 E7.84668
G1 X140.98 Y143.577 E7.88749
G1 X140.984 Y143.152 E7.92142
G1 X141.027 Y142.704 E7.95734
G1 X141.154 Y141.777 E8.03203
G1 X141.232 Y140.978 E8.09611
G1 X141.295 Y139.753 E8.19403
G1 X141.306 Y138.963 E8.2571
G1 X141.291 Y138.095 E8.32639
G1 X141.203 Y136.857 E8.42547
G1 X141.093 Y135.901 E8.50228
G1 X140.993 Y135.182 E8.56023
G1 X140.805 Y134.199 E8.64012
G1 X140.588 Y133.251 E8.71775
G1 X140.45 Y132.758 E8.75861
G1 X140.458 Y132.745 E8.75983
G1 X140.247 Y132.03 E8.81934
G1 X139.975 Y131.197 E8.88929
G1 X139.734 Y130.537 E8.94538
G1 X139.525 Y130.011 E8.99056
G1 X139.221 Y129.303 E9.05206
G1 X138.866 Y128.543 E9.11902
G1 X138.46 Y127.749 E9.19021
G1 X138.242 Y127.355 E9.22615
G1 X137.905 Y126.775 E9.2797
G1 X137.637 Y126.338 E9.32062
G1 X137.181 Y125.64 E9.38717
G1 X136.692 Y124.948 E9.45481
G1 X136.265 Y124.382 E9.5114
G1 X135.524 Y123.49 E9.60397
G1 X135.516 Y123.489 E9.60461
G1 X134.799 Y122.663 E9.69192
G1 X133.802 Y121.675 E9.80397
G1 X133.784 Y121.676 E9.80541
G1 X133.112 Y121.048 E9.87883
G1 X132.711 Y120.705 E9.92095
G1 X131.873 Y120.038 E10.00644
G1 X131.043 Y119.437 E10.08824
G1 X130.325 Y118.955 E10.15727
G1 X130.03 Y118.768 E10.18515
G1 X129.289 Y118.328 E10.25395
G1 X128.672 Y117.987 E10.31022
G1 X127.967 Y117.622 E10.37359
G1 X126.926 Y117.14 E10.46516
G1 X125.846 Y116.702 E10.55819
G1 X124.703 Y116.306 E10.65475
G1 X123.716 Y116.024 E10.73669
G1 X123.711 Y116.015 E10.73751
G1 X123.419 Y115.932 E10.76175
G1 X122.246 Y115.659 E10.85788
G1 X121.465 Y115.51 E10.92135
G1 X120.655 Y115.386 E10.98676
G1 X119.818 Y115.285 E11.05406
G1 X119.408 Y115.247 E11.08693
G1 X118.395 Y115.183 E11.16795
G1 X117.325 Y115.164 E11.25337
G1 X116.486 Y115.181 E11.32036
G1 X116.029 Y115.2 E11.35687
G1 X114.962 Y115.29 E11.44235
G1 X114.162 Y115.385 E11.50666
G1 X113.407 Y115.501 E11.56763
G1 X112.489 Y115.675 E11.64221
G1 X111.705 Y115.853 E11.70639
G1 X110.898 Y116.068 E11.77305
G1 X110.102 Y116.307 E11.8394
G1 X109.149 Y116.63 E11.91972
G1 X108.116 Y117.041 E12.00847
G1 X107.76 Y117.196 E12.03946
G1 X106.916 Y117.59 E12.11381
G1 X106.043 Y118.041 E12.19225
G1 X105.526 Y118.328 E12.23945
G1 X104.803 Y118.757 E12.30656
G1 X103.981 Y119.29 E12.38476
G1 X103.279 Y119.786 E12.45337
G1 X102.625 Y120.282 E12.51889
G1 X102.111 Y120.698 E12.57168
G1 X101.696 Y121.052 E12.61522
G1 X101.062 Y121.633 E12.68386
G1 X101.047 Y121.633 E12.68506
G1 X100.035 Y122.65 E12.79959
G1 X99.416 Y123.332 E12.87311
G1 X98.781 Y124.086 E12.95179
G1 X98.074 Y125.009 E13.0446
G1 X97.651 Y125.613 E13.10347
G1 X97.116 Y126.438 E13.18196
G1 X96.661 Y127.201 E13.25287
G1 X96.344 Y127.77 E13.30486
G1 X95.958 Y128.52 E13.37219
G1 X95.614 Y129.254 E13.4369
G1 X95.221 Y130.176 E13.51691
G1 X95.067 Y130.567 E13.55045
G1 X94.753 Y131.449 E13.62518
G1 X94.454 Y132.408 E13.70537
G1 X94.241 Y133.189 E13.76999
G1 X94.08 Y133.856 E13.82476
G1 X93.867 Y134.937 E13.91271
G1 X93.772 Y135.517 E13.95963
G1 X93.695 Y136.057 E14.00317
G1 X93.592 Y137.075 E14.08484
G1 X93.527 Y138.071 E14.16452
G1 X93.508 Y138.946 E14.23438
G1 X93.519 Y139.795 E14.30216
G1 X93.558 Y140.614 E14.36761
G1 X93.611 Y141.289 E14.42165
G1 X93.721 Y142.284 E14.50156
G1 X93.787 Y142.72 E14.53676
G1 X93.829 Y143.153 E14.57149
G1 X93.832 Y143.596 E14.60685
G1 X93.764 Y144.087 E14.64642
G1 X93.632 Y144.566 E14.68608
G1 X93.423 Y145.039 E14.72736
G1 X93.152 Y145.474 E14.76827
G1 X92.822 Y145.868 E14.8093
G1 X92.444 Y146.204 E14.84967
G1 X92.037 Y146.475 E14.8887
G1 X91.559 Y146.706 E14.93108
G1 X91.09 Y146.854 E14.97033
G1 X90.648 Y146.925 E15.00607
G1 X90.114 Y146.959 E15.04878
G1 X85.31 Y146.959 E15.43226
G1 X84.829 Y146.93 E15.47072
G1 X84.442 Y146.877 E15.5019
G1 X83.953 Y146.735 E15.54255
G1 X83.493 Y146.53 E15.58275
G1 X83.052 Y146.25 E15.62445
G1 X82.668 Y145.92 E15.66486
G1 X82.328 Y145.533 E15.70598
G1 X82.054 Y145.117 E15.74575
G1 X81.833 Y144.645 E15.78735
G1 X81.71 Y144.223 E15.82244
G1 X81.594 Y143.699 E15.86528
G1 X81.605 Y143.687 E15.86658
G1 X81.465 Y142.452 E15.96579
G1 X81.409 Y141.755 E16.02161
G1 X81.346 Y140.74 E16.10279
G1 X81.308 Y139.432 E16.20724
G1 X81.308 Y138.744 E16.26216
G1 X81.337 Y137.54 E16.3583
G1 X81.389 Y136.467 E16.44405
G1 X81.404 Y136.454 E16.44563
G1 X81.469 Y135.632 E16.51145
G1 X81.583 Y134.566 E16.59703
G1 X81.704 Y133.733 E16.66422
G1 X81.852 Y132.809 E16.73892
G1 X81.935 Y132.358 E16.77553
G1 X82.177 Y131.181 E16.87144
G1 X82.277 Y130.743 E16.90731
G1 X82.616 Y129.423 E17.01609
G1 X82.957 Y128.263 E17.11261
G1 X83.095 Y127.846 E17.14767
G1 X83.087 Y127.835 E17.14876
G1 X83.559 Y126.511 E17.26096
G1 X83.771 Y125.95 E17.30883
G1 X84.034 Y125.294 E17.36525
G1 X84.288 Y124.696 E17.41711
G1 X84.795 Y123.574 E17.51539
G1 X85.113 Y122.927 E17.57294
G1 X85.697 Y121.797 E17.67448
G1 X85.973 Y121.306 E17.71944
G1 X86.54 Y120.341 E17.80878
G1 X86.949 Y119.683 E17.87062
G1 X87.559 Y118.757 E17.95914
G1 X87.999 Y118.124 E18.02068
G1 X88.666 Y117.219 E18.11042
G1 X89.097 Y116.661 E18.1667
G1 X89.739 Y115.855 E18.24895
G1 X89.761 Y115.853 E18.25072
G1 X90.667 Y114.809 E18.36106
G1 X91.553 Y113.869 E18.46417
G1 X92.525 Y112.907 E18.57333
G1 X93.044 Y112.424 E18.62993
G1 X93.955 Y111.619 E18.72697
G1 X94.405 Y111.239 E18.77399
G1 X95.283 Y110.536 E18.86377
G1 X96.372 Y109.723 E18.97225
G1 X96.829 Y109.402 E19.01683
G1 X97.937 Y108.662 E19.12319
G1 X98.493 Y108.314 E19.17555
G1 X99.455 Y107.743 E19.26485
G1 X100.557 Y107.136 E19.36527
G1 X101.746 Y106.535 E19.47162
G1 X102.429 Y106.217 E19.53176
G1 X103.401 Y105.789 E19.61654
G1 X104.562 Y105.325 E19.71634
G1 X105.789 Y104.883 E19.82045
G1 X106.403 Y104.625 E19.87361
G1 X106.982 Y104.293 E19.92689
G1 X107.556 Y103.86 E19.98428
G1 X108.012 Y103.412 E20.03531
G1 X108.467 Y102.838 E20.09378
G1 X108.797 Y102.289 E20.14491
G1 X109.075 Y101.666 E20.19937
G1 X109.272 Y101.009 E20.25412
G1 X109.386 Y100.329 E20.30916
G1 X109.414 Y99.794 E20.35192
G1 X109.414 Y91.639 E21.00289
G1 X109.443 Y91.157 E21.04143
G1 X109.495 Y90.773 E21.07237
G1 X109.64 Y90.276 E21.11369
G1 X109.845 Y89.819 E21.15367
G1 X110.113 Y89.396 E21.19365
G0 F15000 X110.265 Y89.9
G1 F2250 X152.644 Y132.279 E25.97775
G1 F2700 E20.97775
G1 F300 Z0.44
G0 F15000 X153.053 Y134.952 Z0.44
G1 F300 Z0.24
G1 F2700 E25.97775
G1 F2250 X109.812 Y91.711 E30.85917
G1 F2700 E25.85917
G1 F300 Z0.44
G0 F15000 X109.812 Y93.973 Z0.44
G1 F300 Z0.24
G1 F2700 E30.85917
G1 F2250 X153.251 Y137.412 E35.76294
G1 F2700 E30.76294
G1 F300 Z0.44
G0 F15000 X153.283 Y139.707 Z0.44
G1 F300 Z0.24
G1 F2700 E35.76294
G1 F2250 X109.812 Y96.235 E40.67038
G1 F2700 E35.67038
G1 F300 Z0.44
G0 F15000 X109.812 Y98.498 Z0.44
G1 F300 Z0.24
G1 F2700 E40.67038
G1 F2250 X129.054 Y117.741 E42.84264
G1 F2700 E37.84264
G1 F300 Z0.44
G0 F15000 X125.056 Y116.005 Z0.44
G1 F300 Z0.24
G1 F2700 E42.84264
G1 F2250 X109.729 Y100.678 E44.57288
G1 F2700 E39.57288
G1 F300 Z0.44
G0 F15000 X109.187 Y102.398 Z0.44
G1 F300 Z0.24
G1 F2700 E44.57288
G1 F2250 X121.991 Y115.203 E46.01837
G1 F2700 E41.01837
G1 F300 Z0.44
G0 F15000 X119.369 Y114.844 Z0.44
G1 F300 Z0.24
G1 F2700 E46.01837
G1 F2250 X108.257 Y103.731 E47.27284
G1 F2700 E42.27284
G1 F300 Z0.44
G0 F15000 X107.004 Y104.741 Z0.44
G1 F300 Z0.24
G1 F2700 E47.27284
G1 F2250 X117.032 Y114.769 E48.40489
G1 F2700 E43.40489
G1 F300 Z0.44
G0 F15000 X114.894 Y114.894 Z0.44
G1 F300 Z0.24
G1 F2700 E48.40489
G1 F2250 X105.434 Y105.434 E49.47282
G1 F2700 E44.47282
G1 F300 Z0.44
G0 F15000 X103.797 Y106.06 Z0.44
G1 F300 Z0.24
G1 F2700 E49.47282
G1 F2250 X112.922 Y115.184 E50.50287
G1 F2700 E45.50287
G1 F300 Z0.44
G0 F15000 X111.078 Y115.604 Z0.44
G1 F300 Z0.24
G1 F2700 E50.50287
G1 F2250 X102.227 Y106.752 E51.5021
G1 F2700 E46.5021
G1 F300 Z0.44
G0 F15000 X100.716 Y107.504 Z0.44
G1 F300 Z0.24
G1 F2700 E51.5021
G1 F2250 X109.35 Y116.138 E52.47678
G1 F2700 E47.47678
G1 F300 Z0.44
G0 F15000 X107.723 Y116.774 Z0.44
G1 F300 Z0.24
G1 F2700 E52.47678
G1 F2250 X99.268 Y108.319 E53.43126
G1 F2700 E48.43126
G1 F300 Z0.44
G0 F15000 X97.872 Y109.185 Z0.44
G1 F300 Z0.24
G1 F2700 E53.43126
G1 F2250 X106.196 Y117.51 E54.371
G1 F2700 E49.371
G1 F300 Z0.44
G0 F15000 X104.747 Y118.323 Z0.44
G1 F300 Z0.24
G1 F2700 E54.371
G1 F2250 X96.528 Y110.105 E55.29877
G1 F2700 E50.29877
G1 F300 Z0.44
G0 F15000 X95.242 Y111.081 Z0.44
G1 F300 Z0.24
G1 F2700 E55.29877
G1 F2250 X103.382 Y119.221 E56.21769
G1 F2700 E51.21769
G1 F300 Z0.44
G0 F15000 X102.093 Y120.195 Z0.44
G1 F300 Z0.24
G1 F2700 E56.21769
G1 F2250 X94.006 Y112.108 E57.13062
G1 F2700 E52.13062
G1 F300 Z0.44
G0 F15000 X92.816 Y113.18 Z0.44
G1 F300 Z0.24
G1 F2700 E57.13062
G1 F2250 X100.885 Y121.25 E58.04157
G1 F2700 E53.04157
G1 F300 Z0.44
G0 F15000 X99.745 Y122.373 Z0.44
G1 F300 Z0.24
G1 F2700 E58.04157
G1 F2250 X91.683 Y114.31 E58.95174
G1 F2700 E53.95174
G1 F300 Z0.44
G0 F15000 X90.601 Y115.491 Z0.44
G1 F300 Z0.24
G1 F2700 E58.95174
G1 F2250 X98.686 Y123.576 E59.86444
G1 F2700 E54.86444
G1 F300 Z0.44
G0 F15000 X97.696 Y124.849 Z0.44
G1 F300 Z0.24
G1 F2700 E59.86444
G1 F2250 X89.564 Y116.717 E60.78245
G1 F2700 E55.78245
G1 F300 Z0.44
G0 F15000 X88.584 Y118 Z0.44
G1 F300 Z0.24
G1 F2700 E60.78245
G1 F2250 X96.789 Y126.205 E61.7087
G1 F2700 E56.7087
G1 F300 Z0.44
G0 F15000 X95.961 Y127.639 Z0.44
G1 F300 Z0.24
G1 F2700 E61.7087
G1 F2250 X87.655 Y119.334 E62.6463
G1 F2700 E57.6463
G1 F300 Z0.44
G0 F15000 X86.779 Y120.72 Z0.44
G1 F300 Z0.24
G1 F2700 E62.6463
G1 F2250 X95.218 Y129.16 E63.59902
G1 F2700 E58.59902
G1 F300 Z0.44
G0 F15000 X94.569 Y130.773 Z0.44
G1 F300 Z0.24
G1 F2700 E63.59902
G1 F2250 X85.957 Y122.161 E64.57122
G1 F2700 E59.57122
G1 F300 Z0.44
G0 F15000 X85.196 Y123.663 Z0.44
G1 F300 Z0.24
G1 F2700 E64.57122
G1 F2250 X94.019 Y132.485 E65.56718
G1 F2700 E60.56718
G1 F300 Z0.44
G0 F15000 X93.582 Y134.312 Z0.44
G1 F300 Z0.24
G1 F2700 E65.56718
G1 F2250 X84.497 Y125.226 E66.59283
G1 F2700 E61.59283
G1 F300 Z0.44
G0 F15000 X83.86 Y126.852 Z0.44
G1 F300 Z0.24
G1 F2700 E66.59283
G1 F2250 X93.273 Y136.265 E67.65545
G1 F2700 E62.65545
G1 F300 Z0.44
G0 F15000 X93.12 Y138.375 Z0.44
G1 F300 Z0.24
G1 F2700 E67.65545
G1 F2250 X83.29 Y128.544 E68.7652
G1 F2700 E63.7652
G1 F300 Z0.44
G0 F15000 X82.799 Y130.316 Z0.44
G1 F300 Z0.24
G1 F2700 E68.7652
G1 F2250 X93.162 Y140.68 E69.93512
G1 F2700 E64.93512
G1 F300 Z0.44
G0 F15000 X93.429 Y143.209 Z0.44
G1 F300 Z0.24
G1 F2700 E69.93512
G1 F2250 X82.383 Y132.163 E71.18209
G1 F2700 E66.18209
G1 F300 Z0.44
G0 F15000 X82.054 Y134.097 Z0.44
G1 F300 Z0.24
G1 F2700 E71.18209
G1 F2250 X92.968 Y145.012 E72.41421
G1 F2700 E67.41421
G1 F300 Z0.44
G0 F15000 X91.825 Y146.131 Z0.44
G1 F300 Z0.24
G1 F2700 E72.41421
G1 F2250 X81.829 Y136.135 E73.54265
G1 F2700 E68.54265
G1 F300 Z0.44
G0 F15000 X81.718 Y138.286 Z0.44
G1 F300 Z0.24
G1 F2700 E73.54265
G1 F2250 X89.989 Y146.557 E74.47635
G1 F2700 E69.47635
G1 F300 Z0.44
G0 F15000 X87.726 Y146.557 Z0.44
G1 F300 Z0.24
G1 F2700 E74.47635
G1 F2250 X81.74 Y140.571 E75.1521
G1 F2700 E70.1521
G1 F300 Z0.44
G0 F15000 X81.931 Y143.025 Z0.44
G1 F300 Z0.24
G1 F2700 E75.1521
G1 F2250 X85.463 Y146.557 E75.55083
G1 F2700 E70.55083
G1 F300 Z0.44
G0 F15000 X141.393 Y143.656 Z0.44
G1 F300 Z0.24
G1 F2700 E75.55083
G1 F2250 X144.268 Y146.531 E75.87538
G1 F2700 E70.87538
G1 F300 Z0.44
G0 F15000 X146.605 Y146.605 Z0.44
G1 F300 Z0.24
G1 F2700 E75.87538
G1 F2250 X141.574 Y141.574 E76.44332
G1 F2700 E71.44332
G1 F300 Z0.44
G0 F15000 X141.698 Y139.435 Z0.44
G1 F300 Z0.24
G1 F2700 E76.44332
G1 F2250 X148.922 Y146.659 E77.25883
G1 F2700 E72.25883
G1 F300 Z0.44
G0 F15000 X150.97 Y146.445 Z0.44
G1 F300 Z0.24
G1 F2700 E77.25883
G1 F2250 X141.619 Y137.093 E78.31451
G1 F2700 E73.31451
G1 F300 Z0.44
G0 F15000 X141.264 Y134.476 Z0.44
G1 F300 Z0.24
G1 F2700 E78.31451
G1 F2250 X152.271 Y145.483 E79.55707
G1 F2700 E74.55707
G1 F300 Z0.44
G0 F15000 X152.956 Y143.905 Z0.44
G1 F300 Z0.24
G1 F2700 E79.55707
G1 F2250 X140.466 Y131.415 E80.96705
G1 F2700 E75.96705
G1 F300 Z0.44
G0 F15000 X138.735 Y127.421 Z0.44
G1 F300 Z0.24
G1 F2700 E80.96705
G1 F2250 X153.182 Y141.868 E82.59796
G1 F2700 E77.59796
G1 F300 Z0.44
G0 F15000 X151.94 Y129.312 Z0.44
G1 F300 Z0.24
G1 F2700 E82.59796
G1 F2250 X111.396 Y88.769 E87.17486
G1 F2700 E82.17486
G1 F300 Z0.44
G0 F15000 X113.21 Y88.32 Z0.44
