;FLAVOR:Marlin
;TIME:1312
;Filament used: 2.25619m
;Layer height: 0.4
;MINX:78.371
;MINY:86.24
;MINZ:0.24
;MAXX:156.627
;MAXY:148.759
;MAXZ:6.59
;Generated with Cura_SteamEngine 5.3.1
M140 S60
M105
M190 S60
M104 S200
M105
M109 S200
M82 ;absolute extrusion mode
; Ender 3 Custom Start G-code
G92 E0 ; Reset Extruder
G28 ; Home all axes
G1 Z2.0 F3000 ; Move Z Axis up little to prevent scratching of Heat Bed
G1 X0.1 Y20 Z0.3 F5000.0 ; Move to start position
G1 X0.1 Y200.0 Z0.3 F1500.0 E15 ; Draw the first line
G1 X0.4 Y200.0 Z0.3 F5000.0 ; Move to side a little
G1 X0.4 Y20 Z0.3 F1500.0 E30 ; Draw the second line
G92 E0 ; Reset Extruder
G1 Z2.0 F3000 ; Move Z Axis up little to prevent scratching of Heat Bed
G1 X5 Y20 Z0.3 F5000.0 ; Move over to prevent blob squish
G92 E0
G92 E0
G1 F2700 E-5
;LAYER_COUNT:13
;LAYER:-5
M107
G0 F15000 X109.773 Y87.716 Z0.24
;TYPE:SUPPORT-INTERFACE
G1 F2700 E0
G1 F2250 X110.11 Y87.318 E0.04163
G1 X110.502 Y86.976 E0.08316
G1 X110.905 Y86.709 E0.12174
G1 X111.376 Y86.488 E0.16327
G1 X111.871 Y86.335 E0.20463
G1 X112.294 Y86.27 E0.23879
G1 X112.678 Y86.24 E0.26954
G1 X122.555 Y86.24 E1.05796
G1 X123.036 Y86.269 E1.09643
G1 X123.423 Y86.322 E1.12761
G1 X123.918 Y86.465 E1.16874
G1 X124.375 Y86.671 E1.20875
G1 X124.799 Y86.939 E1.24879
G1 X125.196 Y87.277 E1.29041
G1 X125.538 Y87.668 E1.33188
G1 X125.811 Y88.082 E1.37147
G1 X126.027 Y88.541 E1.41196
G1 X126.178 Y89.032 E1.45296
G1 X126.243 Y89.459 E1.48744
G1 X126.274 Y89.933 E1.52536
G1 X126.274 Y98.159 E2.18199
G1 X126.316 Y98.801 E2.23335
G1 X126.45 Y99.49 E2.28938
G1 X126.66 Y100.13 E2.34315
G1 X126.947 Y100.736 E2.39667
G1 X127.314 Y101.31 E2.45106
G1 X127.738 Y101.819 E2.50394
G1 X128.241 Y102.292 E2.55905
G1 X128.812 Y102.703 E2.61521
G1 X129.415 Y103.028 E2.66989
G1 X129.918 Y103.229 E2.71313
G1 X130.631 Y103.473 E2.77329
G1 X131.606 Y103.839 E2.85642
G1 X133.006 Y104.412 E2.97717
G1 X133.579 Y104.665 E3.02717
G1 X134.24 Y104.97 E3.08528
G1 X134.853 Y105.267 E3.13965
G1 X135.43 Y105.559 E3.19127
G1 X136.025 Y105.873 E3.24498
G1 X137.268 Y106.571 E3.35877
G1 X138.333 Y107.218 E3.45824
G1 X139.568 Y108.029 E3.57618
G1 X140.031 Y108.349 E3.62111
G1 X140.643 Y108.79 E3.68132
G1 X141.147 Y109.167 E3.73156
G1 X141.707 Y109.6 E3.78807
G1 X142.693 Y110.403 E3.88958
G1 X143.308 Y110.932 E3.95433
G1 X144.176 Y111.714 E4.04759
G1 X144.727 Y112.241 E4.10845
G1 X145.668 Y113.186 E4.21491
G1 X146.105 Y113.647 E4.26561
G1 X146.611 Y114.199 E4.32539
G1 X147.106 Y114.762 E4.38523
G1 X147.865 Y115.664 E4.47933
G1 X148.807 Y116.874 E4.60173
G1 X149.569 Y117.925 E4.70536
G1 X150.375 Y119.126 E4.82082
G1 X151.063 Y120.232 E4.92479
G1 X151.352 Y120.722 E4.9702
G1 X151.698 Y121.336 E5.02646
G1 X152.089 Y122.057 E5.09193
G1 X152.689 Y123.238 E5.19767
G1 X152.979 Y123.848 E5.25159
G1 X153.239 Y124.419 E5.30167
G1 X153.502 Y125.026 E5.35448
G1 X154.036 Y126.346 E5.46814
G1 X154.444 Y127.451 E5.56217
G1 X154.885 Y128.8 E5.67546
G1 X155.097 Y129.511 E5.73468
G1 X155.281 Y130.171 E5.78937
G1 X155.451 Y130.825 E5.84331
G1 X155.636 Y131.6 E5.90692
G1 X155.881 Y132.736 E5.99968
G1 X156.106 Y133.942 E6.09761
G1 X156.34 Y135.629 E6.23356
G1 X156.472 Y136.85 E6.3316
G1 X156.545 Y137.645 E6.39532
G1 X156.534 Y137.657 E6.39662
G1 X156.605 Y139.054 E6.50828
G1 X156.627 Y140.235 E6.60257
G1 X156.608 Y141.638 E6.71458
G1 X156.579 Y142.316 E6.76875
G1 X156.515 Y143.375 E6.85343
G1 X156.424 Y144.34 E6.93081
G1 X156.288 Y145.499 E7.02396
G1 X156.201 Y145.964 E7.06172
G1 X156.093 Y146.358 E7.09433
G1 X155.898 Y146.809 E7.13355
G1 X155.628 Y147.253 E7.17503
G1 X155.303 Y147.644 E7.21562
G1 X154.92 Y147.992 E7.25693
G1 X154.503 Y148.272 E7.29702
G1 X154.044 Y148.498 E7.33786
G1 X153.579 Y148.647 E7.37684
G1 X153.114 Y148.723 E7.41445
G1 X152.644 Y148.759 E7.45208
G1 X147.66 Y148.721 E7.84993
G1 X147.217 Y148.689 E7.88539
G1 X146.802 Y148.628 E7.91887
G1 X146.333 Y148.486 E7.95799
G1 X145.87 Y148.274 E7.99863
G1 X145.44 Y147.997 E8.03946
G1 X145.054 Y147.661 E8.08031
G1 X144.721 Y147.278 E8.12083
G1 X144.441 Y146.844 E8.16206
G1 X144.228 Y146.379 E8.20288
G1 X144.083 Y145.884 E8.24406
G1 X144.012 Y145.398 E8.28326
G1 X144.01 Y144.994 E8.31551
G1 X144.044 Y144.526 E8.35297
G1 X144.161 Y143.709 E8.41885
G1 X144.268 Y142.744 E8.49635
G1 X144.336 Y141.677 E8.5817
G1 X144.364 Y140.888 E8.64472
G1 X144.367 Y139.899 E8.72367
G1 X144.352 Y139.346 E8.76782
G1 X144.312 Y138.579 E8.82913
G1 X144.189 Y137.251 E8.93559
G1 X144.119 Y136.678 E8.98167
G1 X143.965 Y135.697 E9.06094
G1 X143.868 Y135.173 E9.10348
G1 X143.659 Y134.202 E9.18276
G1 X143.409 Y133.219 E9.26373
G1 X143.108 Y132.199 E9.34862
G1 X142.775 Y131.229 E9.43048
G1 X142.441 Y130.352 E9.5054
G1 X142.108 Y129.58 E9.57251
G1 X142.116 Y129.566 E9.5738
G1 X141.924 Y129.131 E9.61175
G1 X141.681 Y128.633 E9.65598
G1 X141.197 Y127.679 E9.74138
G1 X141.02 Y127.348 E9.77134
G1 X140.482 Y126.423 E9.85676
G1 X140.245 Y126.038 E9.89285
G1 X139.821 Y125.385 E9.95499
G1 X139.287 Y124.617 E10.02966
G1 X138.786 Y123.941 E10.09683
G1 X138.11 Y123.104 E10.18271
G1 X137.495 Y122.392 E10.25781
G1 X137.229 Y122.097 E10.28952
G1 X136.445 Y121.286 E10.37956
G1 X136.088 Y120.938 E10.41936
G1 X135.412 Y120.313 E10.49285
G1 X134.743 Y119.728 E10.56379
G1 X133.713 Y118.912 E10.66868
G1 X133.231 Y118.554 E10.71661
G1 X132.426 Y117.997 E10.79475
G1 X131.668 Y117.509 E10.86671
G1 X130.825 Y117.005 E10.94511
G1 X129.998 Y116.549 E11.0205
G1 X129.647 Y116.369 E11.05199
G1 X128.779 Y115.948 E11.12899
G1 X128.264 Y115.728 E11.1737
G1 X128.262 Y115.717 E11.17459
G1 X127.443 Y115.372 E11.24553
G1 X126.681 Y115.082 E11.31061
G1 X126.208 Y114.913 E11.35071
G1 X125.257 Y114.606 E11.43048
G1 X124.921 Y114.507 E11.45844
G1 X124.069 Y114.278 E11.52886
G1 X122.999 Y114.031 E11.61652
G1 X122.036 Y113.846 E11.6948
G1 X121.157 Y113.709 E11.76581
G1 X120.192 Y113.594 E11.84338
G1 X119.704 Y113.548 E11.88251
G1 X118.807 Y113.489 E11.95427
G1 X118.011 Y113.462 E12.01784
G1 X117.093 Y113.459 E12.09112
G1 X116.127 Y113.486 E12.16826
G1 X115.05 Y113.566 E12.25447
G1 X114.058 Y113.672 E12.33411
G1 X113.671 Y113.725 E12.36529
G1 X112.838 Y113.857 E12.43261
G1 X112.328 Y113.951 E12.47401
G1 X111.623 Y114.098 E12.53149
G1 X110.896 Y114.27 E12.59113
G1 X110.138 Y114.474 E12.65379
G1 X109.291 Y114.726 E12.72433
G1 X108.202 Y115.102 E12.81629
G1 X107.45 Y115.394 E12.88069
G1 X106.617 Y115.744 E12.95281
G1 X105.613 Y116.211 E13.0412
G1 X104.779 Y116.637 E13.11596
G1 X104.371 Y116.861 E13.15311
G1 X103.623 Y117.293 E13.22206
G1 X102.913 Y117.734 E13.28878
G1 X101.953 Y118.382 E13.38124
G1 X100.946 Y119.131 E13.48142
G1 X100.527 Y119.462 E13.52404
G1 X99.855 Y120.025 E13.59402
G1 X99.424 Y120.407 E13.63999
G1 X98.728 Y121.061 E13.71623
G1 X98.11 Y121.683 E13.78622
G1 X97.536 Y122.296 E13.85326
G1 X96.817 Y123.122 E13.94067
G1 X96.324 Y123.731 E14.00322
G1 X95.767 Y124.466 E14.07683
G1 X95.104 Y125.413 E14.16911
G1 X94.476 Y126.397 E14.26229
G1 X93.951 Y127.304 E14.34594
G1 X93.702 Y127.758 E14.38728
G1 X93.206 Y128.736 E14.47481
G1 X92.663 Y129.955 E14.58134
G1 X92.516 Y130.314 E14.6123
G1 X92.186 Y131.179 E14.6862
G1 X92.023 Y131.638 E14.72508
G1 X91.713 Y132.597 E14.80554
G1 X91.636 Y132.856 E14.82711
G1 X91.316 Y134.055 E14.92616
G1 X91.072 Y135.193 E15.01907
G1 X90.988 Y135.639 E15.0553
G1 X90.782 Y136.961 E15.1621
G1 X90.667 Y138.101 E15.25356
G1 X90.607 Y138.997 E15.32524
G1 X90.576 Y139.93 E15.39976
G1 X90.572 Y140.302 E15.42946
G1 X90.591 Y141.508 E15.52574
G1 X90.683 Y142.772 E15.6269
G1 X90.78 Y143.697 E15.70114
G1 X90.91 Y144.659 E15.77863
G1 X90.931 Y144.933 E15.80057
G1 X90.935 Y145.338 E15.8329
G1 X90.865 Y145.857 E15.8747
G1 X90.729 Y146.341 E15.91483
G1 X90.522 Y146.803 E15.95525
G1 X90.25 Y147.239 E15.99627
G1 X89.923 Y147.627 E16.03677
G1 X89.557 Y147.956 E16.07605
G1 X89.127 Y148.243 E16.11732
G1 X88.662 Y148.466 E16.15849
G1 X88.198 Y148.614 E16.19737
G1 X87.754 Y148.685 E16.23326
G1 X87.323 Y148.72 E16.26778
G1 X82.411 Y148.72 E16.65987
G1 X81.93 Y148.691 E16.69834
G1 X81.543 Y148.638 E16.72952
G1 X81.051 Y148.495 E16.77042
G1 X80.594 Y148.29 E16.8104
G1 X80.154 Y148.011 E16.85199
G1 X79.769 Y147.682 E16.89241
G1 X79.431 Y147.297 E16.93331
G1 X79.155 Y146.877 E16.97342
G1 X78.936 Y146.409 E17.01467
G1 X78.81 Y145.977 E17.05059
G1 X78.717 Y145.537 E17.08649
G1 X78.561 Y144.196 E17.19426
G1 X78.477 Y143.309 E17.26538
G1 X78.486 Y143.3 E17.26639
G1 X78.414 Y142.159 E17.35765
G1 X78.385 Y141.371 E17.4206
G1 X78.371 Y140.126 E17.51999
G1 X78.382 Y139.438 E17.57491
G1 X78.404 Y138.75 E17.62986
G1 X78.469 Y137.563 E17.72475
G1 X78.535 Y136.782 E17.78732
G1 X78.611 Y136.033 E17.84741
G1 X78.695 Y135.331 E17.90385
G1 X78.883 Y134.065 E18.00602
G1 X79.006 Y133.335 E18.06511
G1 X79.111 Y132.785 E18.1098
G1 X79.265 Y132.042 E18.17037
G1 X79.558 Y130.798 E18.27239
G1 X79.828 Y129.787 E18.35592
G1 X79.997 Y129.205 E18.4043
G1 X80.487 Y127.652 E18.53429
G1 X80.756 Y126.907 E18.59752
G1 X81.025 Y126.196 E18.6582
G1 X81.584 Y124.837 E18.7755
G1 X81.817 Y124.307 E18.82172
G1 X82.131 Y123.625 E18.88165
G1 X82.426 Y123.017 E18.93559
G1 X83.026 Y121.857 E19.03984
G1 X83.349 Y121.264 E19.09374
G1 X83.724 Y120.609 E19.15399
G1 X84.074 Y120.023 E19.20848
G1 X84.395 Y119.505 E19.25712
G1 X85.126 Y118.389 E19.36362
G1 X85.529 Y117.804 E19.42032
G1 X85.972 Y117.19 E19.48076
G1 X86.378 Y116.647 E19.53488
G1 X86.769 Y116.145 E19.58567
G1 X87.192 Y115.619 E19.63955
G1 X87.732 Y114.972 E19.70682
G1 X88.495 Y114.103 E19.79913
G1 X88.985 Y113.571 E19.85687
G1 X89.437 Y113.099 E19.90904
G1 X90.466 Y112.079 E20.02469
G1 X90.923 Y111.65 E20.07473
G1 X92.061 Y110.633 E20.19656
G1 X92.494 Y110.274 E20.24145
G1 X93.491 Y109.474 E20.34349
G1 X94.59 Y108.65 E20.45314
G1 X95.182 Y108.231 E20.51103
G1 X95.742 Y107.849 E20.56514
G1 X96.384 Y107.429 E20.62638
G1 X97.428 Y106.783 E20.72438
G1 X98.167 Y106.352 E20.79267
G1 X98.644 Y106.086 E20.83627
G1 X99.85 Y105.453 E20.94499
G1 X100.473 Y105.142 E21.00058
G1 X101.101 Y104.845 E21.05603
G1 X101.727 Y104.564 E21.1108
G1 X102.984 Y104.039 E21.21954
G1 X104.298 Y103.54 E21.33174
G1 X105.171 Y103.237 E21.4055
G1 X105.185 Y103.248 E21.40693
G1 X105.951 Y102.95 E21.47254
G1 X106.566 Y102.612 E21.52855
G1 X107.119 Y102.211 E21.58308
G1 X107.597 Y101.762 E21.63543
G1 X108.045 Y101.224 E21.69132
G1 X108.407 Y100.655 E21.74515
G1 X108.7 Y100.029 E21.80032
G1 X108.908 Y99.384 E21.85442
G1 X109.035 Y98.699 E21.91003
G1 X109.074 Y98.088 E21.9589
G1 X109.074 Y89.959 E22.60779
G1 X109.103 Y89.477 E22.64634
G1 X109.155 Y89.093 E22.67727
G1 X109.3 Y88.596 E22.7186
G1 X109.505 Y88.139 E22.75858
G1 X109.773 Y87.716 E22.79855
G0 F15000 X110.317 Y87.69
G1 F2250 X155.498 Y132.871 E27.89897
G1 F2700 E22.89897
G1 F300 Z0.44
G0 F15000 X155.926 Y135.562 Z0.44
G1 F300 Z0.24
G1 F2700 E27.89897
G1 F2250 X109.546 Y89.181 E33.13481
G1 F2700 E28.13481
G1 F300 Z0.44
G0 F15000 X109.472 Y91.37 Z0.44
G1 F300 Z0.24
G1 F2700 E33.13481
G1 F2250 X156.153 Y138.051 E38.40456
G1 F2700 E33.40456
G1 F300 Z0.44
G0 F15000 X156.224 Y140.385 Z0.44
G1 F300 Z0.24
G1 F2700 E38.40456
G1 F2250 X109.472 Y93.632 E43.68239
G1 F2700 E38.68239
G1 F300 Z0.44
G0 F15000 X109.472 Y95.895 Z0.44
G1 F300 Z0.24
G1 F2700 E43.68239
G1 F2250 X129.363 Y115.786 E45.92785
G1 F2700 E40.92785
G1 F300 Z0.44
G0 F15000 X125.614 Y114.3 Z0.44
G1 F300 Z0.24
G1 F2700 E45.92785
G1 F2250 X109.469 Y98.155 E47.75044
G1 F2700 E42.75044
G1 F300 Z0.44
G0 F15000 X109.108 Y100.057 Z0.44
G1 F300 Z0.24
G1 F2700 E47.75044
G1 F2250 X122.597 Y113.546 E49.2732
G1 F2700 E44.2732
G1 F300 Z0.44
G0 F15000 X119.958 Y113.17 Z0.44
G1 F300 Z0.24
G1 F2700 E49.2732
G1 F2250 X108.312 Y101.524 E50.5879
G1 F2700 E45.5879
G1 F300 Z0.44
G0 F15000 X107.183 Y102.657 Z0.44
G1 F300 Z0.24
G1 F2700 E50.5879
G1 F2250 X117.586 Y113.06 E51.76228
G1 F2700 E46.76228
G1 F300 Z0.44
G0 F15000 X115.4 Y113.137 Z0.44
G1 F300 Z0.24
G1 F2700 E51.76228
G1 F2250 X105.727 Y103.464 E52.85425
G1 F2700 E47.85425
G1 F300 Z0.44
G0 F15000 X104.059 Y104.059 Z0.44
G1 F300 Z0.24
G1 F2700 E52.85425
G1 F2250 X113.367 Y113.367 E53.90502
G1 F2700 E48.90502
G1 F300 Z0.44
G0 F15000 X111.461 Y113.724 Z0.44
G1 F300 Z0.24
G1 F2700 E53.90502
G1 F2250 X102.437 Y104.7 E54.92372
G1 F2700 E49.92372
G1 F300 Z0.44
G0 F15000 X100.87 Y105.396 Z0.44
G1 F300 Z0.24
G1 F2700 E54.92372
G1 F2250 X109.67 Y114.195 E55.91709
G1 F2700 E50.91709
G1 F300 Z0.44
G0 F15000 X107.972 Y114.76 Z0.44
G1 F300 Z0.24
G1 F2700 E55.91709
G1 F2250 X99.369 Y106.157 E56.88827
G1 F2700 E51.88827
G1 F300 Z0.44
G0 F15000 X97.912 Y106.963 Z0.44
G1 F300 Z0.24
G1 F2700 E56.88827
G1 F2250 X106.367 Y115.418 E57.84274
G1 F2700 E52.84274
G1 F300 Z0.44
G0 F15000 X104.841 Y116.155 Z0.44
G1 F300 Z0.24
G1 F2700 E57.84274
G1 F2250 X96.51 Y107.823 E58.78327
G1 F2700 E53.78327
G1 F300 Z0.44
G0 F15000 X95.159 Y108.736 Z0.44
G1 F300 Z0.24
G1 F2700 E58.78327
G1 F2250 X103.39 Y116.966 E59.7124
G1 F2700 E54.7124
G1 F300 Z0.44
G0 F15000 X102.016 Y117.855 Z0.44
G1 F300 Z0.24
G1 F2700 E59.7124
G1 F2250 X93.858 Y109.697 E60.63335
G1 F2700 E55.63335
G1 F300 Z0.44
G0 F15000 X92.601 Y110.703 Z0.44
G1 F300 Z0.24
G1 F2700 E60.63335
G1 F2250 X100.706 Y118.808 E61.54831
G1 F2700 E56.54831
G1 F300 Z0.44
G0 F15000 X99.467 Y119.831 Z0.44
G1 F300 Z0.24
G1 F2700 E61.54831
G1 F2250 X91.397 Y111.762 E62.45927
G1 F2700 E57.45927
G1 F300 Z0.44
G0 F15000 X90.239 Y112.866 Z0.44
G1 F300 Z0.24
G1 F2700 E62.45927
G1 F2250 X98.298 Y120.925 E63.36904
G1 F2700 E58.36904
G1 F300 Z0.44
G0 F15000 X97.191 Y122.081 Z0.44
G1 F300 Z0.24
G1 F2700 E63.36904
G1 F2250 X89.121 Y114.011 E64.28005
G1 F2700 E59.28005
G1 F300 Z0.44
G0 F15000 X88.057 Y115.21 Z0.44
G1 F300 Z0.24
G1 F2700 E64.28005
G1 F2250 X96.153 Y123.305 E65.19394
G1 F2700 E60.19394
G1 F300 Z0.44
G0 F15000 X95.185 Y124.6 Z0.44
G1 F300 Z0.24
G1 F2700 E65.19394
G1 F2250 X87.039 Y116.455 E66.11347
G1 F2700 E61.11347
G1 F300 Z0.44
G0 F15000 X86.064 Y117.743 Z0.44
G1 F300 Z0.24
G1 F2700 E66.11347
G1 F2250 X94.278 Y125.956 E67.04068
G1 F2700 E62.04068
G1 F300 Z0.44
G0 F15000 X93.448 Y127.389 Z0.44
G1 F300 Z0.24
G1 F2700 E67.04068
G1 F2250 X85.145 Y119.086 E67.978
G1 F2700 E62.978
G1 F300 Z0.44
G0 F15000 X84.272 Y120.476 Z0.44
G1 F300 Z0.24
G1 F2700 E67.978
G1 F2250 X92.694 Y128.898 E68.92875
G1 F2700 E63.92875
G1 F300 Z0.44
G0 F15000 X92.022 Y130.488 Z0.44
G1 F300 Z0.24
G1 F2700 E68.92875
G1 F2250 X83.448 Y121.915 E69.8966
G1 F2700 E64.8966
G1 F300 Z0.44
G0 F15000 X82.679 Y123.409 Z0.44
G1 F300 Z0.24
G1 F2700 E69.8966
G1 F2250 X91.433 Y132.162 E70.88477
G1 F2700 E65.88477
G1 F300 Z0.44
G0 F15000 X90.935 Y133.927 Z0.44
G1 F300 Z0.24
G1 F2700 E70.88477
G1 F2250 X81.966 Y124.958 E71.89727
G1 F2700 E66.89727
G1 F300 Z0.44
G0 F15000 X81.311 Y126.566 Z0.44
G1 F300 Z0.24
G1 F2700 E71.89727
G1 F2250 X90.557 Y135.811 E72.94098
G1 F2700 E67.94098
G1 F300 Z0.44
G0 F15000 X90.294 Y137.811 Z0.44
G1 F300 Z0.24
G1 F2700 E72.94098
G1 F2250 X80.72 Y128.238 E74.02172
G1 F2700 E69.02172
G1 F300 Z0.44
G0 F15000 X80.191 Y129.971 Z0.44
G1 F300 Z0.24
G1 F2700 E74.02172
G1 F2250 X90.175 Y139.956 E75.14885
G1 F2700 E70.14885
G1 F300 Z0.44
G0 F15000 X90.247 Y142.29 Z0.44
G1 F300 Z0.24
G1 F2700 E75.14885
G1 F2250 X79.736 Y131.779 E76.33543
G1 F2700 E71.33543
G1 F300 Z0.44
G0 F15000 X79.355 Y133.661 Z0.44
G1 F300 Z0.24
G1 F2700 E76.33543
G1 F2250 X90.521 Y144.827 E77.59594
G1 F2700 E72.59594
G1 F300 Z0.44
G0 F15000 X90.121 Y146.69 Z0.44
G1 F300 Z0.24
G1 F2700 E77.59594
G1 F2250 X79.062 Y135.63 E78.84443
G1 F2700 E73.84443
G1 F300 Z0.44
G0 F15000 X78.862 Y137.693 Z0.44
G1 F300 Z0.24
G1 F2700 E78.84443
G1 F2250 X89.008 Y147.839 E79.9898
G1 F2700 E74.9898
G1 F300 Z0.44
G0 F15000 X87.225 Y148.319 Z0.44
G1 F300 Z0.24
G1 F2700 E79.9898
G1 F2250 X78.774 Y139.868 E80.94382
G1 F2700 E75.94382
G1 F300 Z0.44
G0 F15000 X78.816 Y142.173 Z0.44
G1 F300 Z0.24
G1 F2700 E80.94382
G1 F2250 X84.962 Y148.319 E81.63764
G1 F2700 E76.63764
G1 F300 Z0.44
G0 F15000 X82.699 Y148.319 Z0.44
G1 F300 Z0.24
G1 F2700 E81.63764
G1 F2250 X79.014 Y144.633 E82.05369
G1 F2700 E77.05369
G1 F300 Z0.44
G0 F15000 X142.044 Y128.467 Z0.44
G1 F300 Z0.24
G1 F2700 E82.05369
