;FLAVOR:Marlin
;TIME:256
;Filament used: 0.183702m
;Layer height: 0.4
;MINX:113.7
;MINY:113.7
;MINZ:0.2
;MAXX:121.3
;MAXY:121.3
;MAXZ:10
;Generated with Cura_SteamEngine 5.3.1
M140 S60
M105
M190 S60
M104 S220
M105
M109 S220
M82 ;absolute extrusion mode
; Ender 3 Custom Start G-code
G92 E0 ; Reset Extruder
G28 ; Home all axes
G1 Z2.0 F3000 ; Move Z Axis up little to prevent scratching of Heat Bed
G1 X0.1 Y20 Z0.3 F5000.0 ; Move to start position
G1 X0.1 Y200.0 Z0.3 F1500.0 E15 ; Draw the first line
G1 X0.4 Y200.0 Z0.3 F5000.0 ; Move to side a little
G1 X0.4 Y20 Z0.3 F1500.0 E30 ; Draw the second line
G92 E0 ; Reset Extruder
G1 Z2.0 F3000 ; Move Z Axis up little to prevent scratching of Heat Bed
G1 X5 Y20 Z0.3 F5000.0 ; Move over to prevent blob squish
G92 E0
G92 E0
G1 F2700 E-5
;LAYER_COUNT:26
;LAYER:0
M107
G1 F300 Z0.4
;MESH:Holder_TestFit_V1.stl
G0 F6000 X114.687 Y114.154 Z0.4
;TYPE:WALL-INNER
G1 F300 Z0.2
G1 F2700 E0
G1 F554.9 X120.2 Y114.15 E0.2315
G0 F6000 X120.85 Y114.8
G1 F556 X120.846 Y120.313 E0.46253
G0 F6000 X120.313 Y120.846
G1 F554.9 X114.8 Y120.85 E0.69403
G1 F651.7 X114.389 Y120.611 E0.71103
G1 F644.2 X114.154 Y120.313 E0.72476
G1 X114.082 Y120.738 E0.74035
G1 F709.4 X114.082 Y120.941 E0.74701
G1 F602.6 X114.8 Y120.85 E0.775
G0 F6000 X114.154 Y120.313
G1 F554.9 X114.15 Y114.8 E1.00649
G1 F651.7 X114.389 Y114.389 E1.02349
G1 F644.2 X114.687 Y114.154 E1.03722
G1 X114.262 Y114.082 E1.05281
G1 F709.4 X114.059 Y114.082 E1.05948
G1 F602.6 X114.15 Y114.8 E1.08746
G1 F2700 E-3.91254
G1 F300 Z0.4
G0 F6000 X120.85 Y114.8 Z0.4
G1 F300 Z0.2
G1 F2700 E1.08746
G1 F650.2 X120.919 Y114.262 E1.1069
G1 F707.6 X120.919 Y114.058 E1.11362
G1 F602.6 X120.2 Y114.15 E1.14165
G1 F650.2 X120.611 Y114.389 E1.15868
G1 X120.85 Y114.8 E1.17572
G1 F2700 E-3.82428
G1 F300 Z0.4
G0 F6000 X120.313 Y120.846 Z0.4
G1 F300 Z0.2
G1 F2700 E1.17572
G1 F642.7 X120.738 Y120.919 E1.19136
G1 F774.1 X120.919 Y120.919 E1.1968
G1 X120.919 Y120.738 E1.20225
G1 F644.2 X120.846 Y120.313 E1.21785
G1 X120.611 Y120.611 E1.23158
G1 F642.7 X120.313 Y120.846 E1.24534
G0 F6000 X121.3 Y121.3
;TYPE:WALL-OUTER
G1 F700.6 X121.3 Y113.7 E1.49811
G1 X113.701 Y113.701 E1.75086
G1 X113.701 Y121.299 E2.00357
G1 X121.3 Y121.3 E2.25631
G1 F2700 E-2.74369
G1 F300 Z0.4
G0 F6000 X114.658 Y120.342 Z0.4
G1 F300 Z0.2
G1 F2700 E2.25631
G1 F700.6 X114.602 Y120.235 E2.26033
G1 X114.6 Y114.8 E2.4411
G1 X114.658 Y114.658 E2.4462
G1 X114.765 Y114.602 E2.45021
G1 X120.2 Y114.6 E2.63098
G1 X120.342 Y114.658 E2.63609
G1 X120.4 Y114.8 E2.64119
G1 X120.398 Y120.235 E2.82196
G1 X120.342 Y120.342 E2.82597
G1 X120.235 Y120.398 E2.82999
G1 X114.8 Y120.4 E3.01076
G1 X114.658 Y120.342 E3.01586
G1 F2700 E-1.98414
G1 F300 Z0.4
;MESH:NONMESH
G0 F6000 X114.687 Y114.154 Z0.4
;TIME_ELAPSED:14.345538
;LAYER:1
M106 S85
;MESH:Holder_TestFit_V1.stl
G0 F10500 X114.687 Y114.154 Z0.8
;TYPE:WALL-INNER
G1 F300 Z0.6
G1 F2700 E3.01586
G1 F475.2 X120.2 Y114.15 E3.47885
G0 F10500 X120.85 Y114.8
G1 F556.8 X120.919 Y114.262 E3.51773
G1 F606.1 X120.919 Y114.058 E3.53116
G1 F516.1 X120.2 Y114.15 E3.58722
G1 F556.8 X120.611 Y114.389 E3.62129
G1 X120.85 Y114.8 E3.65537
G1 F476.2 X120.846 Y120.313 E4.11745
G0 F10500 X120.313 Y120.846
G1 F475.2 X114.8 Y120.85 E4.58044
G1 F558.1 X114.389 Y120.611 E4.61444
G1 F551.7 X114.154 Y120.313 E4.64189
G1 X114.082 Y120.738 E4.67307
G1 F607.6 X114.082 Y120.941 E4.68641
G1 F516.1 X114.8 Y120.85 E4.74238
G0 F10500 X114.154 Y120.313
G1 F475.2 X114.15 Y114.8 E5.20537
G1 F558.1 X114.389 Y114.389 E5.23937
G1 F551.7 X114.687 Y114.154 E5.26682
G1 X114.262 Y114.082 E5.298
G1 F607.6 X114.059 Y114.082 E5.31134
G1 F516.1 X114.15 Y114.8 E5.36731
G1 F2700 E0.36731
G1 F300 Z0.8
G0 F10500 X120.313 Y120.846 Z0.8
G1 F300 Z0.6
G1 F2700 E5.36731
G1 F550.5 X120.738 Y120.919 E5.39857
G1 F663 X120.919 Y120.919 E5.40947
G1 X120.919 Y120.738 E5.42037
G1 F551.7 X120.846 Y120.313 E5.45156
G1 X120.611 Y120.611 E5.47901
G1 F550.5 X120.313 Y120.846 E5.50653
G0 F10500 X121.3 Y121.3
;TYPE:WALL-OUTER
G1 F600 X121.3 Y113.7 E6.01209
G1 X113.701 Y113.701 E6.51757
G1 X113.701 Y121.299 E7.02299
G1 X121.3 Y121.3 E7.52848
G1 F2700 E2.52848
G1 F300 Z0.8
G0 F10500 X114.658 Y120.342 Z0.8
G1 F300 Z0.6
G1 F2700 E7.52848
G1 F600 X114.602 Y120.235 E7.53652
G1 X114.6 Y114.8 E7.89805
G1 X114.658 Y114.658 E7.90826
G1 X114.765 Y114.602 E7.91629
G1 X120.2 Y114.6 E8.27783
G1 X120.342 Y114.658 E8.28803
G1 X120.4 Y114.8 E8.29823
G1 X120.398 Y120.235 E8.65977
G1 X120.342 Y120.342 E8.66781
G1 X120.235 Y120.398 E8.67584
G1 X114.8 Y120.4 E9.03738
G1 X114.658 Y120.342 E9.04758
G1 F2700 E4.04758
G1 F300 Z0.8
;MESH:NONMESH
G0 F10500 X114.687 Y114.154 Z0.8
;TIME_ELAPSED:25.425079
;LAYER:2
M106 S170
;MESH:Holder_TestFit_V1.stl
G0 F15000 X114.687 Y114.154 Z1.2
;TYPE:WALL-INNER
G1 F300 Z1
G1 F2700 E9.04758
G1 F475.2 X120.2 Y114.15 E9.51057
G0 F15000 X120.85 Y114.8
G1 F556.8 X120.919 Y114.262 E9.54945
G1 F606.1 X120.919 Y114.058 E9.56288
G1 F516.1 X120.2 Y114.15 E9.61894
G1 F556.8 X120.611 Y114.389 E9.65301
G1 X120.85 Y114.8 E9.68709
G1 F476.2 X120.846 Y120.313 E10.14917
G0 F15000 X120.313 Y120.846
G1 F475.2 X114.8 Y120.85 E10.61216
G1 F558.1 X114.389 Y120.611 E10.64616
G1 F551.7 X114.154 Y120.313 E10.67361
G1 X114.082 Y120.738 E10.70479
G1 F607.6 X114.082 Y120.941 E10.71813
G1 F516.1 X114.8 Y120.85 E10.7741
G0 F15000 X114.154 Y120.313
G1 F475.2 X114.15 Y114.8 E11.23709
G1 F558.1 X114.389 Y114.389 E11.27109
G1 F551.7 X114.687 Y114.154 E11.29854
G1 X114.262 Y114.082 E11.32972
G1 F607.6 X114.059 Y114.082 E11.34306
G1 F516.1 X114.15 Y114.8 E11.39903
G1 F2700 E6.39903
G1 F300 Z1.2
G0 F15000 X120.313 Y120.846 Z1.2
G1 F300 Z1
G1 F2700 E11.39903
G1 F550.5 X120.738 Y120.919 E11.43029
G1 F663 X120.919 Y120.919 E11.44119
G1 X120.919 Y120.738 E11.45209
G1 F551.7 X120.846 Y120.313 E11.48328
G1 X120.611 Y120.611 E11.51073
G1 F550.5 X120.313 Y120.846 E11.53825
G0 F15000 X121.3 Y121.3
;TYPE:WALL-OUTER
G1 F600 X121.3 Y113.7 E12.04381
G1 X113.701 Y113.701 E12.54929
G1 X113.701 Y121.299 E13.05471
G1 X121.3 Y121.3 E13.5602
G1 F2700 E8.5602
G1 F300 Z1.2
G0 F15000 X114.658 Y120.342 Z1.2
G1 F300 Z1
G1 F2700 E13.5602
G1 F600 X114.602 Y120.235 E13.56824
G1 X114.6 Y114.8 E13.92977
G1 X114.658 Y114.658 E13.93998
G1 X114.765 Y114.602 E13.94801
G1 X120.2 Y114.6 E14.30955
G1 X120.342 Y114.658 E14.31975
G1 X120.4 Y114.8 E14.32995
G1 X120.398 Y120.235 E14.69149
G1 X120.342 Y120.342 E14.69953
G1 X120.235 Y120.398 E14.70756
G1 X114.8 Y120.4 E15.0691
G1 X114.658 Y120.342 E15.0793
G1 F2700 E10.0793
G1 F300 Z1.2
;MESH:NONMESH
G0 F15000 X114.687 Y114.154 Z1.2
;TIME_ELAPSED:36.507691
;LAYER:3
M106 S255
;MESH:Holder_TestFit_V1.stl
G0 X114.687 Y114.154 Z1.6
;TYPE:WALL-INNER
G1 F300 Z1.4
G1 F2700 E15.0793
G1 F475.2 X120.2 Y114.15 E15.54229
G0 F15000 X120.85 Y114.8
G1 F556.8 X120.919 Y114.262 E15.58117
G1 F606.1 X120.919 Y114.058 E15.5946
G1 F516.1 X120.2 Y114.15 E15.65066
G1 F556.8 X120.611 Y114.389 E15.68474
G1 X120.85 Y114.8 E15.71881
G1 F476.2 X120.846 Y120.313 E16.18089
G0 F15000 X120.313 Y120.846
G1 F475.2 X114.8 Y120.85 E16.64388
G1 F558.1 X114.389 Y120.611 E16.67788
G1 F551.7 X114.154 Y120.313 E16.70533
G1 X114.082 Y120.738 E16.73652
G1 F607.6 X114.082 Y120.941 E16.74985
G1 F516.1 X114.8 Y120.85 E16.80582
G0 F15000 X114.154 Y120.313
G1 F475.2 X114.15 Y114.8 E17.26881
G1 F558.1 X114.389 Y114.389 E17.30281
G1 F551.7 X114.687 Y114.154 E17.33026
G1 X114.262 Y114.082 E17.36144
G1 F607.6 X114.059 Y114.082 E17.37478
G1 F516.1 X114.15 Y114.8 E17.43075
G1 F2700 E12.43075
G1 F300 Z1.6
G0 F15000 X120.313 Y120.846 Z1.6
G1 F300 Z1.4
G1 F2700 E17.43075
G1 F550.5 X120.738 Y120.919 E17.46201
G1 F663 X120.919 Y120.919 E17.47291
G1 X120.919 Y120.738 E17.48381
G1 F551.7 X120.846 Y120.313 E17.515
G1 X120.611 Y120.611 E17.54245
G1 F550.5 X120.313 Y120.846 E17.56997
G0 F15000 X121.3 Y121.3
;TYPE:WALL-OUTER
G1 F600 X121.3 Y113.7 E18.07553
G1 X113.701 Y113.701 E18.58101
G1 X113.701 Y121.299 E19.08643
G1 X121.3 Y121.3 E19.59192
G1 F2700 E14.59192
G1 F300 Z1.6
G0 F15000 X114.658 Y120.342 Z1.6
G1 F300 Z1.4
G1 F2700 E19.59192
G1 F600 X114.602 Y120.235 E19.59996
G1 X114.6 Y114.8 E19.96149
G1 X114.658 Y114.658 E19.9717
G1 X114.765 Y114.602 E19.97973
G1 X120.2 Y114.6 E20.34127
G1 X120.342 Y114.658 E20.35147
G1 X120.4 Y114.8 E20.36168
G1 X120.398 Y120.235 E20.72321
G1 X120.342 Y120.342 E20.73125
G1 X120.235 Y120.398 E20.73928
G1 X114.8 Y120.4 E21.10082
G1 X114.658 Y120.342 E21.11102
G1 F2700 E16.11102
G1 F300 Z1.6
;MESH:NONMESH
G0 F15000 X114.687 Y114.154 Z1.6
;TIME_ELAPSED:47.590302
;LAYER:4
;MESH:Holder_TestFit_V1.stl
G0 X114.687 Y114.154 Z2
;TYPE:WALL-INNER
G1 F300 Z1.8
G1 F2700 E21.11102
G1 F475.2 X120.2 Y114.15 E21.57401
G0 F15000 X120.85 Y114.8
G1 F556.8 X120.919 Y114.262 E21.61289
G1 F606.1 X120.919 Y114.058 E21.62632
G1 F516.1 X120.2 Y114.15 E21.68238
G1 F556.8 X120.611 Y114.389 E21.71646
G1 X120.85 Y114.8 E21.75053
G1 F476.2 X120.846 Y120.313 E22.21261
G0 F15000 X120.313 Y120.846
G1 F475.2 X114.8 Y120.85 E22.6756
G1 F558.1 X114.389 Y120.611 E22.7096
G1 F551.7 X114.154 Y120.313 E22.73705
G1 X114.082 Y120.738 E22.76824
G1 F607.6 X114.082 Y120.941 E22.78157
G1 F516.1 X114.8 Y120.85 E22.83754
G0 F15000 X114.154 Y120.313
G1 F475.2 X114.15 Y114.8 E23.30053
G1 F558.1 X114.389 Y114.389 E23.33453
G1 F551.7 X114.687 Y114.154 E23.36198
G1 X114.262 Y114.082 E23.39316
G1 F607.6 X114.059 Y114.082 E23.4065
G1 F516.1 X114.15 Y114.8 E23.46247
G1 F2700 E18.46247
G1 F300 Z2
G0 F15000 X120.313 Y120.846 Z2
G1 F300 Z1.8
G1 F2700 E23.46247
G1 F550.5 X120.738 Y120.919 E23.49373
G1 F663 X120.919 Y120.919 E23.50463
G1 X120.919 Y120.738 E23.51553
G1 F551.7 X120.846 Y120.313 E23.54672
G1 X120.611 Y120.611 E23.57418
G1 F550.5 X120.313 Y120.846 E23.60169
G0 F15000 X121.3 Y121.3
;TYPE:WALL-OUTER
G1 F600 X121.3 Y113.7 E24.10725
G1 X113.701 Y113.701 E24.61273
G1 X113.701 Y121.299 E25.11816
G1 X121.3 Y121.3 E25.62364
G1 F2700 E20.62364
G1 F300 Z2
G0 F15000 X114.658 Y120.342 Z2
G1 F300 Z1.8
G1 F2700 E25.62364
G1 F600 X114.602 Y120.235 E25.63168
G1 X114.6 Y114.8 E25.99321
G1 X114.658 Y114.658 E26.00342
G1 X114.765 Y114.602 E26.01145
G1 X120.2 Y114.6 E26.37299
G1 X120.342 Y114.658 E26.38319
G1 X120.4 Y114.8 E26.3934
G1 X120.398 Y120.235 E26.75493
G1 X120.342 Y120.342 E26.76297
G1 X120.235 Y120.398 E26.771
G1 X114.8 Y120.4 E27.13254
G1 X114.658 Y120.342 E27.14274
G1 F2700 E22.14274
G1 F300 Z2
;MESH:NONMESH
G0 F15000 X114.687 Y114.154 Z2
;TIME_ELAPSED:58.672914
;LAYER:5
;MESH:Holder_TestFit_V1.stl
G0 X114.687 Y114.154 Z2.4
;TYPE:WALL-INNER
G1 F300 Z2.2
G1 F2700 E27.14274
G1 F475.2 X120.2 Y114.15 E27.60573
G0 F15000 X120.85 Y114.8
G1 F476.2 X120.846 Y120.313 E28.06781
G0 F15000 X120.313 Y120.846
G1 F475.2 X114.8 Y120.85 E28.5308
G1 F558.1 X114.389 Y120.611 E28.5648
G1 F551.7 X114.154 Y120.313 E28.59225
G1 X114.082 Y120.738 E28.62344
G1 F607.6 X114.082 Y120.941 E28.63677
G1 F516.1 X114.8 Y120.85 E28.69274
G0 F15000 X114.154 Y120.313
G1 F475.2 X114.15 Y114.8 E29.15573
G1 F558.1 X114.389 Y114.389 E29.18973
G1 F551.7 X114.687 Y114.154 E29.21718
G1 X114.262 Y114.082 E29.24837
G1 F607.6 X114.059 Y114.082 E29.2617
G1 F516.1 X114.15 Y114.8 E29.31767
G1 F2700 E24.31767
G1 F300 Z2.4
G0 F15000 X120.85 Y114.8 Z2.4
G1 F300 Z2.2
G1 F2700 E29.31767
G1 F556.8 X120.919 Y114.262 E29.35654
G1 F606.1 X120.919 Y114.058 E29.36998
G1 F516.1 X120.2 Y114.15 E29.42603
G1 F556.8 X120.611 Y114.389 E29.46011
G1 X120.85 Y114.8 E29.49419
G1 F2700 E24.49419
G1 F300 Z2.4
G0 F15000 X120.313 Y120.846 Z2.4
G1 F300 Z2.2
G1 F2700 E29.49419
G1 F550.5 X120.738 Y120.919 E29.52545
G1 F663 X120.919 Y120.919 E29.53635
G1 X120.919 Y120.738 E29.54725
G1 F551.7 X120.846 Y120.313 E29.57844
G1 X120.611 Y120.611 E29.6059
G1 F550.5 X120.313 Y120.846 E29.63341
G0 F15000 X121.3 Y121.3
;TYPE:WALL-OUTER
G1 F600 X121.3 Y113.7 E30.13897
G1 X113.701 Y113.701 E30.64445
G1 X113.701 Y121.299 E31.14988
G1 X121.3 Y121.3 E31.65536
G1 F2700 E26.65536
G1 F300 Z2.4
G0 F15000 X114.658 Y120.342 Z2.4
G1 F300 Z2.2
G1 F2700 E31.65536
G1 F600 X114.602 Y120.235 E31.6634
G1 X114.6 Y114.8 E32.02493
G1 X114.658 Y114.658 E32.03514
G1 X114.765 Y114.602 E32.04317
G1 X120.2 Y114.6 E32.40471
G1 X120.342 Y114.658 E32.41491
G1 X120.4 Y114.8 E32.42512
G1 X120.398 Y120.235 E32.78665
G1 X120.342 Y120.342 E32.79469
G1 X120.235 Y120.398 E32.80272
G1 X114.8 Y120.4 E33.16426
G1 X114.658 Y120.342 E33.17446
G1 F2700 E28.17446
G1 F300 Z2.4
;MESH:NONMESH
G0 F15000 X114.687 Y114.154 Z2.4
;TIME_ELAPSED:70.220709
;LAYER:6
;MESH:Holder_TestFit_V1.stl
G0 X114.687 Y114.154 Z2.8
;TYPE:WALL-INNER
G1 F300 Z2.6
G1 F2700 E33.17446
G1 F475.2 X120.2 Y114.15 E33.63745
G0 F15000 X120.85 Y114.8
G1 F556.8 X120.919 Y114.262 E33.67633
G1 F606.1 X120.919 Y114.058 E33.68977
G1 F516.1 X120.2 Y114.15 E33.74582
G1 F556.8 X120.611 Y114.389 E33.7799
G1 X120.85 Y114.8 E33.81397
G1 F476.2 X120.846 Y120.313 E34.27605
G0 F15000 X120.313 Y120.846
G1 F475.2 X114.8 Y120.85 E34.73904
G1 F558.1 X114.389 Y120.611 E34.77304
G1 F551.7 X114.154 Y120.313 E34.80049
G1 X114.082 Y120.738 E34.83168
G1 F607.6 X114.082 Y120.941 E34.84501
G1 F516.1 X114.8 Y120.85 E34.90098
G0 F15000 X114.154 Y120.313
G1 F475.2 X114.15 Y114.8 E35.36397
G1 F558.1 X114.389 Y114.389 E35.39797
G1 F551.7 X114.687 Y114.154 E35.42542
G1 X114.262 Y114.082 E35.45661
G1 F607.6 X114.059 Y114.082 E35.46994
G1 F516.1 X114.15 Y114.8 E35.52591
G1 F2700 E30.52591
G1 F300 Z2.8
G0 F15000 X120.313 Y120.846 Z2.8
G1 F300 Z2.6
G1 F2700 E35.52591
G1 F550.5 X120.738 Y120.919 E35.55717
G1 F663 X120.919 Y120.919 E35.56807
G1 X120.919 Y120.738 E35.57897
G1 F551.7 X120.846 Y120.313 E35.61016
G1 X120.611 Y120.611 E35.63762
G1 F550.5 X120.313 Y120.846 E35.66513
G0 F15000 X121.3 Y121.3
;TYPE:WALL-OUTER
G1 F600 X121.3 Y113.7 E36.17069
G1 X113.701 Y113.701 E36.67617
G1 X113.701 Y121.299 E37.1816
G1 X121.3 Y121.3 E37.68708
G1 F2700 E32.68708
G1 F300 Z2.8
G0 F15000 X114.658 Y120.342 Z2.8
G1 F300 Z2.6
G1 F2700 E37.68708
G1 F600 X114.602 Y120.235 E37.69512
G1 X114.6 Y114.8 E38.05665
G1 X114.658 Y114.658 E38.06686
G1 X114.765 Y114.602 E38.07489
G1 X120.2 Y114.6 E38.43643
G1 X120.342 Y114.658 E38.44663
G1 X120.4 Y114.8 E38.45684
G1 X120.398 Y120.235 E38.81837
G1 X120.342 Y120.342 E38.82641
G1 X120.235 Y120.398 E38.83444
G1 X114.8 Y120.4 E39.19598
G1 X114.658 Y120.342 E39.20618
G1 F2700 E34.20618
G1 F300 Z2.8
;MESH:NONMESH
G0 F15000 X114.687 Y114.154 Z2.8
;TIME_ELAPSED:81.303321
;LAYER:7
;MESH:Holder_TestFit_V1.stl
G0 X114.687 Y114.154 Z3.2
;TYPE:WALL-INNER
G1 F300 Z3
G1 F2700 E39.20618
G1 F475.2 X120.2 Y114.15 E39.66917
G0 F15000 X120.85 Y114.8
G1 F556.8 X120.919 Y114.262 E39.70805
G1 F606.1 X120.919 Y114.058 E39.72149
G1 F516.1 X120.2 Y114.15 E39.77754
G1 F556.8 X120.611 Y114.389 E39.81162
G1 X120.85 Y114.8 E39.84569
G1 F476.2 X120.846 Y120.313 E40.30777
G0 F15000 X120.313 Y120.846
G1 F550.5 X120.738 Y120.919 E40.33904
G1 F663 X120.919 Y120.919 E40.34993
G1 X120.919 Y120.738 E40.36083
G1 F551.7 X120.846 Y120.313 E40.39202
G1 X120.611 Y120.611 E40.41948
G1 F550.5 X120.313 Y120.846 E40.44699
G1 F475.2 X114.8 Y120.85 E40.90999
G1 F558.1 X114.389 Y120.611 E40.94399
G1 F551.7 X114.154 Y120.313 E40.97144
G1 X114.082 Y120.738 E41.00262
G1 F607.6 X114.082 Y120.941 E41.01596
G1 F516.1 X114.8 Y120.85 E41.07192
G0 F15000 X114.154 Y120.313
G1 F475.2 X114.15 Y114.8 E41.53492
G1 F558.1 X114.389 Y114.389 E41.56891
G1 F551.7 X114.687 Y114.154 E41.59637
G1 X114.262 Y114.082 E41.62755
G1 F607.6 X114.059 Y114.082 E41.64089
G1 F516.1 X114.15 Y114.8 E41.69685
G1 F2700 E36.69685
G1 F300 Z3.2
G0 F15000 X114.658 Y120.342 Z3.2
;TYPE:WALL-OUTER
G1 F300 Z3
G1 F2700 E41.69685
G1 F600 X114.602 Y120.235 E41.70489
G1 X114.6 Y114.8 E42.06642
G1 X114.658 Y114.658 E42.07663
G1 X114.765 Y114.602 E42.08466
G1 X120.2 Y114.6 E42.4462
G1 X120.342 Y114.658 E42.4564
G1 X120.4 Y114.8 E42.46661
G1 X120.398 Y120.235 E42.82814
G1 X120.342 Y120.342 E42.83618
G1 X120.235 Y120.398 E42.84421
G1 X114.8 Y120.4 E43.20575
G1 X114.658 Y120.342 E43.21595
G1 F2700 E38.21595
G1 F300 Z3.2
G0 F15000 X121.3 Y121.3 Z3.2
G1 F300 Z3
G1 F2700 E43.21595
G1 F600 X121.3 Y113.7 E43.72151
G1 X113.701 Y113.701 E44.22699
G1 X113.701 Y121.299 E44.73241
G1 X121.3 Y121.3 E45.2379
