;FLAVOR:Marlin
;TIME:287
;Filament used: 0.270386m
;Layer height: 0.4
;MINX:109.9
;MINY:109.9
;MINZ:0.24
;MAXX:125.1
;MAXY:125.1
;MAXZ:11.39
;Generated with Cura_SteamEngine 5.3.1
M140 S60
M105
M190 S60
M104 S220
M105
M109 S220
M82 ;absolute extrusion mode
; Ender 3 Custom Start G-code
G92 E0 ; Reset Extruder
G28 ; Home all axes
G1 Z2.0 F3000 ; Move Z Axis up little to prevent scratching of Heat Bed
G1 X0.1 Y20 Z0.3 F5000.0 ; Move to start position
G1 X0.1 Y200.0 Z0.3 F1500.0 E15 ; Draw the first line
G1 X0.4 Y200.0 Z0.3 F5000.0 ; Move to side a little
G1 X0.4 Y20 Z0.3 F1500.0 E30 ; Draw the second line
G92 E0 ; Reset Extruder
G1 Z2.0 F3000 ; Move Z Axis up little to prevent scratching of Heat Bed
G1 X5 Y20 Z0.3 F5000.0 ; Move over to prevent blob squish
G92 E0
G92 E0
G1 F2700 E-5
;LAYER_COUNT:26
;LAYER:-5
M106 S255
G0 F15000 X110.936 Y110.978 Z0.24
;TYPE:SUPPORT-INTERFACE
G1 F2700 E0
G1 F1828.2 X111.328 Y110.636 E0.04153
G1 X111.731 Y110.369 E0.08012
G1 X112.202 Y110.148 E0.12165
G1 X112.697 Y109.995 E0.163
G1 X113.12 Y109.93 E0.19716
G1 X113.504 Y109.9 E0.22791
G1 X121.381 Y109.9 E0.85669
G1 X121.862 Y109.929 E0.89515
G1 X122.249 Y109.982 E0.92633
G1 X122.744 Y110.125 E0.96746
G1 X123.201 Y110.331 E1.00748
G1 X123.625 Y110.599 E1.04752
G1 X124.022 Y110.937 E1.08914
G1 X124.364 Y111.328 E1.1306
G1 X124.637 Y111.742 E1.17019
G1 X124.853 Y112.201 E1.21068
G1 X125.004 Y112.692 E1.25169
G1 X125.069 Y113.119 E1.28616
G1 X125.1 Y113.593 E1.32408
G1 X125.1 Y121.381 E1.94575
G1 X125.072 Y121.861 E1.98413
G1 X125.018 Y122.251 E2.01556
G1 X124.874 Y122.745 E2.05664
G1 X124.669 Y123.2 E2.09647
G1 X124.401 Y123.625 E2.13658
G1 X124.063 Y124.022 E2.1782
G1 X123.671 Y124.365 E2.21978
G1 X123.273 Y124.628 E2.25786
G1 X122.799 Y124.853 E2.29974
G1 X122.303 Y125.005 E2.34115
G1 X121.88 Y125.07 E2.37531
G1 X121.496 Y125.099 E2.40605
G1 X113.619 Y125.1 E3.03483
G1 X113.138 Y125.071 E3.0733
G1 X112.751 Y125.018 E3.10448
G1 X112.262 Y124.876 E3.14512
G1 X111.802 Y124.671 E3.18532
G1 X111.361 Y124.391 E3.22702
G1 X110.977 Y124.062 E3.26739
G1 X110.639 Y123.677 E3.30828
G1 X110.363 Y123.258 E3.34833
G1 X110.146 Y122.797 E3.389
G1 X109.996 Y122.301 E3.43037
G1 X109.931 Y121.881 E3.46429
G1 X109.901 Y121.407 E3.50221
G1 X109.9 Y113.619 E4.12388
G1 X109.929 Y113.137 E4.16242
G1 X109.981 Y112.753 E4.19335
G1 X110.126 Y112.256 E4.23468
G1 X110.331 Y111.799 E4.27466
G1 X110.599 Y111.376 E4.31464
G1 X110.936 Y110.978 E4.35626
G0 F15000 X111.242 Y111.242
G1 F1828.2 X123.756 Y123.756 E5.76895
G1 F2700 E0.76895
G1 F300 Z0.44
G0 F15000 X122.318 Y124.58 Z0.44
G1 F300 Z0.24
G1 F2700 E5.76895
G1 F1828.2 X110.418 Y112.681 E7.11227
G1 F2700 E2.11227
G1 F300 Z0.44
G0 F15000 X110.3 Y114.825 Z0.44
G1 F300 Z0.24
G1 F2700 E7.11227
G1 F1828.2 X120.172 Y124.698 E8.22676
G1 F2700 E3.22676
G1 F300 Z0.44
G0 F15000 X117.91 Y124.698 Z0.44
G1 F300 Z0.24
G1 F2700 E8.22676
G1 F1828.2 X110.3 Y117.088 E9.08585
G1 F2700 E4.08585
G1 F300 Z0.44
G0 F15000 X110.3 Y119.351 Z0.44
G1 F300 Z0.24
G1 F2700 E9.08585
G1 F1828.2 X115.647 Y124.698 E9.68946
G1 F2700 E4.68946
G1 F300 Z0.44
G0 F15000 X113.369 Y124.682 Z0.44
G1 F300 Z0.24
G1 F2700 E9.68946
G1 F1828.2 X110.315 Y121.629 E10.03417
G1 F2700 E5.03417
G1 F300 Z0.44
G0 F15000 X112.681 Y110.418 Z0.44
G1 F300 Z0.24
G1 F2700 E10.03417
G1 F1828.2 X124.581 Y122.318 E11.37754
G1 F2700 E6.37754
G1 F300 Z0.44
G0 F15000 X124.698 Y120.173 Z0.44
G1 F300 Z0.24
G1 F2700 E11.37754
G1 F1828.2 X114.825 Y110.3 E12.49209
G1 F2700 E7.49209
G1 F300 Z0.44
G0 F15000 X117.088 Y110.3 Z0.44
G1 F300 Z0.24
G1 F2700 E12.49209
G1 F1828.2 X124.698 Y117.91 E13.35118
G1 F2700 E8.35118
G1 F300 Z0.44
G0 F15000 X124.698 Y115.648 Z0.44
G1 F300 Z0.24
G1 F2700 E13.35118
G1 F1828.2 X119.351 Y110.3 E13.95485
G1 F2700 E8.95485
G1 F300 Z0.44
G0 F15000 X121.629 Y110.315 Z0.44
G1 F300 Z0.24
G1 F2700 E13.95485
G1 F1828.2 X124.684 Y113.37 E14.29972
G1 F2700 E9.29972
G1 F300 Z0.44
G0 F15000 X123.528 Y123.959 Z0.44
;TIME_ELAPSED:15.661012
;LAYER:-4
G0 X123.528 Y123.959 Z1.04
;TYPE:SUPPORT
G1 F300 Z0.84
G1 F2700 E14.29972
G1 F1855.9 X124.037 Y123.449 E14.44351
G1 X124.311 Y123.017 E14.5456
G1 X124.498 Y122.601 E14.63662
G1 X124.624 Y122.161 E14.72796
G1 X124.675 Y121.806 E14.79953
G1 X124.698 Y121.374 E14.88586
G1 X121.374 Y124.698 E15.82397
G1 X119.959 Y124.698 E16.10634
G1 X124.698 Y119.959 E17.44379
G1 X124.698 Y118.545 E17.72597
G1 X118.545 Y124.698 E19.46248
G1 X117.131 Y124.698 E19.74466
G1 X124.698 Y117.131 E21.88023
G1 X124.698 Y115.717 E22.16241
G1 X115.717 Y124.698 E24.69704
G1 X114.303 Y124.698 E24.97922
G1 X124.698 Y114.303 E27.91292
G1 X124.698 Y113.61 E28.05121
G1 X124.669 Y113.143 E28.14459
G1 X124.638 Y112.949 E28.18379
G1 X112.935 Y124.652 E31.48663
G1 X112.398 Y124.498 E31.59811
G1 X111.9 Y124.272 E31.70725
G1 X124.267 Y111.906 E35.19734
G1 X124.05 Y111.575 E35.27633
G1 X123.645 Y111.114 E35.39879
G1 X111.13 Y123.629 E38.93079
G1 X110.945 Y123.42 E38.98649
G1 X110.718 Y123.069 E39.06991
G1 X110.575 Y122.77 E39.13605
G1 X122.77 Y110.575 E42.57774
G1 X122.603 Y110.5 E42.61427
G1 X122.161 Y110.375 E42.70594
G1 X121.632 Y110.298 E42.81262
G1 X110.299 Y121.631 E46.01104
G1 X110.3 Y120.216 E46.29342
G1 X120.216 Y110.3 E49.09193
G1 X118.802 Y110.3 E49.3741
G1 X110.3 Y118.802 E51.77355
G1 X110.3 Y117.388 E52.05573
G1 X117.388 Y110.3 E54.05612
G1 X115.973 Y110.3 E54.3385
G1 X110.3 Y115.973 E55.93954
G1 X110.3 Y114.559 E56.22172
G1 X114.559 Y110.3 E57.4237
G1 X113.609 Y110.3 E57.61328
G1 X113.111 Y110.334 E57.7129
G1 X110.336 Y113.109 E58.49606
G1 X110.375 Y112.829 E58.55248
G1 X110.498 Y112.403 E58.64096
G1 X110.688 Y111.982 E58.73314
G1 X110.93 Y111.599 E58.82355
G1 X111.216 Y111.263 E58.9116
G1 X111.574 Y110.949 E59.00663
G1 X111.928 Y110.718 E59.09099
G1 X112.34 Y110.521 E59.18212
G1 X112.791 Y110.384 E59.27618
G1 F2700 E54.27618
G1 F300 Z1.04
G0 F15000 X124.05 Y111.575 Z1.04
;TIME_ELAPSED:24.810029
;LAYER:-3
M107
;TYPE:SUPPORT-INTERFACE
G1 F300 Z1.04
G1 F2700 E59.27618
G1 F3000 X123.735 Y111.217 E59.29205
G1 X123.399 Y110.931 E59.30672
G1 X123.337 Y110.892 E59.30916
G1 X124.108 Y111.663 E59.34542
G1 X124.275 Y111.916 E59.35551
G1 X124.481 Y112.354 E59.3716
G1 X124.59 Y112.711 E59.38402
G1 X122.27 Y110.391 E59.49314
G1 X121.805 Y110.323 E59.50877
G1 X121.628 Y110.314 E59.51467
G1 X124.698 Y113.384 E59.65907
G1 X124.698 Y113.95 E59.6779
G1 X121.048 Y110.3 E59.84958
G1 X120.482 Y110.3 E59.86841
G1 X124.698 Y114.516 E60.06672
G1 X124.698 Y115.082 E60.08554
G1 X119.916 Y110.3 E60.31047
G1 X119.351 Y110.3 E60.32926
G1 X124.698 Y115.648 E60.58079
G1 X124.698 Y116.213 E60.59959
G1 X118.785 Y110.3 E60.87772
G1 X118.219 Y110.3 E60.89654
G1 X124.698 Y116.779 E61.20129
G1 X124.698 Y117.345 E61.22012
G1 X117.654 Y110.3 E61.55147
G1 X117.088 Y110.3 E61.57029
G1 X124.698 Y117.91 E61.92825
G1 X124.698 Y118.476 E61.94707
G1 X116.522 Y110.3 E62.33165
G1 X115.957 Y110.3 E62.35044
G1 X124.698 Y119.042 E62.76161
G1 X124.698 Y119.607 E62.7804
G1 X115.391 Y110.3 E63.21818
G1 X114.825 Y110.3 E63.237
G1 X124.698 Y120.173 E63.7014
G1 X124.698 Y120.739 E63.72022
G1 X114.259 Y110.3 E64.21124
G1 X113.694 Y110.3 E64.23003
G1 X124.698 Y121.304 E64.74763
G1 X124.67 Y121.842 E64.76554
G1 X113.157 Y110.329 E65.30708
G1 X112.666 Y110.403 E65.3236
G1 X124.58 Y122.317 E65.88399
G1 X124.453 Y122.756 E65.89919
G1 X112.258 Y110.561 E66.47281
G1 X111.875 Y110.743 E66.48691
G1 X124.248 Y123.117 E67.06892
G1 X124.028 Y123.462 E67.08253
G1 X111.543 Y110.977 E67.66979
G1 X111.242 Y111.242 E67.68313
G1 X123.757 Y123.757 E68.2718
G1 X123.455 Y124.021 E68.28514
G1 X110.97 Y111.535 E68.87242
G1 X110.751 Y111.882 E68.88606
G1 X123.124 Y124.255 E69.46805
G1 X122.739 Y124.436 E69.4822
G1 X110.562 Y112.259 E70.05497
G1 X110.498 Y112.403 E70.06021
G1 X110.418 Y112.681 E70.06983
G1 X122.333 Y124.595 E70.63025
G1 X121.841 Y124.669 E70.6468
G1 X110.328 Y113.156 E71.18834
G1 X110.299 Y113.693 E71.20623
G1 X121.304 Y124.698 E71.72387
G1 X120.739 Y124.698 E71.74266
G1 X110.299 Y114.259 E72.2337
G1 X110.299 Y114.824 E72.25249
G1 X120.173 Y124.698 E72.71694
G1 X119.607 Y124.698 E72.73576
G1 X110.299 Y115.39 E73.17358
G1 X110.299 Y115.956 E73.19241
G1 X119.042 Y124.698 E73.60363
G1 X118.476 Y124.698 E73.62245
G1 X110.299 Y116.522 E74.00705
G1 X110.299 Y117.087 E74.02584
G1 X117.91 Y124.698 E74.38384
G1 X117.345 Y124.698 E74.40263
G1 X110.299 Y117.653 E74.73403
G1 X110.299 Y118.219 E74.75286
G1 X116.779 Y124.698 E75.05763
G1 X116.213 Y124.698 E75.07646
G1 X110.299 Y118.784 E75.35463
G1 X110.299 Y119.35 E75.37346
G1 X115.648 Y124.698 E75.62504
G1 X115.082 Y124.698 E75.64386
G1 X110.299 Y119.916 E75.86881
G1 X110.299 Y120.481 E75.88761
G1 X114.516 Y124.698 E76.08596
G1 X113.95 Y124.698 E76.10479
G1 X110.299 Y121.047 E76.27652
G1 X110.299 Y121.613 E76.29534
G1 X113.371 Y124.684 E76.43982
G1 X113.193 Y124.675 E76.44575
G1 X112.73 Y124.609 E76.4613
G1 X110.409 Y122.288 E76.57047
G1 X110.521 Y122.658 E76.58333
G1 X110.718 Y123.069 E76.59849
G1 X110.89 Y123.335 E76.60903
G1 X111.662 Y124.107 E76.64534
G1 X111.6 Y124.068 E76.64777
G1 X111.266 Y123.784 E76.66236
G1 X110.945 Y123.42 E76.6785
G1 F2700 E71.6785
G1 F300 Z1.24
G0 F15000 X112.34 Y110.521 Z1.24
;TIME_ELAPSED:40.352900
;LAYER:-2
;TYPE:SUPPORT-INTERFACE
G1 F300 Z1.24
G1 F2700 E76.6785
G1 F3000 X111.928 Y110.718 E76.69369
G1 X111.574 Y110.949 E76.70775
G1 X111.216 Y111.263 E76.72358
G1 X110.93 Y111.599 E76.73826
G1 X110.688 Y111.982 E76.75333
G1 X110.515 Y112.364 E76.76728
G1 X112.367 Y110.513 E76.85437
G1 X112.791 Y110.384 E76.86911
G1 X113.111 Y110.334 E76.87988
G1 X110.327 Y113.118 E77.01083
G1 X110.3 Y113.711 E77.03057
G1 X113.711 Y110.3 E77.19102
G1 X114.276 Y110.3 E77.20981
G1 X110.3 Y114.276 E77.39683
G1 X110.3 Y114.842 E77.41565
G1 X114.842 Y110.3 E77.62929
G1 X115.408 Y110.3 E77.64812
G1 X110.3 Y115.408 E77.88838
G1 X110.3 Y115.973 E77.90718
G1 X115.973 Y110.3 E78.17402
G1 X116.539 Y110.3 E78.19284
G1 X110.3 Y116.539 E78.4863
G1 X110.3 Y117.105 E78.50513
G1 X117.105 Y110.3 E78.82522
G1 X117.671 Y110.3 E78.84404
G1 X110.3 Y117.671 E79.19075
G1 X110.3 Y118.236 E79.20954
G1 X118.236 Y110.3 E79.58283
G1 X118.802 Y110.3 E79.60165
G1 X110.3 Y118.802 E80.00156
G1 X110.3 Y119.368 E80.02039
G1 X119.368 Y110.3 E80.44692
G1 X119.933 Y110.3 E80.46571
G1 X110.3 Y119.933 E80.91882
G1 X110.3 Y120.499 E80.93764
G1 X120.499 Y110.3 E81.41737
G1 X121.065 Y110.3 E81.4362
G1 X110.3 Y121.065 E81.94255
G1 X110.298 Y121.632 E81.96141
G1 X121.632 Y110.298 E82.49452
G1 X122.127 Y110.369 E82.51116
G1 X110.363 Y122.133 E83.0645
G1 X110.494 Y122.567 E83.07958
G1 X122.571 Y110.491 E83.64762
G1 X122.964 Y110.663 E83.66189
G1 X110.655 Y122.972 E84.24086
G1 X110.877 Y123.315 E84.25445
G1 X123.324 Y110.868 E84.83992
G1 X123.631 Y111.128 E84.8533
G1 X111.13 Y123.629 E85.44131
G1 X111.413 Y123.911 E85.4546
G1 X123.909 Y111.415 E86.04237
G1 X124.155 Y111.735 E86.0558
G1 X111.736 Y124.154 E86.63995
G1 X112.082 Y124.373 E86.65357
G1 X124.359 Y112.096 E87.23104
G1 X124.541 Y112.48 E87.24518
G1 X112.495 Y124.526 E87.81178
G1 X112.935 Y124.652 E87.827
G1 X124.638 Y112.949 E88.37748
G1 X124.669 Y113.143 E88.38401
G1 X124.689 Y113.464 E88.39471
G1 X113.455 Y124.698 E88.92312
G1 X114.02 Y124.698 E88.94191
G1 X124.698 Y114.02 E89.44417
G1 X124.698 Y114.585 E89.46297
G1 X114.585 Y124.698 E89.93865
G1 X115.151 Y124.698 E89.95748
G1 X124.698 Y115.151 E90.40654
G1 X124.698 Y115.717 E90.42536
G1 X115.717 Y124.698 E90.8478
G1 X116.283 Y124.698 E90.86663
G1 X124.698 Y116.283 E91.26244
G1 X124.698 Y116.848 E91.28123
G1 X116.848 Y124.698 E91.65047
G1 X117.414 Y124.698 E91.6693
G1 X124.698 Y117.414 E92.01192
G1 X124.698 Y117.98 E92.03074
G1 X117.98 Y124.698 E92.34674
G1 X118.545 Y124.698 E92.36553
G1 X124.698 Y118.545 E92.65495
G1 X124.698 Y119.111 E92.67377
G1 X119.111 Y124.698 E92.93657
G1 X119.677 Y124.698 E92.95539
G1 X124.698 Y119.677 E93.19157
G1 X124.698 Y120.242 E93.21036
G1 X120.242 Y124.698 E93.41995
G1 X120.808 Y124.698 E93.43878
G1 X124.698 Y120.808 E93.62175
G1 X124.698 Y121.374 E93.64058
G1 X121.374 Y124.698 E93.79693
G1 X121.976 Y124.662 E93.81699
G1 X124.648 Y121.99 E93.94267
G1 X124.624 Y122.161 E93.94841
G1 X124.498 Y122.601 E93.96364
G1 X124.311 Y123.017 E93.97881
G1 X124.068 Y123.4 E93.99389
G1 X123.785 Y123.733 E94.00843
G1 X123.423 Y124.051 E94.02445
G1 X123.079 Y124.276 E94.03812
G1 X122.791 Y124.412 E94.04872
G1 X124.412 Y122.791 E94.12496
G1 F2700 E89.12496
G1 F300 Z1.44
G0 F15000 X114.203 Y120.797 Z1.44
;TIME_ELAPSED:55.863555
;LAYER:0
G1 F300 Z1.94
;MESH:Holder_TestFit_V2.stl
G0 F6000 X114.203 Y120.797 Z1.94
;TYPE:WALL-INNER
G1 F300 Z1.74
G1 F2700 E94.12496
G1 F478.1 X114.7 Y120.9 E94.14615
G1 F592.6 X120.404 Y120.896 E94.33824
G1 F472.4 X120.797 Y120.797 E94.35536
G1 F473.4 X120.896 Y120.404 E94.37244
G1 F594.1 X120.9 Y114.7 E94.56406
G1 F477.1 X120.797 Y114.203 E94.58528
G1 X120.3 Y114.1 E94.60651
G1 F592.6 X114.596 Y114.104 E94.7986
G1 F473.4 X114.203 Y114.203 E94.81569
G1 F478.1 X114.1 Y114.7 E94.83687
G1 F592.6 X114.104 Y120.404 E95.02896
G1 F473.4 X114.203 Y120.797 E95.04604
G0 F6000 X114.558 Y120.442
;TYPE:WALL-OUTER
G1 F600 X114.502 Y120.335 E95.05006
G1 X114.5 Y114.7 E95.23748
G1 X114.558 Y114.558 E95.24258
G1 X114.665 Y114.502 E95.2466
G1 X120.3 Y114.5 E95.43402
G1 X120.442 Y114.558 E95.43912
G1 X120.5 Y114.7 E95.44422
G1 X120.498 Y120.335 E95.63165
G1 X120.442 Y120.442 E95.63566
G1 X120.335 Y120.498 E95.63968
G1 X114.7 Y120.5 E95.8271
G1 X114.558 Y120.442 E95.8322
G1 F2700 E90.8322
G1 F300 Z1.94
G0 F6000 X121.3 Y121.3 Z1.94
G1 F300 Z1.74
G1 F2700 E95.8322
G1 F600 X121.3 Y113.7 E96.08498
G1 X113.701 Y113.701 E96.33772
G1 X113.701 Y121.299 E96.59043
G1 X121.3 Y121.3 E96.84318
G1 F2700 E91.84318
G1 F300 Z1.94
;MESH:NONMESH
G0 F6000 X114.203 Y120.797 Z1.94
;TIME_ELAPSED:65.266794
;LAYER:1
M106 S85
;MESH:Holder_TestFit_V2.stl
G0 F10500 X114.203 Y120.797 Z2.19
;TYPE:WALL-INNER
G1 F300 Z1.99
G1 F2700 E96.84318
G1 F478.1 X114.7 Y120.9 E96.88555
G1 F592.6 X120.404 Y120.896 E97.26972
G1 F472.4 X120.797 Y120.797 E97.30396
G1 F473.4 X120.896 Y120.404 E97.33813
G1 F594.1 X120.9 Y114.7 E97.72136
G1 F477.1 X120.797 Y114.203 E97.76382
G1 X120.3 Y114.1 E97.80627
G1 F592.6 X114.596 Y114.104 E98.19045
G1 F473.4 X114.203 Y114.203 E98.22462
G1 F478.1 X114.1 Y114.7 E98.26699
G1 F592.6 X114.104 Y120.404 E98.65117
G1 F473.4 X114.203 Y120.797 E98.68534
G0 F10500 X114.558 Y120.442
;TYPE:WALL-OUTER
G1 F600 X114.502 Y120.335 E98.69337
G1 X114.5 Y114.7 E99.06821
G1 X114.558 Y114.558 E99.07842
G1 X114.665 Y114.502 E99.08645
G1 X120.3 Y114.5 E99.46129
G1 X120.442 Y114.558 E99.47149
G1 X120.5 Y114.7 E99.4817
G1 X120.498 Y120.335 E99.85654
G1 X120.442 Y120.442 E99.86457
G1 X120.335 Y120.498 E99.87261
G1 X114.7 Y120.5 E100.24745
G1 X114.558 Y120.442 E100.25765
G1 F2700 E95.25765
G1 F300 Z2.19
G0 F10500 X121.3 Y121.3 Z2.19
G1 F300 Z1.99
G1 F2700 E100.25765
G1 F600 X121.3 Y113.7 E100.76321
G1 X113.701 Y113.701 E101.26869
G1 X113.701 Y121.299 E101.77411
G1 X121.3 Y121.3 E102.2796
G1 F2700 E97.2796
G1 F300 Z2.19
;MESH:NONMESH
G0 F10500 X114.203 Y120.797 Z2.19
;TIME_ELAPSED:74.630972
;LAYER:2
M106 S170
;MESH:Holder_TestFit_V2.stl
G0 F15000 X114.203 Y120.797 Z2.59
;TYPE:WALL-INNER
G1 F300 Z2.39
G1 F2700 E102.2796
G1 F473.4 X114.104 Y120.404 E102.31377
G1 F592.6 X114.1 Y114.7 E102.69795
G1 F478.1 X114.203 Y114.203 E102.74032
G1 F473.4 X114.596 Y114.104 E102.77449
G1 F592.6 X120.3 Y114.1 E103.15866
G1 F477.1 X120.797 Y114.203 E103.20112
G1 X120.9 Y114.7 E103.24358
G1 F594.1 X120.896 Y120.404 E103.62681
G1 F473.4 X120.797 Y120.797 E103.66098
G1 F472.4 X120.404 Y120.896 E103.69521
G1 F592.6 X114.7 Y120.9 E104.07939
G1 F478.1 X114.203 Y120.797 E104.12176
G0 F15000 X114.558 Y120.442
;TYPE:WALL-OUTER
G1 F600 X114.502 Y120.335 E104.12979
G1 X114.5 Y114.7 E104.50464
G1 X114.558 Y114.558 E104.51484
G1 X114.665 Y114.502 E104.52287
G1 X120.3 Y114.5 E104.89772
G1 X120.442 Y114.558 E104.90792
G1 X120.5 Y114.7 E104.91812
G1 X120.498 Y120.335 E105.29296
G1 X120.442 Y120.442 E105.301
G1 X120.335 Y120.498 E105.30903
G1 X114.7 Y120.5 E105.68387
G1 X114.558 Y120.442 E105.69408
G1 F2700 E100.69408
G1 F300 Z2.59
