;FLAVOR:Marlin
;TIME:2596
;Filament used: 4.42309m
;Layer height: 0.4
;MINX:45.284
;MINY:59.643
;MINZ:0.24
;MAXX:155.646
;MAXY:148.199
;MAXZ:6.59
;Generated with Cura_SteamEngine 5.3.1
M140 S60
M105
M190 S60
M104 S210
M105
M109 S210
M82 ;absolute extrusion mode
; Ender 3 Custom Start G-code
G92 E0 ; Reset Extruder
G28 ; Home all axes
G1 Z2.0 F3000 ; Move Z Axis up little to prevent scratching of Heat Bed
G1 X0.1 Y20 Z0.3 F5000.0 ; Move to start position
G1 X0.1 Y200.0 Z0.3 F1500.0 E15 ; Draw the first line
G1 X0.4 Y200.0 Z0.3 F5000.0 ; Move to side a little
G1 X0.4 Y20 Z0.3 F1500.0 E30 ; Draw the second line
G92 E0 ; Reset Extruder
G1 Z2.0 F3000 ; Move Z Axis up little to prevent scratching of Heat Bed
G1 X5 Y20 Z0.3 F5000.0 ; Move over to prevent blob squish
G92 E0
G92 E0
G1 F2700 E-5
;LAYER_COUNT:13
;LAYER:-5
M107
G0 F15000 X46.964 Y60.43 Z0.24
;TYPE:SUPPORT-INTERFACE
G1 F2700 E0
G1 F2250 X47.38 Y60.143 E0.04034
G1 X47.831 Y59.919 E0.08054
G1 X48.309 Y59.761 E0.12073
G1 X48.765 Y59.684 E0.15764
G1 X49.264 Y59.643 E0.19761
G1 X54.27 Y59.693 E0.59723
G1 X54.702 Y59.723 E0.6318
G1 X55.126 Y59.789 E0.66605
G1 X55.594 Y59.929 E0.70504
G1 X56.066 Y60.147 E0.74654
G1 X56.492 Y60.42 E0.78693
G1 X56.869 Y60.749 E0.82687
G1 X57.208 Y61.141 E0.86824
G1 X57.48 Y61.562 E0.90825
G1 X57.704 Y62.049 E0.95104
G1 X57.844 Y62.534 E0.99134
G1 X57.914 Y63.023 E1.03077
G1 X57.914 Y63.435 E1.06366
G1 X57.873 Y63.937 E1.10386
G1 X57.798 Y64.452 E1.14541
G1 X57.701 Y65.261 E1.21045
G1 X57.655 Y65.77 E1.25124
G1 X57.583 Y66.892 E1.34099
G1 X57.56 Y68.048 E1.43328
G1 X57.564 Y68.388 E1.46043
G1 X57.603 Y69.462 E1.54621
G1 X57.674 Y70.4 E1.6213
G1 X57.763 Y71.245 E1.68913
G1 X57.902 Y72.217 E1.76751
G1 X58.057 Y73.079 E1.83742
G1 X58.249 Y73.98 E1.91096
G1 X58.543 Y75.128 E2.00555
G1 X58.683 Y75.601 E2.04493
G1 X58.985 Y76.538 E2.12351
G1 X59.124 Y76.935 E2.15709
G1 X59.467 Y77.831 E2.23367
G1 X59.643 Y78.259 E2.27061
G1 X60.01 Y79.086 E2.34284
G1 X60.184 Y79.454 E2.37533
G1 X60.693 Y80.451 E2.46469
G1 X61.065 Y81.126 E2.52621
G1 X61.565 Y81.966 E2.60424
G1 X62.048 Y82.705 E2.67471
G1 X62.281 Y83.048 E2.70781
G1 X62.877 Y83.873 E2.78905
G1 X63.398 Y84.54 E2.85662
G1 X64.092 Y85.365 E2.94267
G1 X64.708 Y86.046 E3.01597
G1 X65.159 Y86.516 E3.06797
G1 X65.878 Y87.217 E3.14813
G1 X66.573 Y87.846 E3.22295
G1 X67.362 Y88.511 E3.30532
G1 X68 Y89.011 E3.37002
G1 X68.529 Y89.401 E3.42249
G1 X69.242 Y89.898 E3.49186
G1 X70.004 Y90.392 E3.56435
G1 X71.118 Y91.047 E3.66751
G1 X71.512 Y91.263 E3.70338
G1 X72.001 Y91.517 E3.74736
G1 X72.819 Y91.915 E3.81998
G1 X73.183 Y92.083 E3.85198
G1 X74.126 Y92.481 E3.93368
G1 X74.542 Y92.645 E3.96938
G1 X75.325 Y92.929 E4.03586
G1 X76.089 Y93.178 E4.10001
G1 X76.725 Y93.37 E4.15304
G1 X77.533 Y93.587 E4.21982
G1 X77.95 Y93.689 E4.25409
G1 X78.84 Y93.88 E4.32675
G1 X79.755 Y94.044 E4.40095
G1 X80.667 Y94.177 E4.47452
G1 X81.754 Y94.288 E4.56174
G1 X82.734 Y94.353 E4.64014
G1 X83.114 Y94.367 E4.6705
G1 X84.044 Y94.38 E4.74474
G1 X84.963 Y94.363 E4.81811
G1 X85.394 Y94.344 E4.85255
G1 X86.348 Y94.272 E4.92892
G1 X87.26 Y94.174 E5.00214
G1 X88.169 Y94.043 E5.07545
G1 X89.097 Y93.877 E5.1507
G1 X89.949 Y93.695 E5.22025
G1 X91.167 Y93.378 E5.32071
G1 X92.021 Y93.119 E5.39195
G1 X92.907 Y92.818 E5.46664
G1 X93.792 Y92.481 E5.54223
G1 X94.762 Y92.069 E5.62636
G1 X95.623 Y91.665 E5.70228
G1 X96.437 Y91.245 E5.77539
G1 X97.254 Y90.793 E5.84993
G1 X97.986 Y90.347 E5.91835
G1 X98.729 Y89.865 E5.98904
G1 X99.415 Y89.385 E6.05588
G1 X99.875 Y89.045 E6.10154
G1 X100.508 Y88.552 E6.16558
G1 X101.316 Y87.875 E6.24973
G1 X101.669 Y87.56 E6.2875
G1 X102.342 Y86.931 E6.36103
G1 X102.577 Y86.7 E6.38733
G1 X103.207 Y86.051 E6.45953
G1 X103.818 Y85.376 E6.53221
G1 X104.661 Y84.37 E6.63698
G1 X105.251 Y83.589 E6.71511
G1 X105.866 Y82.718 E6.80022
G1 X106.368 Y81.938 E6.87427
G1 X106.873 Y81.091 E6.95298
G1 X107.236 Y80.436 E7.01276
G1 X107.467 Y79.997 E7.05236
G1 X107.859 Y79.196 E7.12355
G1 X108.197 Y78.449 E7.18899
G1 X108.448 Y77.844 E7.24128
G1 X108.804 Y76.911 E7.32099
G1 X109.041 Y76.224 E7.379
G1 X109.269 Y75.492 E7.4402
G1 X109.569 Y74.395 E7.53099
G1 X109.805 Y73.364 E7.61541
G1 X109.972 Y72.487 E7.68668
G1 X110.1 Y71.691 E7.75103
G1 X110.153 Y71.287 E7.78356
G1 X110.265 Y70.195 E7.87118
G1 X110.332 Y69.191 E7.95151
G1 X110.361 Y67.898 E8.05475
G1 X110.332 Y66.691 E8.15112
G1 X110.25 Y65.603 E8.23822
G1 X110.154 Y64.693 E8.31126
G1 X110.039 Y63.885 E8.37641
G1 X110.004 Y63.43 E8.41283
G1 X110.006 Y63.039 E8.44405
G1 X110.075 Y62.541 E8.48418
G1 X110.224 Y62.034 E8.52636
G1 X110.43 Y61.578 E8.5663
G1 X110.709 Y61.144 E8.60749
G1 X111.04 Y60.762 E8.64784
G1 X111.417 Y60.431 E8.68788
G1 X111.835 Y60.157 E8.72778
G1 X112.305 Y59.938 E8.76917
G1 X112.781 Y59.791 E8.80894
G1 X113.204 Y59.726 E8.8431
G1 X113.706 Y59.694 E8.88325
G1 X118.526 Y59.694 E9.268
G1 X119.007 Y59.723 E9.30647
G1 X119.394 Y59.776 E9.33765
G1 X119.889 Y59.92 E9.3788
G1 X120.349 Y60.127 E9.41907
G1 X120.777 Y60.398 E9.4595
G1 X121.167 Y60.731 E9.50044
G1 X121.51 Y61.122 E9.54196
G1 X121.782 Y61.536 E9.5815
G1 X121.996 Y61.991 E9.62164
G1 X122.123 Y62.412 E9.65674
G1 X122.229 Y62.949 E9.70043
G1 X122.298 Y63.49 E9.74397
G1 X122.382 Y64.27 E9.80659
G1 X122.476 Y65.462 E9.90204
G1 X122.52 Y66.242 E9.9644
G1 X122.555 Y67.443 E10.06031
G1 X122.55 Y68.901 E10.17669
G1 X122.529 Y69.55 E10.22852
G1 X122.463 Y70.744 E10.32398
G1 X122.402 Y71.468 E10.38198
G1 X122.324 Y72.254 E10.44503
G1 X122.239 Y72.961 E10.50187
G1 X122.037 Y74.32 E10.61154
G1 X121.98 Y74.651 E10.63835
G1 X121.952 Y74.804 E10.65077
G1 X121.677 Y76.19 E10.76356
G1 X121.559 Y76.708 E10.80597
G1 X121.233 Y78.011 E10.91319
G1 X121.089 Y78.542 E10.95711
G1 X120.804 Y79.496 E11.03658
G1 X120.578 Y80.192 E11.095
G1 X120.405 Y80.847 E11.14908
G1 X120.318 Y81.496 E11.20135
G1 X120.313 Y82.224 E11.25946
G1 X120.391 Y82.861 E11.31069
G1 X120.564 Y83.55 E11.36739
G1 X120.822 Y84.205 E11.42359
G1 X121.141 Y84.784 E11.47636
G1 X121.539 Y85.333 E11.53048
G1 X122 Y85.825 E11.5843
G1 X122.535 Y86.267 E11.6397
G1 X123.088 Y86.618 E11.69198
G1 X123.828 Y86.959 E11.75702
G1 X124.132 Y87.071 E11.78288
G1 X124.489 Y87.232 E11.81415
G1 X124.914 Y87.5 E11.85425
G1 X125.311 Y87.838 E11.89587
G1 X125.653 Y88.229 E11.93734
G1 X125.926 Y88.643 E11.97692
G1 X126.141 Y89.099 E12.01717
G1 X126.293 Y89.591 E12.05827
G1 X126.357 Y90.007 E12.09187
G1 X126.389 Y90.494 E12.13083
G1 X126.389 Y98.788 E12.79289
G1 X126.433 Y99.441 E12.84513
G1 X126.561 Y100.106 E12.89919
G1 X126.766 Y100.734 E12.95193
G1 X127.052 Y101.345 E13.00578
G1 X127.442 Y101.957 E13.06371
G1 X127.872 Y102.47 E13.11714
G1 X128.356 Y102.921 E13.16995
G1 X128.905 Y103.317 E13.22398
G1 X129.507 Y103.646 E13.27874
G1 X129.983 Y103.841 E13.3198
G1 X130.446 Y104.006 E13.35904
G1 X131.617 Y104.451 E13.45904
G1 X132.806 Y104.95 E13.56197
G1 X133.397 Y105.21 E13.61351
G1 X134.487 Y105.721 E13.7096
G1 X134.493 Y105.741 E13.71127
G1 X135.367 Y106.188 E13.78963
G1 X135.888 Y106.471 E13.83696
G1 X137.082 Y107.155 E13.9468
G1 X137.604 Y107.475 E13.99567
G1 X138.208 Y107.859 E14.05281
G1 X138.815 Y108.26 E14.11088
G1 X139.707 Y108.882 E14.19768
G1 X140.418 Y109.403 E14.26805
G1 X141.432 Y110.194 E14.3707
G1 X142.467 Y111.058 E14.47832
G1 X142.871 Y111.413 E14.52125
G1 X143.376 Y111.872 E14.57573
G1 X144.286 Y112.743 E14.67628
G1 X144.833 Y113.293 E14.7382
G1 X145.4 Y113.889 E14.80386
G1 X146.298 Y114.887 E14.91103
G1 X147.053 Y115.782 E15.0045
G1 X147.532 Y116.384 E15.06591
G1 X148.269 Y117.356 E15.16328
G1 X149.092 Y118.527 E15.27753
G1 X149.735 Y119.509 E15.37123
G1 X150.134 Y120.151 E15.43157
G1 X150.727 Y121.166 E15.5254
G1 X151.123 Y121.892 E15.59142
G1 X151.686 Y122.982 E15.68934
G1 X152.011 Y123.657 E15.74915
G1 X152.291 Y124.266 E15.80265
G1 X152.551 Y124.859 E15.85434
G1 X153.042 Y126.057 E15.95769
G1 X153.582 Y127.497 E16.08045
G1 X153.574 Y127.51 E16.08167
G1 X153.92 Y128.558 E16.16977
G1 X154.309 Y129.894 E16.28084
G1 X154.499 Y130.626 E16.34121
G1 X154.747 Y131.667 E16.42663
G1 X154.928 Y132.542 E16.49796
G1 X155.159 Y133.821 E16.6017
G1 X155.357 Y135.219 E16.71441
G1 X155.491 Y136.451 E16.81333
G1 X155.564 Y137.237 E16.87635
G1 X155.553 Y137.248 E16.87759
G1 X155.617 Y138.386 E16.96857
G1 X155.646 Y139.685 E17.07229
G1 X155.63 Y141.153 E17.18948
G1 X155.606 Y141.742 E17.23653
G1 X155.531 Y142.975 E17.33514
G1 X155.451 Y143.807 E17.40186
G1 X155.316 Y144.953 E17.49397
G1 X155.229 Y145.406 E17.53079
G1 X155.124 Y145.788 E17.56242
G1 X154.923 Y146.255 E17.603
G1 X154.658 Y146.692 E17.6438
G1 X154.334 Y147.083 E17.68433
G1 X153.957 Y147.424 E17.72491
G1 X153.529 Y147.714 E17.76618
G1 X153.07 Y147.936 E17.80688
G1 X152.604 Y148.087 E17.84598
G1 X152.142 Y148.161 E17.88333
G1 X151.674 Y148.199 E17.92081
G1 X146.65 Y148.134 E18.32188
G1 X146.206 Y148.103 E18.35741
G1 X145.779 Y148.037 E18.3919
G1 X145.295 Y147.887 E18.43235
G1 X144.836 Y147.673 E18.47277
G1 X144.42 Y147.4 E18.51249
G1 X144.022 Y147.05 E18.5548
G1 X143.701 Y146.673 E18.59432
G1 X143.42 Y146.235 E18.63586
G1 X143.219 Y145.784 E18.67528
G1 X143.073 Y145.291 E18.71632
G1 X143.002 Y144.786 E18.75703
G1 X143.002 Y144.392 E18.78848
G1 X143.036 Y143.947 E18.8241
G1 X143.149 Y143.152 E18.8882
G1 X143.245 Y142.24 E18.9614
G1 X143.317 Y141.228 E19.04239
G1 X143.346 Y140.388 E19.10948
G1 X143.351 Y139.952 E19.14429
G1 X143.331 Y138.929 E19.22596
G1 X143.294 Y138.215 E19.28303
G1 X143.229 Y137.419 E19.34679
G1 X143.151 Y136.711 E19.40364
G1 X143.013 Y135.754 E19.48083
G1 X142.86 Y134.912 E19.54914
G1 X142.602 Y133.737 E19.64517
G1 X142.328 Y132.716 E19.72955
G1 X142.199 Y132.286 E19.76539
G1 X141.9 Y131.374 E19.842
G1 X141.471 Y130.246 E19.93833
G1 X141.143 Y129.465 E20.00595
G1 X140.691 Y128.491 E20.09166
G1 X140.568 Y128.242 E20.11383
G1 X140.064 Y127.298 E20.19925
G1 X139.585 Y126.475 E20.27527
G1 X139.133 Y125.758 E20.34292
G1 X138.868 Y125.361 E20.38103
G1 X138.448 Y124.763 E20.43936
G1 X137.82 Y123.929 E20.52269
G1 X137.211 Y123.181 E20.59969
G1 X136.656 Y122.549 E20.66683
G1 X136.078 Y121.927 E20.73461
G1 X135.428 Y121.277 E20.80799
G1 X134.678 Y120.584 E20.8895
G1 X134.051 Y120.045 E20.9555
G1 X133.423 Y119.537 E21.01998
G1 X132.986 Y119.201 E21.06398
G1 X132.225 Y118.653 E21.13884
G1 X131.598 Y118.229 E21.19926
G1 X130.508 Y117.553 E21.30164
G1 X129.658 Y117.084 E21.37913
G1 X128.896 Y116.691 E21.44757
G1 X128.083 Y116.309 E21.51928
G1 X127.021 Y115.857 E21.61141
G1 X126.268 Y115.572 E21.67568
G1 X125.801 Y115.408 E21.71519
G1 X124.935 Y115.13 E21.78779
G1 X124.533 Y115.012 E21.82123
G1 X123.761 Y114.805 E21.88504
G1 X123.38 Y114.713 E21.91632
G1 X122.463 Y114.515 E21.99121
G1 X121.558 Y114.354 E22.06458
G1 X120.705 Y114.23 E22.13339
G1 X119.598 Y114.115 E22.22223
G1 X118.55 Y114.048 E22.30606
G1 X117.367 Y114.026 E22.40051
G1 X116.457 Y114.043 E22.47316
G1 X116.081 Y114.06 E22.5032
G1 X115.084 Y114.135 E22.58301
G1 X114.233 Y114.226 E22.65133
G1 X113.312 Y114.358 E22.7256
G1 X112.434 Y114.516 E22.79681
G1 X111.52 Y114.712 E22.87143
G1 X111.124 Y114.809 E22.90397
G1 X110.498 Y114.987 E22.95593
G1 X110.483 Y114.976 E22.95741
G1 X109.818 Y115.175 E23.01282
G1 X108.95 Y115.459 E23.08572
G1 X108.69 Y115.551 E23.10774
G1 X107.685 Y115.936 E23.19365
G1 X106.962 Y116.244 E23.25638
G1 X106.019 Y116.684 E23.33944
G1 X105.22 Y117.096 E23.4112
G1 X104.547 Y117.467 E23.47255
G1 X104.08 Y117.745 E23.51593
G1 X103.367 Y118.188 E23.58293
G1 X102.907 Y118.494 E23.62704
G1 X102.164 Y119.019 E23.69966
G1 X101.457 Y119.554 E23.77043
G1 X100.861 Y120.037 E23.83167
G1 X100.068 Y120.727 E23.91558
G1 X99.461 Y121.289 E23.98161
G1 X98.818 Y121.933 E24.05425
G1 X98.254 Y122.539 E24.12033
G1 X97.663 Y123.215 E24.19201
G1 X97.095 Y123.913 E24.26384
G1 X96.739 Y124.375 E24.3104
G1 X96.17 Y125.16 E24.38779
G1 X95.521 Y126.148 E24.48215
G1 X95.293 Y126.515 E24.51664
G1 X94.85 Y127.276 E24.58693
G1 X94.22 Y128.504 E24.6971
G1 X94.223 Y128.51 E24.69764
G1 X93.955 Y129.027 E24.74412
G1 X93.734 Y129.544 E24.789
G1 X93.723 Y129.547 E24.78991
G1 X93.393 Y130.329 E24.85767
G1 X93.115 Y131.062 E24.92025
G1 X92.929 Y131.587 E24.96471
G1 X92.715 Y132.241 E25.01963
G1 X92.536 Y132.85 E25.0703
G1 X92.332 Y133.612 E25.13327
G1 X92.239 Y133.999 E25.16504
G1 X92.046 Y134.887 E25.23758
G1 X91.889 Y135.755 E25.30799
G1 X91.751 Y136.715 E25.38541
G1 X91.646 Y137.736 E25.46734
G1 X91.603 Y138.331 E25.51496
G1 X91.57 Y138.961 E25.56532
G1 X91.551 Y139.966 E25.64556
G1 X91.556 Y140.425 E25.6822
G1 X91.58 Y141.206 E25.74457
G1 X91.605 Y141.615 E25.77728
G1 X91.724 Y142.882 E25.87886
G1 X91.783 Y143.403 E25.92072
G1 X91.855 Y143.884 E25.95954
G1 X91.899 Y144.334 E25.99563
G1 X91.902 Y144.764 E26.02996
G1 X91.833 Y145.263 E26.07017
G1 X91.702 Y145.736 E26.10935
G1 X91.492 Y146.213 E26.15095
G1 X91.221 Y146.649 E26.19193
G1 X90.899 Y147.031 E26.23181
G1 X90.515 Y147.376 E26.27302
G1 X90.106 Y147.648 E26.31223
G1 X89.627 Y147.88 E26.35471
G1 X89.165 Y148.026 E26.39339
G1 X88.717 Y148.098 E26.42961
G1 X88.184 Y148.133 E26.47225
G1 X83.379 Y148.133 E26.8558
G1 X82.898 Y148.104 E26.89427
G1 X82.511 Y148.051 E26.92545
G1 X82.021 Y147.909 E26.96617
G1 X81.555 Y147.7 E27.00694
G1 X81.128 Y147.428 E27.04735
G1 X80.737 Y147.096 E27.0883
G1 X80.394 Y146.704 E27.12988
G1 X80.119 Y146.283 E27.17002
G1 X79.906 Y145.828 E27.21012
G1 X79.778 Y145.389 E27.24662
G1 X79.684 Y144.941 E27.28316
G1 X79.545 Y143.754 E27.37856
G1 X79.454 Y142.869 E27.44958
G1 X79.466 Y142.856 E27.45099
G1 X79.387 Y141.58 E27.55304
G1 X79.365 Y140.962 E27.6024
G1 X79.351 Y139.673 E27.7053
G1 X79.361 Y139.004 E27.75871
G1 X79.385 Y138.305 E27.81454
G1 X79.447 Y137.19 E27.90368
G1 X79.511 Y136.428 E27.96472
G1 X79.64 Y135.213 E28.06225
G1 X79.864 Y133.608 E28.19161
G1 X79.882 Y133.594 E28.19343
G1 X80.082 Y132.492 E28.28284
G1 X80.274 Y131.603 E28.35544
G1 X80.544 Y130.464 E28.44888
G1 X80.875 Y129.254 E28.54901
G1 X81.113 Y128.47 E28.61442
G1 X81.17 Y128.304 E28.62843
G1 X81.35 Y127.613 E28.68543
G1 X81.433 Y126.987 E28.73583
G1 X81.439 Y126.269 E28.79315
G1 X81.353 Y125.587 E28.84802
G1 X81.185 Y124.928 E28.90231
G1 X80.935 Y124.293 E28.95678
G1 X80.603 Y123.691 E29.01166
G1 X80.21 Y123.15 E29.06504
G1 X79.743 Y122.653 E29.11947
G1 X79.216 Y122.219 E29.17397
G1 X78.664 Y121.869 E29.22614
G1 X78.042 Y121.574 E29.2811
G1 X77.349 Y121.331 E29.33972
G1 X76.986 Y121.168 E29.37148
G1 X76.549 Y120.891 E29.41278
G1 X76.168 Y120.563 E29.45291
G1 X75.829 Y120.178 E29.49386
G1 X75.553 Y119.759 E29.53391
G1 X75.336 Y119.298 E29.57458
G1 X75.186 Y118.803 E29.61587
G1 X75.124 Y118.405 E29.64802
G1 X75.091 Y117.908 E29.68778
G1 X75.09 Y109.646 E30.34729
G1 X75.046 Y108.991 E30.39969
G1 X74.923 Y108.348 E30.45195
G1 X74.713 Y107.7 E30.50633
G1 X74.427 Y107.089 E30.56018
G1 X74.034 Y106.473 E30.61851
G1 X73.609 Y105.966 E30.67131
G1 X73.084 Y105.481 E30.72837
G1 X72.561 Y105.107 E30.77969
G1 X71.946 Y104.776 E30.83544
G1 X71.505 Y104.596 E30.87346
G1 X70.329 Y104.177 E30.97312
G1 X69.205 Y103.734 E31.06956
G1 X67.999 Y103.212 E31.17446
G1 X67.513 Y102.992 E31.21704
G1 X66.609 Y102.548 E31.29744
G1 X66.052 Y102.261 E31.34745
G1 X64.887 Y101.628 E31.45329
G1 X63.88 Y101.037 E31.54649
G1 X63.245 Y100.644 E31.60611
G1 X62.08 Y99.873 E31.71762
G1 X61.584 Y99.53 E31.76576
G1 X60.962 Y99.077 E31.82718
G1 X59.857 Y98.229 E31.93837
G1 X59.016 Y97.54 E32.02515
G1 X58.411 Y97.019 E32.08889
G1 X57.448 Y96.146 E32.19264
G1 X55.927 Y94.641 E32.36345
G1 X55.927 Y94.625 E32.36472
G1 X55.14 Y93.773 E32.45731
G1 X54.235 Y92.725 E32.56784
G1 X53.429 Y91.726 E32.6703
G1 X52.606 Y90.627 E32.7799
G1 X52.176 Y90.018 E32.83941
G1 X51.471 Y88.968 E32.94037
G1 X51.105 Y88.389 E32.99504
G1 X50.768 Y87.836 E33.04674
G1 X50.117 Y86.705 E33.15091
G1 X49.457 Y85.462 E33.26325
G1 X48.944 Y84.409 E33.35675
G1 X48.583 Y83.613 E33.42652
G1 X48.145 Y82.584 E33.51579
G1 X47.596 Y81.156 E33.63791
G1 X47.415 Y80.647 E33.68103
G1 X46.994 Y79.36 E33.78912
G1 X46.75 Y78.536 E33.85772
G1 X46.402 Y77.217 E33.96661
G1 X46.127 Y76.012 E34.06527
G1 X45.823 Y74.476 E34.19026
G1 X45.833 Y74.463 E34.19157
G1 X45.747 Y73.948 E34.23325
