;FLAVOR:Marlin
;TIME:1325
;Filament used: 2.30291m
;Layer height: 0.4
;MINX:77.392
;MINY:85.68
;MINZ:0.24
;MAXX:157.608
;MAXY:149.319
;MAXZ:6.59
;Generated with Cura_SteamEngine 5.3.1
M140 S60
M105
M190 S60
M104 S200
M105
M109 S200
M82 ;absolute extrusion mode
; Ender 3 Custom Start G-code
G92 E0 ; Reset Extruder
G28 ; Home all axes
G1 Z2.0 F3000 ; Move Z Axis up little to prevent scratching of Heat Bed
G1 X0.1 Y20 Z0.3 F5000.0 ; Move to start position
G1 X0.1 Y200.0 Z0.3 F1500.0 E15 ; Draw the first line
G1 X0.4 Y200.0 Z0.3 F5000.0 ; Move to side a little
G1 X0.4 Y20 Z0.3 F1500.0 E30 ; Draw the second line
G92 E0 ; Reset Extruder
G1 Z2.0 F3000 ; Move Z Axis up little to prevent scratching of Heat Bed
G1 X5 Y20 Z0.3 F5000.0 ; Move over to prevent blob squish
G92 E0
G92 E0
G1 F2700 E-5
;LAYER_COUNT:13
;LAYER:-5
M107
G0 F15000 X109.657 Y87.156 Z0.24
;TYPE:SUPPORT-INTERFACE
G1 F2700 E0
G1 F2250 X109.994 Y86.758 E0.04163
G1 X110.386 Y86.416 E0.08316
G1 X110.789 Y86.149 E0.12174
G1 X111.26 Y85.928 E0.16327
G1 X111.755 Y85.775 E0.20463
G1 X112.178 Y85.71 E0.23879
G1 X112.562 Y85.68 E0.26954
G1 X122.439 Y85.68 E1.05796
G1 X122.92 Y85.709 E1.09643
G1 X123.307 Y85.762 E1.12761
G1 X123.802 Y85.905 E1.16874
G1 X124.259 Y86.111 E1.20875
G1 X124.683 Y86.379 E1.24879
G1 X125.08 Y86.717 E1.29041
G1 X125.422 Y87.108 E1.33188
G1 X125.695 Y87.522 E1.37147
G1 X125.911 Y87.981 E1.41196
G1 X126.062 Y88.472 E1.45296
G1 X126.127 Y88.899 E1.48744
G1 X126.158 Y89.373 E1.52536
G1 X126.158 Y97.531 E2.17657
G1 X126.198 Y98.151 E2.22616
G1 X126.328 Y98.844 E2.28244
G1 X126.545 Y99.504 E2.3379
G1 X126.832 Y100.109 E2.39135
G1 X127.206 Y100.693 E2.44671
G1 X127.656 Y101.227 E2.50245
G1 X128.156 Y101.689 E2.5568
G1 X128.688 Y102.069 E2.60898
G1 X129.295 Y102.4 E2.66417
G1 X129.863 Y102.622 E2.71285
G1 X131.433 Y103.163 E2.84541
G1 X132.241 Y103.475 E2.91455
G1 X133.11 Y103.832 E2.98954
G1 X133.809 Y104.135 E3.05036
G1 X135.105 Y104.741 E3.16456
G1 X136.323 Y105.363 E3.27373
G1 X136.936 Y105.695 E3.32938
G1 X137.58 Y106.059 E3.38843
G1 X138.082 Y106.354 E3.43491
G1 X138.742 Y106.758 E3.49668
G1 X139.271 Y107.095 E3.54674
G1 X140.465 Y107.897 E3.66156
G1 X140.891 Y108.195 E3.70306
G1 X141.617 Y108.731 E3.77509
G1 X142.668 Y109.551 E3.8815
G1 X143.729 Y110.437 E3.99184
G1 X144.727 Y111.315 E4.09795
G1 X144.727 Y111.334 E4.09947
G1 X145.767 Y112.327 E4.21425
G1 X146.275 Y112.841 E4.27193
G1 X146.758 Y113.347 E4.32777
G1 X147.775 Y114.473 E4.44889
G1 X148.154 Y114.917 E4.49549
G1 X149.001 Y115.957 E4.60255
G1 X149.86 Y117.086 E4.7158
G1 X150.729 Y118.319 E4.83621
G1 X151.112 Y118.896 E4.89149
G1 X151.85 Y120.076 E5.00259
G1 X152.205 Y120.675 E5.05817
G1 X152.511 Y121.213 E5.10757
G1 X152.851 Y121.834 E5.16409
G1 X153.497 Y123.098 E5.2774
G1 X153.751 Y123.615 E5.32338
G1 X154.094 Y124.362 E5.389
G1 X154.367 Y124.985 E5.44329
G1 X154.883 Y126.245 E5.55198
G1 X155.222 Y127.128 E5.62748
G1 X155.215 Y127.14 E5.62859
G1 X155.593 Y128.227 E5.72045
G1 X155.818 Y128.932 E5.77953
G1 X156.172 Y130.139 E5.87993
G1 X156.545 Y131.592 E5.99968
G1 X156.874 Y133.145 E6.1264
G1 X157.09 Y134.351 E6.2242
G1 X157.24 Y135.366 E6.3061
G1 X157.363 Y136.351 E6.38533
G1 X157.449 Y137.195 E6.45306
G1 X157.508 Y137.948 E6.51335
G1 X157.556 Y138.751 E6.57756
G1 X157.599 Y139.905 E6.66974
G1 X157.608 Y140.574 E6.72315
G1 X157.605 Y141.376 E6.78717
G1 X157.589 Y142.074 E6.8429
G1 X157.563 Y142.708 E6.89355
G1 X157.497 Y143.907 E6.98941
G1 X157.483 Y143.92 E6.99093
G1 X157.404 Y144.819 E7.06297
G1 X157.323 Y145.562 E7.12263
G1 X157.23 Y146.244 E7.17757
G1 X157.173 Y146.523 E7.20031
G1 X157.064 Y146.917 E7.23294
G1 X156.862 Y147.385 E7.27363
G1 X156.601 Y147.807 E7.31324
G1 X156.262 Y148.215 E7.35558
G1 X155.882 Y148.557 E7.39639
G1 X155.467 Y148.837 E7.43635
G1 X155.008 Y149.058 E7.47701
G1 X154.536 Y149.211 E7.51662
G1 X154.086 Y149.284 E7.55301
G1 X153.639 Y149.319 E7.5888
G1 X148.711 Y149.306 E7.98218
G1 X148.237 Y149.278 E8.02008
G1 X147.837 Y149.221 E8.05233
G1 X147.343 Y149.075 E8.09345
G1 X146.877 Y148.863 E8.13432
G1 X146.45 Y148.586 E8.17495
G1 X146.07 Y148.257 E8.21507
G1 X145.731 Y147.87 E8.25614
G1 X145.458 Y147.45 E8.29613
G1 X145.249 Y147.001 E8.33566
G1 X145.095 Y146.497 E8.37773
G1 X145.02 Y146.005 E8.41745
G1 X145.017 Y145.598 E8.44994
G1 X145.051 Y145.11 E8.48899
G1 X145.186 Y144.17 E8.5648
G1 X145.29 Y143.141 E8.64735
G1 X145.365 Y141.984 E8.73991
G1 X145.391 Y140.722 E8.84066
G1 X145.384 Y140.207 E8.88178
G1 X145.36 Y139.412 E8.94527
G1 X145.33 Y138.924 E8.9843
G1 X145.207 Y137.61 E9.08964
G1 X145.15 Y137.193 E9.12324
G1 X145.16 Y137.181 E9.12449
G1 X144.97 Y135.959 E9.2232
G1 X144.864 Y135.389 E9.26948
G1 X144.738 Y134.829 E9.3153
G1 X144.747 Y134.817 E9.3165
G1 X144.461 Y133.645 E9.4128
G1 X144.143 Y132.533 E9.50512
G1 X143.854 Y131.65 E9.57929
G1 X143.487 Y130.663 E9.66334
G1 X143.242 Y130.076 E9.71412
G1 X143.251 Y130.061 E9.71551
G1 X142.77 Y128.981 E9.80989
G1 X142.301 Y128.02 E9.89525
G1 X141.723 Y126.955 E9.99197
G1 X141.376 Y126.369 E10.04634
G1 X140.858 Y125.544 E10.1241
G1 X140.593 Y125.144 E10.1624
G1 X140.065 Y124.387 E10.23607
G1 X139.754 Y123.97 E10.2776
G1 X139.217 Y123.282 E10.34726
G1 X138.572 Y122.511 E10.4275
G1 X138.272 Y122.169 E10.46382
G1 X137.614 Y121.461 E10.54097
G1 X136.81 Y120.656 E10.63179
G1 X136.477 Y120.355 E10.66762
G1 X136.476 Y120.344 E10.66851
G1 X135.705 Y119.652 E10.7512
G1 X135.121 Y119.171 E10.8116
G1 X135.119 Y119.156 E10.81281
G1 X134.675 Y118.802 E10.85813
G1 X133.529 Y117.953 E10.97198
G1 X133.053 Y117.629 E11.01794
G1 X132.204 Y117.081 E11.09861
G1 X131.347 Y116.572 E11.17817
G1 X130.521 Y116.114 E11.25356
G1 X130.135 Y115.915 E11.28823
G1 X129.284 Y115.5 E11.36381
G1 X128.251 Y115.056 E11.45356
G1 X128.248 Y115.045 E11.45447
G1 X127.862 Y114.886 E11.48779
G1 X126.852 Y114.515 E11.57368
G1 X126.847 Y114.519 E11.5742
G1 X125.946 Y114.21 E11.65023
G1 X125.942 Y114.214 E11.65068
G1 X125.1 Y113.943 E11.72129
G1 X124.682 Y113.828 E11.75589
G1 X123.857 Y113.622 E11.82377
G1 X122.97 Y113.429 E11.89623
G1 X122.303 Y113.303 E11.95042
G1 X121.062 Y113.124 E12.0505
G1 X121.055 Y113.13 E12.05124
G1 X120.379 Y113.035 E12.10573
G1 X119.795 Y112.981 E12.15255
G1 X118.696 Y112.911 E12.24045
G1 X117.407 Y112.887 E12.34336
G1 X116.436 Y112.905 E12.42089
G1 X115.981 Y112.925 E12.45724
G1 X114.856 Y113.008 E12.54729
G1 X113.858 Y113.119 E12.62744
G1 X112.573 Y113.321 E12.73128
G1 X112.083 Y113.413 E12.77108
G1 X111.535 Y113.538 E12.81594
G1 X111.523 Y113.528 E12.81719
G1 X110.187 Y113.858 E12.92704
G1 X109.183 Y114.145 E13.01039
G1 X108.02 Y114.541 E13.10846
G1 X106.821 Y115.015 E13.21138
G1 X106.807 Y115.007 E13.21267
G1 X105.677 Y115.512 E13.31147
G1 X104.69 Y115.993 E13.39911
G1 X104.246 Y116.231 E13.43932
G1 X103.47 Y116.664 E13.51026
G1 X102.611 Y117.184 E13.59041
G1 X101.827 Y117.695 E13.66511
G1 X101.434 Y117.969 E13.70336
G1 X100.732 Y118.479 E13.77262
G1 X99.994 Y119.054 E13.8473
G1 X99.134 Y119.776 E13.93694
G1 X98.406 Y120.432 E14.01516
G1 X98.167 Y120.66 E14.04153
G1 X97.374 Y121.453 E14.13105
G1 X97.122 Y121.717 E14.16018
G1 X96.406 Y122.514 E14.2457
G1 X96.077 Y122.902 E14.28631
G1 X95.443 Y123.689 E14.36698
G1 X94.869 Y124.454 E14.44333
G1 X94.689 Y124.706 E14.46805
G1 X94.076 Y125.61 E14.55523
G1 X93.63 Y126.329 E14.62277
G1 X93.126 Y127.196 E14.70282
G1 X92.614 Y128.154 E14.78953
G1 X92.389 Y128.609 E14.83005
G1 X91.967 Y129.519 E14.91012
G1 X91.762 Y130.022 E14.95348
G1 X91.751 Y130.026 E14.95441
G1 X91.425 Y130.834 E15.02396
G1 X91.082 Y131.789 E15.10496
G1 X90.784 Y132.715 E15.18261
G1 X90.566 Y133.474 E15.24565
G1 X90.292 Y134.575 E15.33622
G1 X90.111 Y135.422 E15.40535
G1 X89.968 Y136.196 E15.46818
G1 X89.808 Y137.31 E15.55802
G1 X89.708 Y138.258 E15.63411
G1 X89.631 Y139.275 E15.71553
G1 X89.616 Y139.599 E15.74142
G1 X89.591 Y140.832 E15.83986
G1 X89.597 Y141.346 E15.8809
G1 X89.62 Y142.152 E15.94526
G1 X89.707 Y143.296 E16.03684
G1 X89.837 Y144.51 E16.1343
G1 X89.92 Y145.063 E16.17894
G1 X89.963 Y145.498 E16.21383
G1 X89.967 Y145.922 E16.24768
G1 X89.898 Y146.437 E16.28916
G1 X89.76 Y146.927 E16.32979
G1 X89.55 Y147.4 E16.3711
G1 X89.298 Y147.804 E16.40911
G1 X88.965 Y148.205 E16.45072
G1 X88.573 Y148.555 E16.49267
G1 X88.174 Y148.821 E16.53095
G1 X87.692 Y149.054 E16.57368
G1 X87.234 Y149.199 E16.61203
G1 X86.787 Y149.272 E16.64818
G1 X86.25 Y149.307 E16.69114
G1 X81.443 Y149.307 E17.07486
G1 X80.962 Y149.278 E17.11332
G1 X80.575 Y149.225 E17.1445
G1 X80.081 Y149.082 E17.18555
G1 X79.625 Y148.878 E17.22543
G1 X79.194 Y148.604 E17.2662
G1 X78.799 Y148.268 E17.30759
G1 X78.464 Y147.884 E17.34827
G1 X78.187 Y147.465 E17.38837
G1 X77.97 Y147.003 E17.42911
G1 X77.843 Y146.569 E17.46521
G1 X77.734 Y146.055 E17.50715
G1 X77.747 Y146.04 E17.50873
G1 X77.583 Y144.705 E17.6161
G1 X77.502 Y143.877 E17.68251
G1 X77.513 Y143.866 E17.68375
G1 X77.432 Y142.572 E17.78725
G1 X77.394 Y141.269 E17.8913
G1 X77.392 Y140.512 E17.95173
G1 X77.401 Y139.86 E18.00378
G1 X77.424 Y139.163 E18.05945
G1 X77.502 Y137.811 E18.16755
G1 X77.557 Y137.143 E18.22105
G1 X77.698 Y135.803 E18.32861
G1 X77.919 Y134.296 E18.45019
G1 X78.236 Y132.55 E18.59184
G1 X78.252 Y132.54 E18.59335
G1 X78.468 Y131.554 E18.67392
G1 X78.625 Y130.919 E18.72614
G1 X78.913 Y129.828 E18.81621
G1 X79.421 Y128.189 E18.95318
G1 X79.569 Y127.738 E18.99107
G1 X80.125 Y126.233 E19.11914
G1 X80.652 Y124.947 E19.23008
G1 X81.196 Y123.734 E19.3362
G1 X81.514 Y123.074 E19.39468
G1 X82.188 Y121.768 E19.51199
G1 X82.496 Y121.206 E19.56315
G1 X82.871 Y120.548 E19.62361
G1 X83.193 Y120.006 E19.67393
G1 X83.946 Y118.816 E19.78634
G1 X84.297 Y118.287 E19.83702
G1 X84.712 Y117.687 E19.89525
G1 X85.2 Y117.009 E19.96193
G1 X85.99 Y115.971 E20.06606
G1 X86.869 Y114.895 E20.17697
G1 X87.367 Y114.318 E20.23781
G1 X87.876 Y113.748 E20.29881
G1 X88.658 Y112.918 E20.38984
G1 X89.314 Y112.254 E20.46435
G1 X90.23 Y111.377 E20.56557
G1 X90.767 Y110.888 E20.62355
G1 X91.84 Y109.964 E20.73658
G1 X92.384 Y109.518 E20.79274
G1 X93.499 Y108.656 E20.90524
G1 X94.584 Y107.872 E21.01209
G1 X95.132 Y107.498 E21.06505
G1 X95.793 Y107.064 E21.12817
G1 X96.377 Y106.695 E21.18331
G1 X96.926 Y106.361 E21.23461
G1 X97.673 Y105.926 E21.30361
G1 X99.094 Y105.145 E21.43305
G1 X99.108 Y105.152 E21.4343
G1 X100.115 Y104.645 E21.52429
G1 X101.336 Y104.083 E21.63159
G1 X101.861 Y103.854 E21.67731
G1 X102.925 Y103.42 E21.76903
G1 X103.841 Y103.08 E21.84703
G1 X105.169 Y102.625 E21.95908
G1 X105.812 Y102.378 E22.01407
G1 X106.417 Y102.051 E22.06896
G1 X106.971 Y101.655 E22.12332
G1 X107.474 Y101.19 E22.178
G1 X107.91 Y100.668 E22.23229
G1 X108.278 Y100.096 E22.28659
G1 X108.559 Y99.508 E22.33861
G1 X108.788 Y98.815 E22.39687
G1 X108.914 Y98.164 E22.4498
G1 X108.957 Y97.526 E22.50084
G1 X108.958 Y89.399 E23.14957
G1 X108.987 Y88.917 E23.18812
G1 X109.039 Y88.533 E23.21905
G1 X109.184 Y88.036 E23.26038
G1 X109.389 Y87.579 E23.30036
G1 X109.657 Y87.156 E23.34033
G0 F15000 X109.997 Y87.37
G1 F2250 X156.618 Y133.991 E28.60331
G1 F2700 E23.60331
G1 F300 Z0.44
G0 F15000 X156.989 Y136.625 Z0.44
G1 F300 Z0.24
G1 F2700 E28.60331
G1 F2250 X109.38 Y89.016 E33.97783
G1 F2700 E28.97783
G1 F300 Z0.44
G0 F15000 X109.356 Y91.254 Z0.44
G1 F300 Z0.24
G1 F2700 E33.97783
G1 F2250 X157.165 Y139.063 E39.37492
G1 F2700 E34.37492
G1 F300 Z0.44
G0 F15000 X157.205 Y141.366 Z0.44
G1 F300 Z0.24
G1 F2700 E39.37492
G1 F2250 X141.238 Y125.399 E41.17741
G1 F2700 E36.17741
G1 F300 Z0.44
G0 F15000 X143.691 Y130.114 Z0.44
G1 F300 Z0.24
G1 F2700 E41.17741
G1 F2250 X157.116 Y143.539 E42.69294
G1 F2700 E37.69294
G1 F300 Z0.44
G0 F15000 X156.914 Y145.6 Z0.44
G1 F300 Z0.24
G1 F2700 E42.69294
G1 F2250 X144.843 Y133.53 E44.05557
G1 F2700 E39.05557
G1 F300 Z0.44
G0 F15000 X145.439 Y136.388 Z0.44
G1 F300 Z0.24
G1 F2700 E44.05557
G1 F2250 X156.407 Y147.356 E45.29373
G1 F2700 E40.29373
G1 F300 Z0.44
G0 F15000 X155.272 Y148.483 Z0.44
G1 F300 Z0.24
G1 F2700 E45.29373
G1 F2250 X145.73 Y138.942 E46.37086
G1 F2700 E41.37086
G1 F300 Z0.44
G0 F15000 X145.778 Y141.253 Z0.44
G1 F300 Z0.24
G1 F2700 E46.37086
G1 F2250 X153.444 Y148.918 E47.2362
G1 F2700 E42.2362
G1 F300 Z0.44
G0 F15000 X151.175 Y148.912 Z0.44
G1 F300 Z0.24
G1 F2700 E47.2362
G1 F2250 X145.664 Y143.401 E47.85833
G1 F2700 E42.85833
G1 F300 Z0.44
G0 F15000 X145.429 Y145.429 Z0.44
G1 F300 Z0.24
G1 F2700 E47.85833
G1 F2250 X148.905 Y148.905 E48.25073
G1 F2700 E43.25073
G1 F300 Z0.44
G0 F15000 X156.01 Y131.12 Z0.44
G1 F300 Z0.24
G1 F2700 E48.25073
G1 F2250 X111.259 Y86.369 E53.30261
G1 F2700 E48.30261
G1 F300 Z0.44
G0 F15000 X113.232 Y86.079 Z0.44
G1 F300 Z0.24
G1 F2700 E53.30261
G1 F2250 X125.904 Y98.751 E54.73314
G1 F2700 E49.73314
G1 F300 Z0.44
G0 F15000 X125.757 Y96.341 Z0.44
G1 F300 Z0.24
G1 F2700 E54.73314
G1 F2250 X115.495 Y86.079 E55.8916
G1 F2700 E50.8916
G1 F300 Z0.44
G0 F15000 X117.758 Y86.079 Z0.44
G1 F300 Z0.24
G1 F2700 E55.8916
G1 F2250 X125.757 Y94.079 E56.79465
G1 F2700 E51.79465
G1 F300 Z0.44
G0 F15000 X125.757 Y91.816 Z0.44
G1 F300 Z0.24
G1 F2700 E56.79465
G1 F2250 X120.02 Y86.079 E57.4423
G1 F2700 E52.4423
G1 F300 Z0.44
G0 F15000 X122.283 Y86.079 Z0.44
G1 F300 Z0.24
G1 F2700 E57.4423
G1 F2250 X125.757 Y89.553 E57.83447
G1 F2700 E52.83447
G1 F300 Z0.44
G0 F15000 X130.374 Y103.222 Z0.44
G1 F300 Z0.24
G1 F2700 E57.83447
G1 F2250 X155.062 Y127.909 E60.62141
G1 F2700 E55.62141
G1 F300 Z0.44
G0 F15000 X153.548 Y124.132 Z0.44
G1 F300 Z0.24
G1 F2700 E60.62141
G1 F2250 X134.144 Y104.728 E62.8119
G1 F2700 E57.8119
G1 F300 Z0.44
G0 F15000 X139.224 Y107.545 Z0.44
G1 F300 Z0.24
G1 F2700 E62.8119
G1 F2250 X150.745 Y119.066 E64.11249
G1 F2700 E59.11249
G1 F300 Z0.44
G0 F15000 X132.881 Y117.042 Z0.44
G1 F300 Z0.24
G1 F2700 E64.11249
G1 F2250 X109.355 Y93.516 E66.76831
G1 F2700 E61.76831
G1 F300 Z0.44
G0 F15000 X109.355 Y95.779 Z0.44
G1 F300 Z0.24
G1 F2700 E66.76831
G1 F2250 X128.148 Y114.572 E68.88983
G1 F2700 E63.88983
G1 F300 Z0.44
G0 F15000 X124.744 Y113.431 Z0.44
G1 F300 Z0.24
G1 F2700 E68.88983
G1 F2250 X109.325 Y98.011 E70.63051
G1 F2700 E65.63051
G1 F300 Z0.44
G0 F15000 X108.856 Y99.805 Z0.44
G1 F300 Z0.24
G1 F2700 E70.63051
G1 F2250 X121.89 Y112.839 E72.1019
G1 F2700 E67.1019
G1 F300 Z0.44
G0 F15000 X119.339 Y112.55 Z0.44
G1 F300 Z0.24
G1 F2700 E72.1019
G1 F2250 X107.987 Y101.199 E73.38336
G1 F2700 E68.38336
G1 F300 Z0.44
G0 F15000 X106.796 Y102.27 Z0.44
G1 F300 Z0.24
G1 F2700 E73.38336
G1 F2250 X117.019 Y112.494 E74.53748
G1 F2700 E69.53748
G1 F300 Z0.44
G0 F15000 X114.868 Y112.605 Z0.44
G1 F300 Z0.24
G1 F2700 E74.53748
G1 F2250 X105.274 Y103.011 E75.62053
G1 F2700 E70.62053
G1 F300 Z0.44
G0 F15000 X103.597 Y103.597 Z0.44
G1 F300 Z0.24
G1 F2700 E75.62053
G1 F2250 X112.869 Y112.869 E76.66723
G1 F2700 E71.66723
G1 F300 Z0.44
G0 F15000 X110.985 Y113.248 Z0.44
G1 F300 Z0.24
G1 F2700 E76.66723
G1 F2250 X101.976 Y104.238 E77.6843
G1 F2700 E72.6843
G1 F300 Z0.44
G0 F15000 X100.419 Y104.944 Z0.44
G1 F300 Z0.24
G1 F2700 E77.6843
G1 F2250 X109.198 Y113.723 E78.67535
G1 F2700 E73.67535
G1 F300 Z0.44
G0 F15000 X107.519 Y114.308 Z0.44
G1 F300 Z0.24
G1 F2700 E78.67535
G1 F2250 X98.912 Y105.7 E79.64704
G1 F2700 E74.64704
G1 F300 Z0.44
G0 F15000 X97.461 Y106.512 Z0.44
G1 F300 Z0.24
G1 F2700 E79.64704
G1 F2250 X105.915 Y114.966 E80.6014
G1 F2700 E75.6014
G1 F300 Z0.44
G0 F15000 X104.387 Y115.701 Z0.44
G1 F300 Z0.24
G1 F2700 E80.6014
G1 F2250 X96.056 Y107.37 E81.54188
G1 F2700 E76.54188
G1 F300 Z0.44
G0 F15000 X94.702 Y108.279 Z0.44
G1 F300 Z0.24
G1 F2700 E81.54188
G1 F2250 X102.939 Y116.516 E82.47174
G1 F2700 E77.47174
G1 F300 Z0.44
G0 F15000 X101.556 Y117.395 Z0.44
G1 F300 Z0.24
G1 F2700 E82.47174
G1 F2250 X93.399 Y109.238 E83.39257
G1 F2700 E78.39257
G1 F300 Z0.44
G0 F15000 X92.136 Y110.237 Z0.44
G1 F300 Z0.24
G1 F2700 E83.39257
G1 F2250 X100.246 Y118.348 E84.30816
G1 F2700 E79.30816
G1 F300 Z0.44
G0 F15000 X98.999 Y119.364 Z0.44
G1 F300 Z0.24
G1 F2700 E84.30816
G1 F2250 X90.922 Y111.287 E85.21996
G1 F2700 E80.21996
G1 F300 Z0.44
G0 F15000 X89.756 Y112.384 Z0.44
G1 F300 Z0.24
G1 F2700 E85.21996
G1 F2250 X97.816 Y120.443 E86.12978
G1 F2700 E81.12978
G1 F300 Z0.44
G0 F15000 X96.699 Y121.589 Z0.44
