;FLAVOR:Marlin
;TIME:1884
;Filament used: 2.37925m
;Layer height: 0.4
;MINX:98.051
;MINY:98.051
;MINZ:0.24
;MAXX:136.949
;MAXY:136.949
;MAXZ:26.59
;Generated with Cura_SteamEngine 5.3.1
M140 S60
M105
M190 S60
M104 S230
M105
M109 S230
M82 ;absolute extrusion mode
; Ender 3 Custom Start G-code
G92 E0 ; Reset Extruder
G28 ; Home all axes
G1 Z2.0 F3000 ; Move Z Axis up little to prevent scratching of Heat Bed
G1 X0.1 Y20 Z0.3 F5000.0 ; Move to start position
G1 X0.1 Y200.0 Z0.3 F1500.0 E15 ; Draw the first line
G1 X0.4 Y200.0 Z0.3 F5000.0 ; Move to side a little
G1 X0.4 Y20 Z0.3 F1500.0 E30 ; Draw the second line
G92 E0 ; Reset Extruder
G1 Z2.0 F3000 ; Move Z Axis up little to prevent scratching of Heat Bed
G1 X5 Y20 Z0.3 F5000.0 ; Move over to prevent blob squish
G92 E0
G92 E0
G1 F2700 E-5
;LAYER_COUNT:63
;LAYER:-5
M107
G0 F15000 X109.001 Y109.388 Z0.24
;TYPE:SUPPORT-INTERFACE
G1 F2700 E0
G1 F2250 X108.559 Y109.879 E0.05274
G1 X108.188 Y110.336 E0.09972
G1 X107.95 Y110.657 E0.13162
G1 X107.69 Y111.036 E0.16831
G1 X107.469 Y111.384 E0.20122
G1 X107.265 Y111.731 E0.23335
G1 X107.081 Y112.072 E0.26428
G1 X106.905 Y112.421 E0.29548
G1 X106.744 Y112.77 E0.32616
G1 X106.551 Y113.263 E0.36842
G1 X106.555 Y113.27 E0.36906
G1 X106.353 Y113.797 E0.41411
G1 X106.245 Y114.132 E0.44221
G1 X106.13 Y114.543 E0.47628
G1 X106 Y115.095 E0.52155
G1 X105.92 Y115.523 E0.5563
G1 X105.857 Y115.943 E0.59021
G1 X105.803 Y116.393 E0.62638
G1 X105.773 Y116.813 E0.66
G1 X105.758 Y117.16 E0.68772
G1 X105.752 Y117.604 E0.72317
G1 X105.762 Y118.056 E0.75926
G1 X105.8 Y118.586 E0.80167
G1 X105.854 Y119.054 E0.83928
G1 X105.912 Y119.439 E0.87036
G1 X105.989 Y119.857 E0.90428
G1 X106.074 Y120.24 E0.9356
G1 X106.177 Y120.64 E0.96857
G1 X106.359 Y121.234 E1.01816
G1 X106.473 Y121.559 E1.04566
G1 X106.65 Y122.005 E1.08396
G1 X106.802 Y122.36 E1.11478
G1 X107.035 Y122.824 E1.15623
G1 X107.028 Y122.836 E1.15734
G1 X107.263 Y123.268 E1.1966
G1 X107.462 Y123.605 E1.22784
G1 X107.68 Y123.951 E1.26048
G1 X107.935 Y124.323 E1.29648
G1 X108.322 Y124.836 E1.34778
G1 X108.555 Y125.116 E1.37685
G1 X109.01 Y125.623 E1.43123
G1 X109.38 Y125.992 E1.47295
G1 X109.853 Y126.418 E1.52376
G1 X110.166 Y126.681 E1.55639
G1 X110.836 Y127.176 E1.62289
G1 X111.384 Y127.532 E1.67505
G1 X111.725 Y127.732 E1.70661
G1 X112.234 Y128.003 E1.75264
G1 X113.046 Y128.379 E1.82407
G1 X113.806 Y128.653 E1.88856
G1 X114.127 Y128.753 E1.91539
G1 X114.783 Y128.93 E1.96963
G1 X115.136 Y129.009 E1.99851
G1 X115.543 Y129.083 E2.03153
G1 X115.943 Y129.143 E2.06381
G1 X116.393 Y129.197 E2.09999
G1 X116.813 Y129.227 E2.13361
G1 X117.192 Y129.243 E2.16389
G1 X117.597 Y129.248 E2.19622
G1 X118.056 Y129.237 E2.23287
G1 X118.583 Y129.2 E2.27504
G1 X119.021 Y129.154 E2.31019
G1 X119.442 Y129.088 E2.34421
G1 X119.857 Y129.011 E2.3779
G1 X120.442 Y128.876 E2.42583
G1 X120.807 Y128.774 E2.45608
G1 X121.235 Y128.64 E2.49188
G1 X121.567 Y128.524 E2.51995
G1 X122.012 Y128.347 E2.55818
G1 X122.36 Y128.198 E2.5884
G1 X122.821 Y127.966 E2.62959
G1 X122.835 Y127.973 E2.63084
G1 X123.276 Y127.733 E2.67092
G1 X123.606 Y127.538 E2.70152
G1 X123.98 Y127.301 E2.73686
G1 X124.323 Y127.065 E2.7701
G1 X124.842 Y126.673 E2.82202
G1 X125.095 Y126.45 E2.84894
G1 X125.107 Y126.451 E2.8499
G1 X125.635 Y125.979 E2.90643
G1 X125.999 Y125.612 E2.94769
G1 X126.441 Y125.121 E3.00043
G1 X126.688 Y124.826 E3.03114
G1 X127.196 Y124.136 E3.09954
G1 X127.532 Y123.615 E3.14902
G1 X127.729 Y123.28 E3.18004
G1 X128.02 Y122.735 E3.22936
G1 X128.273 Y122.161 E3.27943
G1 X128.283 Y122.159 E3.28025
G1 X128.426 Y121.823 E3.3094
G1 X128.655 Y121.191 E3.36306
G1 X128.869 Y120.462 E3.4237
G1 X129.008 Y119.868 E3.4724
G1 X129.083 Y119.457 E3.50575
G1 X129.143 Y119.057 E3.53804
G1 X129.197 Y118.607 E3.57422
G1 X129.227 Y118.187 E3.60783
G1 X129.242 Y117.845 E3.63515
G1 X129.249 Y117.399 E3.67076
G1 X129.237 Y116.944 E3.70709
G1 X129.2 Y116.417 E3.74926
G1 X129.152 Y115.973 E3.78491
G1 X129.085 Y115.541 E3.81981
G1 X129.01 Y115.136 E3.85269
G1 X128.876 Y114.558 E3.90005
G1 X128.696 Y113.937 E3.95166
G1 X128.538 Y113.473 E3.99079
G1 X128.348 Y112.989 E4.03229
G1 X128.198 Y112.64 E4.06261
G1 X128.002 Y112.231 E4.09882
G1 X127.829 Y111.899 E4.1287
G1 X127.522 Y111.368 E4.17766
G1 X127.312 Y111.037 E4.20895
G1 X127.051 Y110.658 E4.24569
G1 X126.675 Y110.162 E4.29537
G1 X126.44 Y109.879 E4.32473
G1 X125.989 Y109.376 E4.37866
G1 X125.612 Y109.001 E4.42111
G1 X125.121 Y108.559 E4.47384
G1 X124.834 Y108.319 E4.50371
G1 X124.144 Y107.809 E4.5722
G1 X123.615 Y107.468 E4.62244
G1 X123.268 Y107.264 E4.65457
G1 X122.758 Y106.993 E4.70067
G1 X122.388 Y106.817 E4.73338
G1 X121.588 Y106.493 E4.80227
G1 X121.579 Y106.499 E4.80314
G1 X121.193 Y106.346 E4.83628
G1 X120.873 Y106.247 E4.86302
G1 X120.218 Y106.07 E4.91718
G1 X119.853 Y105.988 E4.94704
G1 X119.457 Y105.917 E4.97916
G1 X119.057 Y105.857 E5.01144
G1 X118.607 Y105.803 E5.04762
G1 X118.187 Y105.773 E5.08123
G1 X117.584 Y105.752 E5.1294
G1 X116.944 Y105.763 E5.18049
G1 X116.417 Y105.8 E5.22266
G1 X115.986 Y105.846 E5.25726
G1 X115.558 Y105.912 E5.29183
G1 X115.143 Y105.989 E5.32552
G1 X114.558 Y106.124 E5.37345
G1 X114.193 Y106.226 E5.4037
G1 X113.765 Y106.359 E5.43948
G1 X113.433 Y106.476 E5.46758
G1 X112.988 Y106.653 E5.50581
G1 X112.64 Y106.802 E5.53602
G1 X112.178 Y107.034 E5.57729
G1 X112.165 Y107.027 E5.57847
G1 X111.724 Y107.267 E5.61855
G1 X111.394 Y107.462 E5.64914
G1 X111.02 Y107.699 E5.68449
G1 X110.663 Y107.945 E5.7191
G1 X110.158 Y108.327 E5.76964
G1 X109.905 Y108.55 E5.79656
G1 X109.893 Y108.549 E5.79752
G1 X109.377 Y109.01 E5.85276
G1 X109.001 Y109.388 E5.89532
G1 F2700 E0.89532
G1 F300 Z0.44
G0 F15000 X103.701 Y103.793 Z0.44
G1 F300 Z0.24
G1 F2700 E5.89532
G1 F2250 X104.36 Y103.148 E5.96892
G1 X104.376 Y103.148 E5.9702
G1 X104.783 Y102.784 E6.01379
G1 X105.308 Y102.346 E6.06836
G1 X105.854 Y101.924 E6.12345
G1 X106.391 Y101.536 E6.17633
G1 X106.903 Y101.192 E6.22557
G1 X107.744 Y100.671 E6.30454
G1 X108.416 Y100.303 E6.3657
G1 X109.047 Y99.985 E6.4221
G1 X110.056 Y99.531 E6.51042
G1 X110.682 Y99.274 E6.56444
G1 X110.696 Y99.283 E6.56577
G1 X111.225 Y99.091 E6.61069
G1 X111.711 Y98.93 E6.65156
G1 X112.556 Y98.691 E6.72166
G1 X113.387 Y98.49 E6.78991
G1 X114.203 Y98.333 E6.85624
G1 X114.822 Y98.237 E6.90624
G1 X115.528 Y98.151 E6.96301
G1 X116.219 Y98.094 E7.01836
G1 X116.893 Y98.06 E7.07223
G1 X117.504 Y98.051 E7.12101
G1 X118.232 Y98.064 E7.17913
G1 X118.789 Y98.091 E7.22364
G1 X119.48 Y98.152 E7.27901
G1 X119.981 Y98.208 E7.31925
G1 X120.578 Y98.29 E7.36736
G1 X121.628 Y98.494 E7.45274
G1 X122.486 Y98.7 E7.52318
G1 X122.831 Y98.793 E7.5517
G1 X123.671 Y99.044 E7.62168
G1 X123.679 Y99.061 E7.62318
G1 X124.814 Y99.466 E7.71938
G1 X124.819 Y99.481 E7.72064
G1 X125.96 Y99.987 E7.82027
G1 X126.587 Y100.304 E7.87635
G1 X127.265 Y100.679 E7.9382
G1 X127.832 Y101.021 E7.99106
G1 X128.07 Y101.173 E8.0136
G1 X128.743 Y101.63 E8.07854
G1 X129.171 Y101.942 E8.12082
G1 X129.695 Y102.347 E8.17368
G1 X130.308 Y102.863 E8.23764
G1 X130.619 Y103.139 E8.27083
G1 X131.291 Y103.787 E8.34535
G1 X131.692 Y104.203 E8.39148
G1 X132.219 Y104.787 E8.45427
G1 X132.582 Y105.219 E8.49931
G1 X133.013 Y105.768 E8.55502
G1 X133.46 Y106.384 E8.61578
G1 X133.983 Y107.176 E8.69154
G1 X134.328 Y107.743 E8.74452
G1 X134.698 Y108.416 E8.80583
G1 X135.015 Y109.043 E8.86191
G1 X135.45 Y109.982 E8.94452
G1 X135.442 Y109.994 E8.94567
G1 X135.682 Y110.598 E8.99755
G1 X135.906 Y111.218 E9.05017
G1 X136.079 Y111.748 E9.09467
G1 X136.264 Y112.367 E9.14624
G1 X136.522 Y113.447 E9.23488
G1 X136.664 Y114.184 E9.29479
G1 X136.76 Y114.8 E9.34456
G1 X136.848 Y115.519 E9.40238
G1 X136.902 Y116.159 E9.45365
G1 X136.94 Y116.876 E9.51096
G1 X136.949 Y117.401 E9.55288
G1 X136.94 Y118.125 E9.61067
G1 X136.911 Y118.784 E9.66333
G1 X136.847 Y119.588 E9.72771
G1 X136.835 Y119.599 E9.72901
G1 X136.754 Y120.248 E9.78122
G1 X136.562 Y121.398 E9.87429
G1 X136.263 Y122.641 E9.97634
G1 X135.966 Y123.641 E10.05961
G1 X135.951 Y123.648 E10.06093
G1 X135.535 Y124.814 E10.15975
G1 X135.519 Y124.819 E10.16109
G1 X135.002 Y125.981 E10.26261
G1 X134.649 Y126.678 E10.32498
G1 X134.367 Y127.189 E10.37157
G1 X133.979 Y127.831 E10.43145
G1 X133.809 Y128.097 E10.45665
G1 X133.434 Y128.654 E10.51025
G1 X132.981 Y129.277 E10.57173
G1 X132.685 Y129.651 E10.60981
G1 X132.165 Y130.275 E10.67465
G1 X131.717 Y130.774 E10.72818
G1 X131.299 Y131.206 E10.77616
G1 X130.755 Y131.734 E10.83668
G1 X130.217 Y132.216 E10.89434
G1 X129.716 Y132.634 E10.94642
G1 X129.145 Y133.076 E11.00406
G1 X128.614 Y133.46 E11.05637
G1 X128.108 Y133.8 E11.10503
G1 X127.734 Y134.039 E11.14046
G1 X127.176 Y134.371 E11.19229
G1 X126.584 Y134.698 E11.24628
G1 X125.952 Y135.016 E11.30275
G1 X125.136 Y135.393 E11.3745
G1 X124.32 Y135.725 E11.44482
G1 X124.306 Y135.717 E11.44611
G1 X123.858 Y135.88 E11.48417
G1 X122.886 Y136.191 E11.56563
G1 X122.506 Y136.293 E11.59704
G1 X121.528 Y136.527 E11.67731
G1 X120.866 Y136.655 E11.73113
G1 X120.296 Y136.746 E11.77721
G1 X119.565 Y136.839 E11.83603
G1 X118.78 Y136.906 E11.89892
G1 X118.043 Y136.942 E11.95782
G1 X117.497 Y136.949 E12.00141
G1 X116.768 Y136.936 E12.05961
G1 X116.211 Y136.909 E12.10412
G1 X115.549 Y136.852 E12.15716
G1 X114.431 Y136.711 E12.24711
G1 X113.372 Y136.507 E12.3332
G1 X112.515 Y136.3 E12.40358
G1 X112.171 Y136.207 E12.43202
G1 X111.756 Y136.081 E12.46664
G1 X111.082 Y135.86 E12.52326
G1 X110.464 Y135.633 E12.57582
G1 X109.826 Y135.372 E12.63084
G1 X108.947 Y134.968 E12.70806
G1 X108.316 Y134.644 E12.76469
G1 X107.791 Y134.353 E12.8126
G1 X107.161 Y133.974 E12.87129
G1 X106.902 Y133.809 E12.8958
G1 X106.374 Y133.453 E12.94663
G1 X105.787 Y133.025 E13.00462
G1 X105.305 Y132.654 E13.05318
G1 X104.747 Y132.185 E13.11136
G1 X104.242 Y131.729 E13.16568
G1 X103.698 Y131.202 E13.22614
G1 X103.274 Y130.762 E13.27491
G1 X102.868 Y130.313 E13.32323
G1 X102.414 Y129.776 E13.37936
G1 X101.963 Y129.198 E13.43789
G1 X101.5 Y128.554 E13.5012
G1 X101.201 Y128.111 E13.54386
G1 X100.694 Y127.289 E13.62096
G1 X100.227 Y126.469 E13.69628
G1 X100.235 Y126.455 E13.69757
G1 X100.003 Y125.993 E13.73884
G1 X99.549 Y125.014 E13.82498
G1 X99.557 Y125.002 E13.82613
G1 X99.339 Y124.456 E13.87306
G1 X99.108 Y123.821 E13.927
G1 X98.904 Y123.199 E13.97925
G1 X98.753 Y122.709 E14.02018
G1 X98.489 Y121.609 E14.11048
G1 X98.33 Y120.787 E14.17731
G1 X98.207 Y120.044 E14.23743
G1 X98.219 Y120.032 E14.23878
G1 X98.147 Y119.43 E14.28718
G1 X98.087 Y118.678 E14.3474
G1 X98.06 Y118.128 E14.39136
G1 X98.051 Y117.507 E14.44093
G1 X98.06 Y116.876 E14.49131
G1 X98.091 Y116.211 E14.54445
G1 X98.205 Y115.022 E14.63979
G1 X98.339 Y114.167 E14.70888
G1 X98.491 Y113.385 E14.77247
G1 X98.832 Y112.018 E14.88493
G1 X99.033 Y111.363 E14.93962
G1 X99.049 Y111.355 E14.94105
G1 X99.276 Y110.708 E14.99578
G1 X99.266 Y110.695 E14.99709
G1 X99.463 Y110.196 E15.03992
G1 X99.475 Y110.194 E15.04089
G1 X99.985 Y109.043 E15.14138
G1 X100.351 Y108.322 E15.20592
G1 X100.636 Y107.805 E15.25305
G1 X101.175 Y106.927 E15.33529
G1 X101.563 Y106.35 E15.39079
G1 X102.001 Y105.752 E15.44996
G1 X102.348 Y105.31 E15.49482
G1 X102.835 Y104.725 E15.55558
G1 X103.283 Y104.226 E15.60911
G1 X103.701 Y103.793 E15.65715
G0 F15000 X104.03 Y104.03
G1 F2250 X108.91 Y108.91 E16.20805
G1 F2700 E11.20805
G1 F300 Z0.44
G0 F15000 X107.853 Y110.116 Z0.44
G1 F300 Z0.24
G1 F2700 E16.20805
G1 F2250 X102.949 Y105.211 E16.76171
G1 F2700 E11.76171
G1 F300 Z0.44
G0 F15000 X101.959 Y106.484 Z0.44
G1 F300 Z0.24
G1 F2700 E16.76171
G1 F2250 X106.95 Y111.476 E17.32519
G1 F2700 E12.32519
G1 F300 Z0.44
G0 F15000 X106.222 Y113.01 Z0.44
G1 F300 Z0.24
G1 F2700 E17.32519
G1 F2250 X101.071 Y107.859 E17.90668
G1 F2700 E12.90668
G1 F300 Z0.44
G0 F15000 X100.29 Y109.341 Z0.44
G1 F300 Z0.24
G1 F2700 E17.90668
G1 F2250 X105.675 Y114.726 E18.51459
G1 F2700 E13.51459
G1 F300 Z0.44
G0 F15000 X105.381 Y116.695 Z0.44
G1 F300 Z0.24
G1 F2700 E18.51459
G1 F2250 X99.619 Y110.933 E19.16505
G1 F2700 E14.16505
G1 F300 Z0.44
G0 F15000 X99.084 Y112.66 Z0.44
G1 F300 Z0.24
G1 F2700 E19.16505
G1 F2250 X105.448 Y119.024 E19.88347
G1 F2700 E14.88347
G1 F300 Z0.44
G0 F15000 X106.255 Y122.094 Z0.44
G1 F300 Z0.24
G1 F2700 E19.88347
G1 F2250 X98.686 Y114.525 E20.73793
G1 F2700 E15.73793
G1 F300 Z0.44
G0 F15000 X98.474 Y116.576 Z0.44
G1 F300 Z0.24
G1 F2700 E20.73793
G1 F2250 X118.42 Y136.522 E22.98961
G1 F2700 E17.98961
G1 F300 Z0.44
G0 F15000 X120.472 Y136.311 Z0.44
G1 F300 Z0.24
G1 F2700 E22.98961
G1 F2250 X112.917 Y128.757 E23.84242
G1 F2700 E18.84242
G1 F300 Z0.44
G0 F15000 X115.972 Y129.549 Z0.44
G1 F300 Z0.24
G1 F2700 E23.84242
G1 F2250 X122.343 Y135.92 E24.56164
G1 F2700 E19.56164
G1 F300 Z0.44
G0 F15000 X124.064 Y135.378 Z0.44
G1 F300 Z0.24
G1 F2700 E24.56164
G1 F2250 X118.306 Y129.619 E25.21171
G1 F2700 E20.21171
G1 F300 Z0.44
G0 F15000 X120.273 Y129.324 Z0.44
G1 F300 Z0.24
G1 F2700 E25.21171
G1 F2250 X125.658 Y134.709 E25.81961
G1 F2700 E20.81961
G1 F300 Z0.44
G0 F15000 X127.137 Y133.926 Z0.44
G1 F300 Z0.24
G1 F2700 E25.81961
G1 F2250 X121.995 Y128.783 E26.40014
G1 F2700 E21.40014
G1 F300 Z0.44
G0 F15000 X123.524 Y128.049 Z0.44
G1 F300 Z0.24
G1 F2700 E26.40014
G1 F2250 X128.512 Y133.037 E26.96323
G1 F2700 E21.96323
G1 F300 Z0.44
G0 F15000 X129.787 Y132.05 Z0.44
G1 F300 Z0.24
G1 F2700 E26.96323
G1 F2250 X124.881 Y127.144 E27.51706
G1 F2700 E22.51706
G1 F300 Z0.44
G0 F15000 X126.089 Y126.089 Z0.44
G1 F300 Z0.24
G1 F2700 E27.51706
G1 F2250 X130.968 Y130.968 E28.06784
G1 F2700 E23.06784
G1 F300 Z0.44
G0 F15000 X132.05 Y129.787 Z0.44
G1 F300 Z0.24
G1 F2700 E28.06784
G1 F2250 X127.143 Y124.88 E28.62179
G1 F2700 E23.62179
G1 F300 Z0.44
G0 F15000 X128.049 Y123.523 Z0.44
G1 F300 Z0.24
G1 F2700 E28.62179
G1 F2250 X133.04 Y128.515 E29.18527
G1 F2700 E24.18527
G1 F300 Z0.44
G0 F15000 X133.928 Y127.139 Z0.44
G1 F300 Z0.24
G1 F2700 E29.18527
G1 F2250 X128.786 Y121.997 E29.76575
G1 F2700 E24.76575
G1 F300 Z0.44
G0 F15000 X129.324 Y120.273 Z0.44
G1 F300 Z0.24
G1 F2700 E29.76575
G1 F2250 X134.708 Y125.657 E30.37354
G1 F2700 E25.37354
G1 F300 Z0.44
G0 F15000 X135.377 Y124.064 Z0.44
G1 F300 Z0.24
G1 F2700 E30.37354
G1 F2250 X129.615 Y118.301 E31.02406
G1 F2700 E26.02406
G1 F300 Z0.44
G0 F15000 X129.553 Y115.977 Z0.44
G1 F300 Z0.24
G1 F2700 E31.02406
G1 F2250 X135.922 Y122.345 E31.74299
G1 F2700 E26.74299
G1 F300 Z0.44
G0 F15000 X136.31 Y120.471 Z0.44
G1 F300 Z0.24
G1 F2700 E31.74299
G1 F2250 X128.743 Y112.904 E32.59722
G1 F2700 E27.59722
G1 F300 Z0.44
G0 F15000 X135.095 Y110.205 Z0.44
G1 F300 Z0.24
G1 F2700 E32.59722
G1 F2250 X124.8 Y99.91 E33.75941
G1 F2700 E28.75941
G1 F300 Z0.44
G0 F15000 X121.505 Y98.878 Z0.44
G1 F300 Z0.24
G1 F2700 E33.75941
G1 F2250 X136.121 Y113.494 E35.40939
G1 F2700 E30.40939
G1 F300 Z0.44
G0 F15000 X136.497 Y116.132 Z0.44
G1 F300 Z0.24
G1 F2700 E35.40939
G1 F2250 X118.863 Y98.499 E37.40001
G1 F2700 E32.40001
G1 F300 Z0.44
G0 F15000 X116.577 Y98.475 Z0.44
G1 F300 Z0.24
G1 F2700 E37.40001
G1 F2250 X136.526 Y118.424 E39.65203
G1 F2700 E34.65203
G1 F300 Z0.44
G0 F15000 X122.113 Y106.274 Z0.44
G1 F300 Z0.24
G1 F2700 E39.65203
G1 F2250 X114.527 Y98.688 E40.5084
G1 F2700 E35.5084
G1 F300 Z0.44
G0 F15000 X112.655 Y99.079 Z0.44
G1 F300 Z0.24
G1 F2700 E40.5084
G1 F2250 X119.026 Y105.45 E41.22761
G1 F2700 E36.22761
G1 F300 Z0.44
G0 F15000 X116.693 Y105.379 Z0.44
G1 F300 Z0.24
G1 F2700 E41.22761
G1 F2250 X110.935 Y99.621 E41.87763
G1 F2700 E36.87763
G1 F300 Z0.44
G0 F15000 X109.341 Y100.29 Z0.44
G1 F300 Z0.24
G1 F2700 E41.87763
G1 F2250 X114.725 Y105.674 E42.48542
G1 F2700 E37.48542
G1 F300 Z0.44
G0 F15000 X113.003 Y106.215 Z0.44
G1 F300 Z0.24
G1 F2700 E42.48542
G1 F2250 X107.859 Y101.071 E43.06612
G1 F2700 E38.06612
G1 F300 Z0.44
G0 F15000 X106.486 Y101.96 Z0.44
G1 F300 Z0.24
G1 F2700 E43.06612
G1 F2250 X111.474 Y106.949 E43.62926
G1 F2700 E38.62926
G1 F300 Z0.44
G0 F15000 X110.117 Y107.854 Z0.44
G1 F300 Z0.24
G1 F2700 E43.62926
G1 F2250 X105.21 Y102.947 E44.18321
G1 F2700 E39.18321
G1 F300 Z0.44
G0 F15000 X98.502 Y118.867 Z0.44
G1 F300 Z0.24
G1 F2700 E44.18321
G1 F2250 X116.135 Y136.499 E46.17372
G1 F2700 E41.17372
G1 F300 Z0.44
