;FLAVOR:Marlin
;TIME:5920
;Filament used: 11.3708m
;Layer height: 0.4
;MINX:47.154
;MINY:82.4
;MINZ:0.24
;MAXX:152.6
;MAXY:152.6
;MAXZ:26.59
;Generated with Cura_SteamEngine 5.3.1
M140 S60
M105
M190 S60
M104 S230
M105
M109 S230
M82 ;absolute extrusion mode
; Ender 3 Custom Start G-code
G92 E0 ; Reset Extruder
G28 ; Home all axes
G1 Z2.0 F3000 ; Move Z Axis up little to prevent scratching of Heat Bed
G1 X0.1 Y20 Z0.3 F5000.0 ; Move to start position
G1 X0.1 Y200.0 Z0.3 F1500.0 E15 ; Draw the first line
G1 X0.4 Y200.0 Z0.3 F5000.0 ; Move to side a little
G1 X0.4 Y20 Z0.3 F1500.0 E30 ; Draw the second line
G92 E0 ; Reset Extruder
G1 Z2.0 F3000 ; Move Z Axis up little to prevent scratching of Heat Bed
G1 X5 Y20 Z0.3 F5000.0 ; Move over to prevent blob squish
G92 E0
G92 E0
G1 F2700 E-5
;LAYER_COUNT:63
;LAYER:-5
M107
G0 F15000 X60.47 Y107.477 Z0.24
;TYPE:SUPPORT-INTERFACE
G1 F2700 E0
G1 F2250 X59.959 Y107.806 E0.04851
G1 X59.502 Y108.134 E0.09342
G1 X58.992 Y108.547 E0.1458
G1 X58.649 Y108.85 E0.18233
G1 X58.378 Y109.105 E0.21204
G1 X57.922 Y109.58 E0.2646
G1 X57.649 Y109.891 E0.29763
G1 X57.291 Y110.329 E0.34279
G1 X56.998 Y110.746 E0.38347
G1 X56.987 Y110.749 E0.38438
G1 X56.803 Y111.015 E0.4102
G1 X56.586 Y111.355 E0.44239
G1 X56.363 Y111.732 E0.47736
G1 X55.976 Y112.473 E0.54409
G1 X55.649 Y113.241 E0.61072
G1 X55.403 Y113.95 E0.67063
G1 X55.237 Y114.519 E0.71794
G1 X55.17 Y114.784 E0.73976
G1 X55.05 Y115.358 E0.78657
G1 X54.95 Y115.986 E0.83733
G1 X54.905 Y116.384 E0.8693
G1 X54.871 Y116.783 E0.90127
G1 X54.847 Y117.494 E0.95806
G1 X54.87 Y118.21 E1.01524
G1 X54.903 Y118.606 E1.04696
G1 X54.948 Y119.01 E1.07941
G1 X54.991 Y119.306 E1.10328
G1 X55.086 Y119.841 E1.14666
G1 X55.173 Y120.236 E1.17894
G1 X55.28 Y120.65 E1.21308
G1 X55.46 Y121.236 E1.26201
G1 X55.669 Y121.81 E1.31077
G1 X55.805 Y122.138 E1.33912
G1 X55.98 Y122.527 E1.37317
G1 X56.269 Y123.097 E1.42418
G1 X56.465 Y123.446 E1.45613
G1 X56.842 Y124.042 E1.51243
G1 X57.043 Y124.337 E1.54092
G1 X57.275 Y124.653 E1.57221
G1 X57.659 Y125.122 E1.6206
G1 X58.104 Y125.615 E1.67361
G1 X58.508 Y126.021 E1.71933
G1 X58.805 Y126.291 E1.75137
G1 X59.271 Y126.684 E1.80003
G1 X59.63 Y126.958 E1.83608
G1 X59.913 Y127.161 E1.86388
G1 X60.63 Y127.617 E1.93171
G1 X60.886 Y127.768 E1.95544
G1 X61.334 Y128.004 E1.99586
G1 X61.935 Y128.283 E2.04875
G1 X62.388 Y128.471 E2.0879
G1 X63.062 Y128.703 E2.1448
G1 X63.71 Y128.879 E2.1984
G1 X63.717 Y128.875 E2.19904
G1 X64.253 Y129.012 E2.2432
G1 X64.643 Y129.083 E2.27485
G1 X65.042 Y129.143 E2.30706
G1 X65.492 Y129.197 E2.34323
G1 X65.912 Y129.227 E2.37685
G1 X66.291 Y129.243 E2.40713
G1 X66.696 Y129.248 E2.43946
G1 X67.155 Y129.237 E2.47611
G1 X67.682 Y129.2 E2.51828
G1 X68.144 Y129.147 E2.5554
G1 X68.502 Y129.085 E2.5844
G1 X68.514 Y129.095 E2.58565
G1 X69.41 Y128.913 E2.65863
G1 X70.155 Y128.698 E2.72053
G1 X70.609 Y128.547 E2.75872
G1 X71.084 Y128.358 E2.79953
G1 X71.739 Y128.07 E2.85664
G1 X72.346 Y127.747 E2.91153
G1 X72.741 Y127.514 E2.94814
G1 X73.083 Y127.296 E2.98051
G1 X73.505 Y127.005 E3.02143
G1 X73.782 Y126.8 E3.04894
G1 X74.19 Y126.469 E3.09088
G1 X74.398 Y126.289 E3.11283
G1 X74.842 Y125.872 E3.16146
G1 X75.264 Y125.431 E3.21018
G1 X75.669 Y124.969 E3.25922
G1 X75.913 Y124.66 E3.29065
G1 X76.286 Y124.149 E3.34115
G1 X76.618 Y123.636 E3.38993
G1 X76.848 Y123.245 E3.42614
G1 X77.107 Y122.753 E3.47052
G1 X77.476 Y121.92 E3.54325
G1 X77.472 Y121.909 E3.54418
G1 X77.706 Y121.331 E3.59396
G1 X77.858 Y120.854 E3.63392
G1 X77.976 Y120.427 E3.66928
G1 X78.113 Y119.838 E3.71756
G1 X78.182 Y119.457 E3.74846
G1 X78.242 Y119.056 E3.78083
G1 X78.296 Y118.607 E3.81693
G1 X78.326 Y118.187 E3.85054
G1 X78.347 Y117.584 E3.8987
G1 X78.343 Y117.189 E3.93024
G1 X78.327 Y116.799 E3.96139
G1 X78.275 Y116.2 E4.00939
G1 X78.186 Y115.548 E4.06192
G1 X78.104 Y115.118 E4.09686
G1 X77.97 Y114.547 E4.14368
G1 X77.803 Y113.963 E4.19216
G1 X77.704 Y113.657 E4.21784
G1 X77.521 Y113.17 E4.25936
G1 X77.381 Y112.833 E4.28849
G1 X77.085 Y112.199 E4.34435
G1 X76.833 Y111.726 E4.38713
G1 X76.62 Y111.368 E4.42038
G1 X76.412 Y111.038 E4.45152
G1 X76.15 Y110.658 E4.48836
G1 X75.781 Y110.172 E4.53707
G1 X75.528 Y109.866 E4.56877
G1 X75.276 Y109.582 E4.59907
G1 X74.857 Y109.144 E4.64746
G1 X74.407 Y108.722 E4.6967
G1 X74.058 Y108.422 E4.73344
G1 X73.528 Y108.01 E4.78703
G1 X73.139 Y107.739 E4.82487
G1 X72.578 Y107.387 E4.87774
G1 X72.213 Y107.178 E4.91131
G1 X71.617 Y106.875 E4.96468
G1 X70.961 Y106.588 E5.02184
G1 X70.12 Y106.293 E5.09298
G1 X69.704 Y106.18 E5.12739
G1 X69.698 Y106.184 E5.12797
G1 X69.117 Y106.026 E5.17603
G1 X68.537 Y105.912 E5.22321
G1 X68.04 Y105.838 E5.26332
G1 X67.709 Y105.799 E5.28993
G1 X67.138 Y105.767 E5.33558
G1 X66.69 Y105.752 E5.37136
G1 X66.042 Y105.762 E5.42309
G1 X65.512 Y105.8 E5.46551
G1 X65.071 Y105.847 E5.50091
G1 X64.657 Y105.912 E5.53436
G1 X64.234 Y105.991 E5.56871
G1 X63.646 Y106.127 E5.61689
G1 X63.078 Y106.29 E5.66406
G1 X62.576 Y106.458 E5.70631
G1 X62.086 Y106.653 E5.74841
G1 X61.738 Y106.803 E5.77866
G1 X61.322 Y107.001 E5.81544
G1 X61.016 Y107.161 E5.843
G1 X60.47 Y107.477 E5.89336
G1 F2700 E0.89336
G1 F300 Z0.44
G0 F15000 X56.843 Y100.671 Z0.44
G1 F300 Z0.24
G1 F2700 E5.89336
G1 F2250 X57.471 Y100.326 E5.95056
G1 X58.055 Y100.025 E6.003
G1 X59.132 Y99.526 E6.09775
G1 X59.144 Y99.534 E6.0989
G1 X60.385 Y99.058 E6.205
G1 X60.398 Y99.066 E6.20622
G1 X60.881 Y98.91 E6.24674
G1 X61.502 Y98.73 E6.29835
G1 X62.52 Y98.483 E6.38197
G1 X63.333 Y98.326 E6.44806
G1 X64.028 Y98.21 E6.50431
G1 X64.041 Y98.222 E6.50572
G1 X64.533 Y98.161 E6.54529
G1 X65.318 Y98.094 E6.60818
G1 X66.056 Y98.058 E6.66716
G1 X66.603 Y98.051 E6.71083
G1 X67.331 Y98.064 E6.76895
G1 X67.888 Y98.091 E6.81347
G1 X68.579 Y98.152 E6.86884
G1 X69.037 Y98.204 E6.90563
G1 X69.677 Y98.29 E6.95718
G1 X70.727 Y98.494 E7.04256
G1 X71.581 Y98.699 E7.11267
G1 X72.775 Y99.046 E7.21192
G1 X72.782 Y99.062 E7.21332
G1 X73.524 Y99.325 E7.27616
G1 X74.189 Y99.592 E7.33336
G1 X74.775 Y99.859 E7.38476
G1 X75.415 Y100.1 E7.43935
G1 X76.075 Y100.26 E7.49356
G1 X76.712 Y100.33 E7.54472
G1 X77.415 Y100.323 E7.60084
G1 X78.108 Y100.224 E7.65672
G1 X78.741 Y100.05 E7.70912
G1 X79.394 Y99.779 E7.76556
G1 X79.976 Y99.445 E7.81912
G1 X80.517 Y99.036 E7.87326
G1 X80.998 Y98.57 E7.92672
G1 X81.441 Y98.012 E7.98359
G1 X81.792 Y97.428 E8.03798
G1 X82.07 Y96.797 E8.09302
G1 X82.262 Y96.153 E8.14666
G1 X82.371 Y95.487 E8.20053
G1 X82.4 Y94.95 E8.24346
G1 X82.387 Y85.095 E9.03013
G1 X82.4 Y85.083 E9.03154
G1 X82.419 Y84.773 E9.05634
G1 X82.489 Y84.36 E9.08977
G1 X82.617 Y83.98 E9.12178
G1 X82.826 Y83.59 E9.1571
G1 X83.056 Y83.29 E9.18728
G1 X83.381 Y82.976 E9.22335
G1 X83.714 Y82.754 E9.2553
G1 X84.122 Y82.561 E9.29132
G1 X84.499 Y82.459 E9.3225
G1 X84.951 Y82.4 E9.35889
G1 X149.869 Y82.4 E14.54092
G1 X150.237 Y82.422 E14.57035
G1 X150.6 Y82.481 E14.59971
G1 X150.989 Y82.608 E14.63237
G1 X151.409 Y82.825 E14.67011
G1 X151.738 Y83.078 E14.70324
G1 X152.024 Y83.381 E14.7365
G1 X152.246 Y83.711 E14.76825
G1 X152.441 Y84.124 E14.8047
G1 X152.54 Y84.495 E14.83535
G1 X152.6 Y84.948 E14.87183
G1 X152.6 Y149.86 E20.05339
G1 X152.578 Y150.238 E20.08361
G1 X152.519 Y150.6 E20.11289
G1 X152.385 Y151.015 E20.1477
G1 X152.175 Y151.41 E20.18341
G1 X151.928 Y151.732 E20.2158
G1 X151.643 Y152.001 E20.24709
G1 X151.262 Y152.263 E20.284
G1 X150.91 Y152.424 E20.3149
G1 X150.499 Y152.542 E20.34903
G1 X150.049 Y152.599 E20.38524
G1 X85.131 Y152.6 E25.56727
G1 X84.763 Y152.578 E25.5967
G1 X84.4 Y152.519 E25.62606
G1 X83.982 Y152.384 E25.66112
G1 X83.589 Y152.174 E25.69669
G1 X83.266 Y151.926 E25.7292
G1 X82.997 Y151.641 E25.76048
G1 X82.749 Y151.278 E25.79557
G1 X82.561 Y150.88 E25.83071
G1 X82.46 Y150.504 E25.86179
G1 X82.401 Y150.05 E25.89833
G1 X82.4 Y140.027 E26.69841
G1 X82.357 Y139.381 E26.75009
G1 X82.232 Y138.723 E26.80355
G1 X82.014 Y138.056 E26.85957
G1 X81.724 Y137.444 E26.91363
G1 X81.34 Y136.849 E26.97016
G1 X80.928 Y136.357 E27.02138
G1 X80.407 Y135.873 E27.07815
G1 X79.872 Y135.489 E27.13071
G1 X79.269 Y135.163 E27.18543
G1 X78.63 Y134.914 E27.24018
G1 X77.951 Y134.746 E27.29601
G1 X77.283 Y134.67 E27.34968
G1 X76.583 Y134.679 E27.40556
G1 X75.902 Y134.776 E27.46047
G1 X75.287 Y134.942 E27.51132
G1 X74.771 Y135.143 E27.55552
G1 X74.21 Y135.402 E27.60484
G1 X73.418 Y135.726 E27.67315
G1 X73.404 Y135.717 E27.67448
G1 X72.957 Y135.88 E27.71246
G1 X71.972 Y136.194 E27.79498
G1 X71.546 Y136.309 E27.83021
G1 X70.626 Y136.527 E27.90568
G1 X69.896 Y136.667 E27.96501
G1 X69.395 Y136.746 E28.0055
G1 X68.664 Y136.839 E28.06432
G1 X67.879 Y136.906 E28.12721
G1 X67.142 Y136.942 E28.18611
G1 X66.596 Y136.949 E28.2297
G1 X65.867 Y136.936 E28.2879
G1 X65.309 Y136.909 E28.33249
G1 X64.702 Y136.856 E28.38113
G1 X64.12 Y136.795 E28.42784
G1 X63.221 Y136.654 E28.50048
G1 X62.371 Y136.486 E28.56965
G1 X61.725 Y136.327 E28.62275
G1 X61.009 Y136.128 E28.68207
G1 X60.427 Y135.955 E28.73054
G1 X60.421 Y135.94 E28.73183
G1 X59.639 Y135.661 E28.79811
G1 X58.945 Y135.38 E28.85787
G1 X58.046 Y134.971 E28.93671
G1 X57.416 Y134.645 E28.99334
G1 X56.824 Y134.315 E29.04744
G1 X56 Y133.808 E29.12467
G1 X55.473 Y133.454 E29.17534
G1 X54.845 Y132.995 E29.23744
G1 X54.404 Y132.654 E29.28193
G1 X53.851 Y132.188 E29.33966
G1 X53.267 Y131.66 E29.40251
G1 X52.807 Y131.212 E29.45376
G1 X52.294 Y130.678 E29.51287
G1 X51.904 Y130.241 E29.55963
G1 X51.513 Y129.777 E29.60806
G1 X51.062 Y129.198 E29.66665
G1 X50.643 Y128.617 E29.72383
G1 X50.243 Y128.025 E29.78086
G1 X49.665 Y127.075 E29.86962
G1 X49.289 Y126.368 E29.93354
G1 X49.081 Y125.949 E29.97089
G1 X48.711 Y125.138 E30.04204
G1 X48.456 Y124.505 E30.09652
G1 X48.225 Y123.874 E30.15016
G1 X47.953 Y123.026 E30.22124
G1 X47.745 Y122.273 E30.2836
G1 X47.543 Y121.381 E30.35661
G1 X47.401 Y120.68 E30.4137
G1 X47.411 Y120.665 E30.41514
G1 X47.271 Y119.762 E30.48808
G1 X47.281 Y119.751 E30.48927
G1 X47.206 Y118.965 E30.5523
G1 X47.169 Y118.361 E30.6006
G1 X47.154 Y117.885 E30.63862
G1 X47.154 Y117.128 E30.69904
G1 X47.174 Y116.53 E30.7468
G1 X47.203 Y116.025 E30.78718
G1 X47.275 Y115.253 E30.84907
G1 X47.389 Y114.456 E30.91334
G1 X47.467 Y114.015 E30.94909
G1 X47.458 Y114.003 E30.95029
G1 X47.747 Y112.719 E31.05535
G1 X47.979 Y111.882 E31.12468
G1 X48.135 Y111.355 E31.16855
G1 X48.149 Y111.35 E31.16974
G1 X48.564 Y110.186 E31.26838
G1 X48.58 Y110.181 E31.26972
G1 X49.086 Y109.04 E31.36935
G1 X49.292 Y108.624 E31.40641
G1 X49.701 Y107.865 E31.47523
G1 X50.12 Y107.169 E31.54008
G1 X50.272 Y106.93 E31.56269
G1 X50.662 Y106.35 E31.61848
G1 X51.101 Y105.751 E31.67776
G1 X51.445 Y105.305 E31.72272
G1 X51.953 Y104.702 E31.78566
G1 X52.412 Y104.197 E31.84014
G1 X52.886 Y103.71 E31.89438
G1 X53.344 Y103.266 E31.9453
G1 X53.883 Y102.784 E32.00302
G1 X54.321 Y102.416 E32.04869
G1 X54.902 Y101.962 E32.10755
G1 X55.485 Y101.54 E32.165
G1 X56.002 Y101.192 E32.21474
G1 X56.843 Y100.671 E32.29371
G0 F15000 X57.677 Y100.669
G1 F2250 X62.926 Y105.918 E32.88627
G1 F2700 E27.88627
G1 F300 Z0.44
G0 F15000 X61.308 Y106.563 Z0.44
G1 F300 Z0.24
G1 F2700 E32.88627
G1 F2250 X56.251 Y101.506 E33.45714
G1 F2700 E28.45714
G1 F300 Z0.44
G0 F15000 X54.93 Y102.447 Z0.44
G1 F300 Z0.24
G1 F2700 E33.45714
G1 F2250 X59.869 Y107.386 E34.0147
G1 F2700 E29.0147
G1 F300 Z0.44
G0 F15000 X58.588 Y108.368 Z0.44
G1 F300 Z0.24
G1 F2700 E34.0147
G1 F2250 X53.702 Y103.482 E34.56628
G1 F2700 E29.56628
G1 F300 Z0.44
G0 F15000 X52.571 Y104.615 Z0.44
G1 F300 Z0.24
G1 F2700 E34.56628
G1 F2250 X57.458 Y109.501 E35.11791
G1 F2700 E30.11791
G1 F300 Z0.44
G0 F15000 X56.476 Y110.782 Z0.44
G1 F300 Z0.24
G1 F2700 E35.11791
G1 F2250 X51.536 Y105.841 E35.67563
G1 F2700 E30.67563
G1 F300 Z0.44
G0 F15000 X50.599 Y107.167 Z0.44
G1 F300 Z0.24
G1 F2700 E35.67563
G1 F2250 X55.654 Y112.223 E36.24634
G1 F2700 E31.24634
G1 F300 Z0.44
G0 F15000 X55.017 Y113.848 Z0.44
G1 F300 Z0.24
G1 F2700 E36.24634
G1 F2250 X49.761 Y108.593 E36.83963
G1 F2700 E31.83963
G1 F300 Z0.44
G0 F15000 X49.038 Y110.132 Z0.44
G1 F300 Z0.24
G1 F2700 E36.83963
G1 F2250 X54.592 Y115.686 E37.46661
G1 F2700 E32.46661
G1 F300 Z0.44
G0 F15000 X54.457 Y117.814 Z0.44
G1 F300 Z0.24
G1 F2700 E37.46661
G1 F2250 X48.424 Y111.781 E38.14767
G1 F2700 E33.14767
G1 F300 Z0.44
G0 F15000 X47.962 Y113.581 Z0.44
G1 F300 Z0.24
G1 F2700 E38.14767
G1 F2250 X54.809 Y120.429 E38.92067
G1 F2700 E33.92067
G1 F300 Z0.44
G0 F15000 X56.804 Y124.686 Z0.44
G1 F300 Z0.24
G1 F2700 E38.92067
G1 F2250 X47.649 Y115.532 E39.95411
G1 F2700 E34.95411
G1 F300 Z0.44
G0 F15000 X47.553 Y117.698 Z0.44
G1 F300 Z0.24
G1 F2700 E39.95411
G1 F2250 X66.398 Y136.543 E42.0815
G1 F2700 E37.0815
G1 F300 Z0.44
G0 F15000 X68.563 Y136.445 Z0.44
G1 F300 Z0.24
G1 F2700 E42.0815
G1 F2250 X59.414 Y127.296 E43.11432
G1 F2700 E38.11432
G1 F300 Z0.44
G0 F15000 X63.657 Y129.276 Z0.44
G1 F300 Z0.24
G1 F2700 E43.11432
G1 F2250 X70.519 Y136.138 E43.88896
G1 F2700 E38.88896
G1 F300 Z0.44
G0 F15000 X72.308 Y135.665 Z0.44
G1 F300 Z0.24
G1 F2700 E43.88896
G1 F2250 X66.286 Y129.643 E44.56877
G1 F2700 E39.56877
G1 F300 Z0.44
G0 F15000 X68.411 Y129.505 Z0.44
G1 F300 Z0.24
G1 F2700 E44.56877
G1 F2250 X73.971 Y135.065 E45.19643
G1 F2700 E40.19643
G1 F300 Z0.44
G0 F15000 X75.609 Y134.44 Z0.44
G1 F300 Z0.24
G1 F2700 E45.19643
G1 F2250 X70.253 Y129.085 E45.80101
G1 F2700 E40.80101
G1 F300 Z0.44
G0 F15000 X71.88 Y128.449 Z0.44
G1 F300 Z0.24
G1 F2700 E45.80101
G1 F2250 X77.753 Y134.322 E46.464
G1 F2700 E41.464
G1 F300 Z0.44
G0 F15000 X82.751 Y139.32 Z0.44
G1 F300 Z0.24
G1 F2700 E46.464
G1 F2250 X95.63 Y152.199 E47.9179
G1 F2700 E42.9179
G1 F300 Z0.44
G0 F15000 X93.367 Y152.199 Z0.44
G1 F300 Z0.24
G1 F2700 E47.9179
G1 F2250 X82.799 Y141.63 E49.11096
G1 F2700 E44.11096
G1 F300 Z0.44
G0 F15000 X82.8 Y143.894 Z0.44
G1 F300 Z0.24
G1 F2700 E49.11096
G1 F2250 X91.105 Y152.199 E50.0485
G1 F2700 E45.0485
G1 F300 Z0.44
G0 F15000 X88.842 Y152.199 Z0.44
G1 F300 Z0.24
G1 F2700 E50.0485
G1 F2250 X82.8 Y146.156 E50.73063
G1 F2700 E45.73063
G1 F300 Z0.44
G0 F15000 X82.8 Y148.42 Z0.44
G1 F300 Z0.24
G1 F2700 E50.73063
G1 F2250 X86.579 Y152.199 E51.15724
G1 F2700 E46.15724
G1 F300 Z0.44
G0 F15000 X84.12 Y152.003 Z0.44
G1 F300 Z0.24
G1 F2700 E51.15724
G1 F2250 X83.008 Y150.89 E51.28283
G1 F2700 E46.28283
G1 F300 Z0.44
G0 F15000 X97.893 Y152.199 Z0.44
G1 F300 Z0.24
G1 F2700 E51.28283
G1 F2250 X73.315 Y127.621 E54.0574
G1 F2700 E49.0574
G1 F300 Z0.44
G0 F15000 X74.599 Y126.642 Z0.44
G1 F300 Z0.24
G1 F2700 E54.0574
G1 F2250 X100.156 Y152.199 E56.9425
G1 F2700 E51.9425
G1 F300 Z0.44
G0 F15000 X102.418 Y152.199 Z0.44
G1 F300 Z0.24
G1 F2700 E56.9425
G1 F2250 X75.727 Y125.507 E59.95566
G1 F2700 E54.95566
G1 F300 Z0.44
G0 F15000 X76.709 Y124.227 Z0.44
G1 F300 Z0.24
G1 F2700 E59.95566
G1 F2250 X104.681 Y152.199 E63.11339
G1 F2700 E58.11339
G1 F300 Z0.44
G0 F15000 X106.944 Y152.199 Z0.44
G1 F300 Z0.24
G1 F2700 E63.11339
G1 F2250 X77.53 Y122.784 E66.43395
G1 F2700 E61.43395
G1 F300 Z0.44
G0 F15000 X78.177 Y121.169 Z0.44
G1 F300 Z0.24
G1 F2700 E66.43395
G1 F2250 X109.206 Y152.199 E69.93683
G1 F2700 E64.93683
G1 F300 Z0.44
G0 F15000 X111.469 Y152.199 Z0.44
G1 F300 Z0.24
G1 F2700 E69.93683
G1 F2250 X78.604 Y119.334 E73.64691
G1 F2700 E68.64691
G1 F300 Z0.44
G0 F15000 X78.743 Y117.21 Z0.44
G1 F300 Z0.24
G1 F2700 E73.64691
G1 F2250 X113.732 Y152.199 E77.59677
G1 F2700 E72.59677
G1 F300 Z0.44
G0 F15000 X115.995 Y152.199 Z0.44
G1 F300 Z0.24
G1 F2700 E77.59677
G1 F2250 X78.392 Y114.596 E81.84172
G1 F2700 E76.84172
G1 F300 Z0.44
G0 F15000 X76.452 Y110.393 Z0.44
G1 F300 Z0.24
G1 F2700 E81.84172
G1 F2250 X118.257 Y152.198 E86.56103
G1 F2700 E81.56103
G1 F300 Z0.44
G0 F15000 X120.519 Y152.198 Z0.44
G1 F300 Z0.24
G1 F2700 E86.56103
G1 F2250 X66.775 Y98.454 E92.62812
G1 F2700 E87.62812
G1 F300 Z0.44
G0 F15000 X64.614 Y98.555 Z0.44
G1 F300 Z0.24
G1 F2700 E92.62812
G1 F2250 X73.703 Y107.644 E93.65417
G1 F2700 E88.65417
G1 F300 Z0.44
G0 F15000 X69.514 Y105.718 Z0.44
G1 F300 Z0.24
G1 F2700 E93.65417
G1 F2250 X62.659 Y98.863 E94.42802
G1 F2700 E89.42802
G1 F300 Z0.44
G0 F15000 X60.868 Y99.335 Z0.44
G1 F300 Z0.24
G1 F2700 E94.42802
G1 F2250 X66.89 Y105.357 E95.10783
G1 F2700 E90.10783
G1 F300 Z0.44
