;FLAVOR:Marlin
;TIME:471
;Filament used: 0.82045m
;Layer height: 0.4
;MINX:96.901
;MINY:96.901
;MINZ:0.24
;MAXX:138.099
;MAXY:138.099
;MAXZ:6.59
;Generated with Cura_SteamEngine 5.3.1
M140 S60
M105
M190 S60
M104 S230
M105
M109 S230
M82 ;absolute extrusion mode
; Ender 3 Custom Start G-code
G92 E0 ; Reset Extruder
G28 ; Home all axes
G1 Z2.0 F3000 ; Move Z Axis up little to prevent scratching of Heat Bed
G1 X0.1 Y20 Z0.3 F5000.0 ; Move to start position
G1 X0.1 Y200.0 Z0.3 F1500.0 E15 ; Draw the first line
G1 X0.4 Y200.0 Z0.3 F5000.0 ; Move to side a little
G1 X0.4 Y20 Z0.3 F1500.0 E30 ; Draw the second line
G92 E0 ; Reset Extruder
G1 Z2.0 F3000 ; Move Z Axis up little to prevent scratching of Heat Bed
G1 X5 Y20 Z0.3 F5000.0 ; Move over to prevent blob squish
G92 E0
G92 E0
G1 F2700 E-5
;LAYER_COUNT:13
;LAYER:-5
M107
G0 F15000 X108.292 Y108.47 Z0.24
;TYPE:SUPPORT-INTERFACE
G1 F2700 E0
G1 F2250 X107.842 Y108.951 E0.05258
G1 X107.551 Y109.29 E0.08824
G1 X107.246 Y109.667 E0.12695
G1 X106.851 Y110.221 E0.18126
G1 X106.631 Y110.555 E0.21319
G1 X106.222 Y111.237 E0.27667
G1 X105.962 Y111.73 E0.32116
G1 X105.706 Y112.266 E0.36857
G1 X105.37 Y113.108 E0.44094
G1 X105.206 Y113.603 E0.48257
G1 X105.016 Y114.264 E0.53747
G1 X104.868 Y114.887 E0.58858
G1 X104.78 Y115.358 E0.62683
G1 X104.685 Y116.028 E0.68085
G1 X104.647 Y116.433 E0.71332
G1 X104.608 Y117.091 E0.76593
G1 X104.603 Y117.917 E0.83187
G1 X104.645 Y118.55 E0.88251
G1 X104.678 Y118.913 E0.9116
G1 X104.78 Y119.633 E0.96965
G1 X104.862 Y120.08 E1.00593
G1 X104.944 Y120.46 E1.03696
G1 X105.134 Y121.167 E1.0954
G1 X105.323 Y121.756 E1.14478
G1 X105.498 Y122.226 E1.18481
G1 X105.667 Y122.64 E1.2205
G1 X105.964 Y123.274 E1.27639
G1 X106.153 Y123.637 E1.30906
G1 X106.51 Y124.249 E1.36562
G1 X106.737 Y124.616 E1.40006
G1 X107.125 Y125.164 E1.45366
G1 X107.551 Y125.711 E1.509
G1 X107.837 Y126.044 E1.54404
G1 X108.205 Y126.443 E1.58737
G1 X108.464 Y126.702 E1.61661
G1 X108.935 Y127.143 E1.66812
G1 X109.278 Y127.439 E1.70428
G1 X109.65 Y127.725 E1.74174
G1 X109.651 Y127.74 E1.74294
G1 X110.214 Y128.145 E1.7983
G1 X110.562 Y128.375 E1.8316
G1 X111.342 Y128.834 E1.90384
G1 X111.733 Y129.04 E1.93912
G1 X112.362 Y129.334 E1.99454
G1 X112.743 Y129.489 E2.02737
G1 X113.414 Y129.735 E2.08442
G1 X114.258 Y129.983 E2.15464
G1 X114.535 Y130.053 E2.17745
G1 X115.34 Y130.217 E2.24303
G1 X116.01 Y130.313 E2.29706
G1 X116.433 Y130.353 E2.33097
G1 X117.093 Y130.392 E2.38375
G1 X117.914 Y130.397 E2.44929
G1 X118.537 Y130.361 E2.4991
G1 X118.905 Y130.323 E2.52863
G1 X119.655 Y130.216 E2.5891
G1 X120.055 Y130.143 E2.62156
G1 X120.497 Y130.05 E2.65762
G1 X121.161 Y129.867 E2.7126
G1 X121.755 Y129.678 E2.76235
G1 X122.232 Y129.499 E2.80302
G1 X122.646 Y129.33 E2.83872
G1 X123.274 Y129.036 E2.89407
G1 X123.64 Y128.845 E2.92702
G1 X124.255 Y128.486 E2.98387
G1 X124.616 Y128.263 E3.01774
G1 X125.171 Y127.87 E3.07202
G1 X125.716 Y127.445 E3.12719
G1 X126.044 Y127.163 E3.16172
G1 X126.442 Y126.797 E3.20488
G1 X126.708 Y126.53 E3.23497
G1 X127.158 Y126.049 E3.28755
G1 X127.443 Y125.717 E3.32247
G1 X127.764 Y125.321 E3.36316
G1 X128.149 Y124.78 E3.41617
G1 X128.381 Y124.43 E3.44969
G1 X128.772 Y123.766 E3.5112
G1 X129.037 Y123.271 E3.55602
G1 X129.299 Y122.721 E3.60465
G1 X129.491 Y122.254 E3.64495
G1 X129.743 Y121.565 E3.70351
G1 X129.988 Y120.727 E3.77321
G1 X130.056 Y120.446 E3.79629
G1 X130.217 Y119.661 E3.86025
G1 X130.315 Y118.973 E3.91573
G1 X130.353 Y118.569 E3.94812
G1 X130.392 Y117.909 E4.00089
G1 X130.398 Y117.099 E4.06555
G1 X130.377 Y116.741 E4.09418
G1 X130.319 Y116.062 E4.14858
G1 X130.216 Y115.337 E4.20703
G1 X130.139 Y114.919 E4.24096
G1 X130.013 Y114.366 E4.28623
G1 X129.861 Y113.841 E4.32986
G1 X129.869 Y113.829 E4.33101
G1 X129.673 Y113.231 E4.38125
G1 X129.4 Y112.521 E4.44197
G1 X129.242 Y112.158 E4.47357
G1 X129.027 Y111.709 E4.51331
G1 X128.848 Y111.365 E4.54426
G1 X128.424 Y110.636 E4.61158
G1 X128.156 Y110.232 E4.65028
G1 X127.856 Y109.81 E4.69161
G1 X127.444 Y109.284 E4.74494
G1 X127.163 Y108.956 E4.77942
G1 X126.797 Y108.558 E4.82258
G1 X126.196 Y107.975 E4.88942
G1 X125.88 Y107.693 E4.92323
G1 X125.344 Y107.261 E4.97818
G1 X124.783 Y106.853 E5.03355
G1 X124.438 Y106.625 E5.06656
G1 X123.766 Y106.228 E5.12887
G1 X123.257 Y105.955 E5.17497
G1 X122.842 Y105.758 E5.21164
G1 X122.476 Y105.598 E5.24353
G1 X121.879 Y105.365 E5.29468
G1 X121.381 Y105.199 E5.33659
G1 X120.739 Y105.016 E5.38988
G1 X120.463 Y104.947 E5.41259
G1 X119.655 Y104.782 E5.47841
G1 X119.037 Y104.694 E5.52824
G1 X118.567 Y104.647 E5.56595
G1 X117.907 Y104.608 E5.61872
G1 X117.086 Y104.603 E5.68426
G1 X116.463 Y104.639 E5.73407
G1 X116.095 Y104.677 E5.76361
G1 X115.343 Y104.784 E5.82424
G1 X114.945 Y104.857 E5.85654
G1 X114.503 Y104.95 E5.89259
G1 X113.839 Y105.133 E5.94757
G1 X113.245 Y105.322 E5.99733
G1 X112.768 Y105.501 E6.038
G1 X112.354 Y105.67 E6.07369
G1 X111.726 Y105.964 E6.12905
G1 X111.363 Y106.153 E6.16171
G1 X110.745 Y106.514 E6.21885
G1 X110.384 Y106.737 E6.25272
G1 X109.84 Y107.122 E6.30592
G1 X109.516 Y107.37 E6.33849
G1 X109.122 Y107.691 E6.37905
G1 X108.561 Y108.201 E6.43957
G1 X108.292 Y108.47 E6.46994
G1 F2700 E1.46994
G1 F300 Z0.44
G0 F15000 X102.748 Y103.125 Z0.44
G1 F300 Z0.24
G1 F2700 E6.46994
G1 F2250 X103.209 Y102.666 E6.52187
G1 X103.731 Y102.18 E6.5788
G1 X104.224 Y101.748 E6.63113
G1 X104.882 Y101.219 E6.69852
G1 X105.686 Y100.626 E6.77827
G1 X106.329 Y100.193 E6.84015
G1 X106.924 Y99.822 E6.89612
G1 X107.559 Y99.458 E6.95454
G1 X108.201 Y99.119 E7.0125
G1 X108.851 Y98.806 E7.07009
G1 X109.459 Y98.536 E7.12319
G1 X110.264 Y98.215 E7.19237
G1 X110.846 Y98.006 E7.24173
G1 X111.431 Y97.816 E7.29083
G1 X112.124 Y97.615 E7.34843
G1 X112.94 Y97.412 E7.41555
G1 X113.583 Y97.272 E7.46808
G1 X114.727 Y97.088 E7.56057
G1 X115.924 Y96.964 E7.65663
G1 X116.505 Y96.925 E7.70312
G1 X116.976 Y96.908 E7.74074
G1 X117.506 Y96.901 E7.78305
G1 X118.272 Y96.915 E7.8442
G1 X119.096 Y96.96 E7.91008
G1 X119.833 Y97.027 E7.96915
G1 X119.841 Y97.038 E7.97024
G1 X120.117 Y97.065 E7.99237
G1 X120.125 Y97.076 E7.99346
G1 X121.17 Y97.228 E8.07775
G1 X121.545 Y97.299 E8.10822
G1 X122.071 Y97.414 E8.1512
G1 X122.898 Y97.62 E8.21923
G1 X123.474 Y97.787 E8.2671
G1 X124.16 Y98.008 E8.32463
G1 X124.963 Y98.298 E8.39278
G1 X125.285 Y98.452 E8.42128
G1 X125.306 Y98.437 E8.42334
G1 X125.67 Y98.59 E8.45485
G1 X126.239 Y98.847 E8.50469
G1 X126.847 Y99.145 E8.55874
G1 X127.45 Y99.464 E8.6132
G1 X128.086 Y99.831 E8.67181
G1 X128.679 Y100.198 E8.72748
G1 X129.277 Y100.599 E8.78495
G1 X129.593 Y100.823 E8.81587
G1 X130.198 Y101.28 E8.87639
G1 X130.788 Y101.759 E8.93706
G1 X131.635 Y102.513 E9.02758
G1 X132.479 Y103.348 E9.12235
G1 X132.479 Y103.363 E9.12355
G1 X132.789 Y103.695 E9.1598
G1 X133.283 Y104.265 E9.22001
G1 X133.705 Y104.782 E9.27329
G1 X134.373 Y105.684 E9.36288
G1 X134.805 Y106.326 E9.42465
G1 X135.178 Y106.924 E9.48091
G1 X135.542 Y107.561 E9.53948
G1 X135.832 Y108.105 E9.58868
G1 X136.194 Y108.85 E9.6548
G1 X136.418 Y109.344 E9.6981
G1 X136.732 Y110.122 E9.76507
G1 X136.994 Y110.846 E9.82653
G1 X137.184 Y111.431 E9.87563
G1 X137.381 Y112.107 E9.93184
G1 X137.533 Y112.704 E9.98101
G1 X137.73 Y113.587 E10.05323
G1 X137.893 Y114.59 E10.13434
G1 X138.047 Y115.911 E10.24051
G1 X138.036 Y115.923 E10.2418
G1 X138.075 Y116.497 E10.28773
G1 X138.09 Y116.877 E10.31809
G1 X138.099 Y117.497 E10.36758
G1 X138.085 Y118.274 E10.42962
G1 X138.041 Y119.094 E10.49517
G1 X137.95 Y119.974 E10.56579
G1 X137.948 Y120.072 E10.57361
G1 X137.716 Y121.518 E10.69051
G1 X137.701 Y121.527 E10.69191
G1 X137.558 Y122.191 E10.74613
G1 X137.38 Y122.898 E10.80432
G1 X137.205 Y123.499 E10.85429
G1 X136.993 Y124.157 E10.90948
G1 X136.718 Y124.918 E10.97407
G1 X136.453 Y125.572 E11.03039
G1 X136.147 Y126.256 E11.09021
G1 X135.851 Y126.852 E11.14333
G1 X135.54 Y127.445 E11.19678
G1 X135.172 Y128.086 E11.25578
G1 X134.803 Y128.678 E11.31146
G1 X134.356 Y129.342 E11.37536
G1 X133.717 Y130.201 E11.46082
G1 X133.242 Y130.786 E11.52097
G1 X132.513 Y131.617 E11.60921
G1 X132.495 Y131.617 E11.61065
G1 X131.74 Y132.384 E11.69656
G1 X131.235 Y132.851 E11.75147
G1 X130.734 Y133.284 E11.80432
G1 X130.214 Y133.707 E11.85783
G1 X129.314 Y134.373 E11.9472
G1 X128.752 Y134.754 E12.0014
G1 X128.143 Y135.135 E12.05875
G1 X127.5 Y135.51 E12.11816
G1 X126.8 Y135.881 E12.1814
G1 X126.145 Y136.197 E12.23946
G1 X125.345 Y136.553 E12.30935
G1 X125.334 Y136.546 E12.31039
G1 X124.918 Y136.719 E12.34636
G1 X124.249 Y136.961 E12.40315
G1 X123.487 Y137.21 E12.46714
G1 X122.873 Y137.386 E12.51812
G1 X122.06 Y137.588 E12.58499
G1 X121.417 Y137.728 E12.63752
G1 X120.273 Y137.912 E12.73002
G1 X119.076 Y138.036 E12.82608
G1 X118.594 Y138.069 E12.86464
G1 X118.146 Y138.089 E12.90044
G1 X117.494 Y138.099 E12.95249
G1 X116.727 Y138.085 E13.01373
G1 X115.904 Y138.04 E13.07952
G1 X115.167 Y137.972 E13.1386
G1 X115.159 Y137.962 E13.13962
G1 X114.883 Y137.935 E13.16176
G1 X114.875 Y137.924 E13.16285
G1 X113.45 Y137.7 E13.27799
G1 X112.77 Y137.549 E13.33359
G1 X112.102 Y137.38 E13.3886
G1 X111.518 Y137.21 E13.43715
G1 X110.728 Y136.953 E13.50346
G1 X110.052 Y136.705 E13.56094
G1 X109.006 Y136.28 E13.65107
G1 X109.002 Y136.264 E13.65238
G1 X108.127 Y135.844 E13.72986
G1 X107.471 Y135.493 E13.78925
G1 X106.991 Y135.215 E13.83353
G1 X106.315 Y134.799 E13.89689
G1 X105.83 Y134.479 E13.94327
G1 X105.404 Y134.175 E13.98504
G1 X104.899 Y133.795 E14.03549
G1 X104.265 Y133.285 E14.10044
G1 X103.72 Y132.81 E14.15815
G1 X103.149 Y132.274 E14.22067
G1 X102.664 Y131.79 E14.27536
G1 X102.159 Y131.247 E14.33456
G1 X101.772 Y130.8 E14.38175
G1 X101.271 Y130.185 E14.44507
G1 X100.626 Y129.314 E14.53159
G1 X100.192 Y128.67 E14.59358
G1 X99.822 Y128.076 E14.64944
G1 X99.454 Y127.434 E14.70851
G1 X99.162 Y126.889 E14.75786
G1 X98.852 Y126.25 E14.81456
G1 X98.531 Y125.532 E14.87734
G1 X98.255 Y124.842 E14.93666
G1 X97.963 Y124.062 E15.00314
G1 X97.971 Y124.049 E15.00436
G1 X97.814 Y123.563 E15.04513
G1 X97.614 Y122.873 E15.10248
G1 X97.416 Y122.075 E15.16811
G1 X97.277 Y121.451 E15.21914
G1 X97.06 Y120.128 E15.32616
G1 X97.07 Y120.117 E15.32734
G1 X96.953 Y119.09 E15.40985
G1 X96.964 Y119.078 E15.41115
G1 X96.93 Y118.578 E15.45116
G1 X96.911 Y118.148 E15.48551
G1 X96.901 Y117.503 E15.53701
G1 X96.915 Y116.726 E15.59904
G1 X96.959 Y115.905 E15.66467
G1 X97.058 Y114.93 E15.7429
G1 X97.286 Y113.478 E15.86023
G1 X97.3 Y113.47 E15.86151
G1 X97.441 Y112.811 E15.91531
G1 X97.621 Y112.098 E15.97401
G1 X97.791 Y111.511 E16.02279
G1 X98.044 Y110.736 E16.08787
G1 X98.392 Y109.782 E16.16893
G1 X98.41 Y109.775 E16.17047
G1 X98.605 Y109.268 E16.21383
G1 X98.622 Y109.26 E16.21533
G1 X99.003 Y108.411 E16.28961
G1 X99.017 Y108.408 E16.29076
G1 X99.462 Y107.554 E16.36762
G1 X99.828 Y106.914 E16.42648
G1 X100.197 Y106.322 E16.48216
G1 X100.646 Y105.654 E16.54641
G1 X101.287 Y104.789 E16.63235
G1 X101.756 Y104.216 E16.69146
G1 X102.205 Y103.703 E16.74588
G1 X102.748 Y103.125 E16.80918
G0 F15000 X103.219 Y103.219
G1 F2250 X108.097 Y108.097 E17.35985
G1 F2700 E12.35985
G1 F300 Z0.44
G0 F15000 X107.032 Y109.295 Z0.44
G1 F300 Z0.24
G1 F2700 E17.35985
G1 F2250 X102.13 Y104.393 E17.91323
G1 F2700 E12.91323
G1 F300 Z0.44
G0 F15000 X101.136 Y105.662 Z0.44
G1 F300 Z0.24
G1 F2700 E17.91323
G1 F2250 X106.114 Y110.64 E18.47519
G1 F2700 E13.47519
G1 F300 Z0.44
G0 F15000 X105.333 Y112.121 Z0.44
G1 F300 Z0.24
G1 F2700 E18.47519
G1 F2250 X100.232 Y107.02 E19.05104
G1 F2700 E14.05104
G1 F300 Z0.44
G0 F15000 X99.429 Y108.48 Z0.44
G1 F300 Z0.24
G1 F2700 E19.05104
G1 F2250 X104.736 Y113.787 E19.65014
G1 F2700 E14.65014
G1 F300 Z0.44
G0 F15000 X104.335 Y115.649 Z0.44
G1 F300 Z0.24
G1 F2700 E19.65014
G1 F2250 X98.724 Y110.037 E20.28361
G1 F2700 E15.28361
G1 F300 Z0.44
G0 F15000 X98.145 Y111.722 Z0.44
G1 F300 Z0.24
G1 F2700 E20.28361
G1 F2250 X104.204 Y117.78 E20.96755
G1 F2700 E15.96755
G1 F300 Z0.44
G0 F15000 X104.511 Y120.35 Z0.44
G1 F300 Z0.24
G1 F2700 E20.96755
G1 F2250 X97.694 Y113.533 E21.73711
G1 F2700 E16.73711
G1 F300 Z0.44
G0 F15000 X97.401 Y115.503 Z0.44
G1 F300 Z0.24
G1 F2700 E21.73711
G1 F2250 X105.909 Y124.01 E22.69751
G1 F2700 E17.69751
G1 F300 Z0.44
G0 F15000 X99.488 Y126.641 Z0.44
G1 F300 Z0.24
G1 F2700 E22.69751
G1 F2250 X108.357 Y135.509 E23.69866
G1 F2700 E18.69866
G1 F300 Z0.44
G0 F15000 X112.06 Y136.951 Z0.44
G1 F300 Z0.24
G1 F2700 E23.69866
G1 F2250 X98.049 Y122.939 E25.2804
G1 F2700 E20.2804
G1 F300 Z0.44
G0 F15000 X97.461 Y120.089 Z0.44
G1 F300 Z0.24
G1 F2700 E25.2804
G1 F2250 X114.894 Y137.521 E27.24833
G1 F2700 E22.24833
G1 F300 Z0.44
G0 F15000 X117.33 Y137.694 Z0.44
G1 F300 Z0.24
G1 F2700 E27.24833
G1 F2250 X97.303 Y117.668 E29.5091
G1 F2700 E24.5091
G1 F300 Z0.44
G0 F15000 X109.296 Y107.033 Z0.44
G1 F300 Z0.24
G1 F2700 E29.5091
G1 F2250 X104.394 Y102.131 E30.06248
G1 F2700 E25.06248
G1 F300 Z0.44
G0 F15000 X105.665 Y101.139 Z0.44
G1 F300 Z0.24
G1 F2700 E30.06248
G1 F2250 X110.638 Y106.112 E30.62387
G1 F2700 E25.62387
G1 F300 Z0.44
G0 F15000 X112.123 Y105.335 Z0.44
G1 F300 Z0.24
G1 F2700 E30.62387
G1 F2250 X107.02 Y100.232 E31.19994
G1 F2700 E26.19994
G1 F300 Z0.44
G0 F15000 X108.48 Y99.429 Z0.44
G1 F300 Z0.24
G1 F2700 E31.19994
G1 F2250 X113.782 Y104.731 E31.79848
G1 F2700 E26.79848
G1 F300 Z0.44
G0 F15000 X115.649 Y104.335 Z0.44
G1 F300 Z0.24
G1 F2700 E31.79848
G1 F2250 X110.045 Y98.731 E32.43111
G1 F2700 E27.43111
G1 F300 Z0.44
G0 F15000 X111.723 Y98.147 Z0.44
G1 F300 Z0.24
G1 F2700 E32.43111
G1 F2250 X117.783 Y104.207 E33.11521
G1 F2700 E28.11521
G1 F300 Z0.44
G0 F15000 X120.355 Y104.516 Z0.44
G1 F300 Z0.24
G1 F2700 E33.11521
G1 F2250 X113.531 Y97.692 E33.88556
G1 F2700 E28.88556
G1 F300 Z0.44
G0 F15000 X115.51 Y97.408 Z0.44
G1 F300 Z0.24
G1 F2700 E33.88556
G1 F2250 X124.008 Y105.906 E34.84489
G1 F2700 E29.84489
G1 F300 Z0.44
G0 F15000 X126.645 Y99.492 Z0.44
G1 F300 Z0.24
G1 F2700 E34.84489
G1 F2250 X135.506 Y108.353 E35.8452
G1 F2700 E30.8452
G1 F300 Z0.44
G0 F15000 X136.95 Y112.06 Z0.44
G1 F300 Z0.24
G1 F2700 E35.8452
G1 F2250 X122.939 Y98.049 E37.42688
G1 F2700 E32.42688
G1 F300 Z0.44
G0 F15000 X120.104 Y97.476 Z0.44
G1 F300 Z0.24
G1 F2700 E37.42688
G1 F2250 X137.525 Y114.898 E39.39357
G1 F2700 E34.39357
G1 F300 Z0.44
G0 F15000 X137.696 Y117.331 Z0.44
G1 F300 Z0.24
G1 F2700 E39.39357
G1 F2250 X117.668 Y97.304 E41.65445
G1 F2700 E36.65445
G1 F300 Z0.44
G0 F15000 X129.091 Y110.989 Z0.44
G1 F300 Z0.24
G1 F2700 E41.65445
G1 F2250 X137.596 Y119.494 E42.61457
G1 F2700 E37.61457
G1 F300 Z0.44
G0 F15000 X137.305 Y121.466 Z0.44
G1 F300 Z0.24
G1 F2700 E42.61457
G1 F2250 X130.487 Y114.648 E43.38424
G1 F2700 E38.38424
G1 F300 Z0.44
G0 F15000 X130.795 Y117.219 Z0.44
G1 F300 Z0.24
G1 F2700 E43.38424
G1 F2250 X136.852 Y123.276 E44.06801
G1 F2700 E39.06801
G1 F300 Z0.44
G0 F15000 X136.27 Y124.957 Z0.44
G1 F300 Z0.24
G1 F2700 E44.06801
G1 F2250 X130.664 Y119.35 E44.70092
G1 F2700 E39.70092
G1 F300 Z0.44
G0 F15000 X130.261 Y121.21 Z0.44
G1 F300 Z0.24
G1 F2700 E44.70092
G1 F2250 X135.57 Y126.519 E45.30024
G1 F2700 E40.30024
G1 F300 Z0.44
G0 F15000 X134.767 Y127.979 Z0.44
G1 F300 Z0.24
G1 F2700 E45.30024
G1 F2250 X129.667 Y122.878 E45.87603
G1 F2700 E40.87603
G1 F300 Z0.44
G0 F15000 X128.885 Y124.36 Z0.44
G1 F300 Z0.24
G1 F2700 E45.87603
G1 F2250 X133.861 Y129.336 E46.43776
G1 F2700 E41.43776
G1 F300 Z0.44
G0 F15000 X132.868 Y130.605 Z0.44
G1 F300 Z0.24
G1 F2700 E46.43776
G1 F2250 X127.967 Y125.704 E46.99103
G1 F2700 E41.99103
G1 F300 Z0.44
G0 F15000 X126.9 Y126.9 Z0.44
G1 F300 Z0.24
G1 F2700 E46.99103
G1 F2250 X131.777 Y131.777 E47.54159
G1 F2700 E42.54159
G1 F300 Z0.44
G0 F15000 X130.604 Y132.866 Z0.44
G1 F300 Z0.24
G1 F2700 E47.54159
G1 F2250 X125.7 Y127.963 E48.09514
G1 F2700 E43.09514
G1 F300 Z0.44
G0 F15000 X124.36 Y128.886 Z0.44
G1 F300 Z0.24
G1 F2700 E48.09514
G1 F2250 X129.334 Y133.86 E48.65665
G1 F2700 E43.65665
G1 F300 Z0.44
G0 F15000 X127.977 Y134.766 Z0.44
G1 F300 Z0.24
G1 F2700 E48.65665
G1 F2250 X122.876 Y129.664 E49.23255
G1 F2700 E44.23255
G1 F300 Z0.44
G0 F15000 X121.216 Y130.267 Z0.44
G1 F300 Z0.24
G1 F2700 E49.23255
G1 F2250 X126.519 Y135.57 E49.8312
G1 F2700 E44.8312
G1 F300 Z0.44
