;FLAVOR:Marlin
;TIME:1001
;Filament used: 1.57053m
;Layer height: 0.4
;MINX:112.7
;MINY:12.7
;MINZ:0.2
;MAXX:122.3
;MAXY:222.3
;MAXZ:2
;Generated with Cura_SteamEngine 5.3.1
M140 S60
M105
M190 S60
M104 S230
M105
M109 S230
M82 ;absolute extrusion mode
; Ender 3 Custom Start G-code
G92 E0 ; Reset Extruder
G28 ; Home all axes
G1 Z2.0 F3000 ; Move Z Axis up little to prevent scratching of Heat Bed
G1 X0.1 Y20 Z0.3 F5000.0 ; Move to start position
G1 X0.1 Y200.0 Z0.3 F1500.0 E15 ; Draw the first line
G1 X0.4 Y200.0 Z0.3 F5000.0 ; Move to side a little
G1 X0.4 Y20 Z0.3 F1500.0 E30 ; Draw the second line
G92 E0 ; Reset Extruder
G1 Z2.0 F3000 ; Move Z Axis up little to prevent scratching of Heat Bed
G1 X5 Y20 Z0.3 F5000.0 ; Move over to prevent blob squish
G92 E0
G92 E0
G1 F2700 E-5
;LAYER_COUNT:6
;LAYER:0
M107
G1 F300 Z0.4
;MESH:Cube_Holder_TestFit_V1.stl
G0 F6000 X118.333 Y22.5 Z0.4
;TYPE:WALL-INNER
G1 F300 Z0.2
G1 F2700 E0
G1 F1200 X117.751 Y22.598 E0.01963
G1 X117.327 Y22.595 E0.03373
G1 X117.005 Y22.561 E0.0445
G1 X116.586 Y22.462 E0.05882
G1 X116.097 Y22.279 E0.07619
G1 X115.673 Y22.005 E0.09298
G1 X115.231 Y21.631 E0.11224
G1 X114.926 Y21.228 E0.12905
G1 X114.699 Y20.843 E0.14391
G1 X114.501 Y20.333 E0.16211
G1 X114.401 Y19.749 E0.18181
G1 X114.409 Y19.263 E0.19798
G1 X114.439 Y19.005 E0.20662
G1 X114.538 Y18.586 E0.22094
G1 X114.721 Y18.097 E0.2383
G1 X114.995 Y17.673 E0.2551
G1 X115.369 Y17.231 E0.27435
G1 X115.772 Y16.926 E0.29116
G1 X116.157 Y16.699 E0.30603
G1 X116.667 Y16.501 E0.32422
G1 X117.251 Y16.401 E0.34393
G1 X117.736 Y16.409 E0.36006
G1 X117.995 Y16.439 E0.36874
G1 X118.414 Y16.538 E0.38306
G1 X118.9 Y16.72 E0.40032
G1 X119.327 Y16.995 E0.41721
G1 X119.771 Y17.371 E0.43656
G1 X120.116 Y17.836 E0.45582
G1 X120.303 Y18.161 E0.46829
G1 X120.5 Y18.673 E0.48654
G1 X120.599 Y19.251 E0.50604
G1 X120.591 Y19.736 E0.52217
G1 X120.556 Y20.029 E0.53199
G1 X120.462 Y20.414 E0.54517
G1 X120.28 Y20.898 E0.56237
G1 X120.005 Y21.327 E0.57932
G1 X119.629 Y21.771 E0.59867
G1 X119.164 Y22.116 E0.61793
G1 X118.84 Y22.302 E0.63035
G1 X118.333 Y22.5 E0.64845
G1 F2700 E-4.35155
G1 F300 Z0.4
G0 F6000 X113.1 Y221.9 Z0.4
G1 F300 Z0.2
G1 F2700 E0.64845
G1 F1200 X121.9 Y221.9 E0.94114
G1 X121.9 Y13.1 E7.88586
G1 X113.101 Y13.101 E8.17852
G1 X113.1 Y221.9 E15.1232
G0 F6000 X112.7 Y222.3
;TYPE:WALL-OUTER
G1 F1200 X122.3 Y222.3 E15.4425
G1 X122.3 Y12.7 E22.41382
G1 X112.701 Y12.701 E22.73308
G1 X112.7 Y222.3 E29.70438
G1 F2700 E24.70438
G1 F300 Z0.4
G0 F6000 X118.204 Y22.116 Z0.4
G1 F300 Z0.2
G1 F2700 E29.70438
G1 F1200 X117.734 Y22.196 E29.72023
G1 X117.331 Y22.195 E29.73364
G1 X117.027 Y22.159 E29.74382
G1 X116.657 Y22.066 E29.75651
G1 X116.262 Y21.909 E29.77064
G1 X115.89 Y21.669 E29.78537
G1 X115.512 Y21.338 E29.80208
G1 X115.231 Y20.965 E29.81761
G1 X115.055 Y20.654 E29.8295
G1 X114.884 Y20.204 E29.84551
G1 X114.804 Y19.734 E29.86137
G1 X114.807 Y19.309 E29.8755
G1 X114.841 Y19.027 E29.88495
G1 X114.934 Y18.657 E29.89764
G1 X115.091 Y18.262 E29.91178
G1 X115.331 Y17.89 E29.9265
G1 X115.662 Y17.512 E29.94321
G1 X116.035 Y17.231 E29.95874
G1 X116.346 Y17.055 E29.97063
G1 X116.796 Y16.884 E29.98664
G1 X117.266 Y16.804 E30.0025
G1 X117.69 Y16.807 E30.0166
G1 X117.973 Y16.841 E30.02608
G1 X118.343 Y16.934 E30.03877
G1 X118.738 Y17.091 E30.05291
G1 X119.11 Y17.331 E30.06763
G1 X119.488 Y17.662 E30.08434
G1 X119.769 Y18.035 E30.09988
G1 X119.945 Y18.346 E30.11176
G1 X120.116 Y18.796 E30.12777
G1 X120.196 Y19.266 E30.14363
G1 X120.193 Y19.69 E30.15773
G1 X120.162 Y19.96 E30.16677
G1 X120.066 Y20.343 E30.1799
G1 X119.927 Y20.702 E30.19271
G1 X119.669 Y21.11 E30.20876
G1 X119.338 Y21.488 E30.22547
G1 X118.965 Y21.769 E30.24101
G1 X118.654 Y21.945 E30.25289
G1 X118.204 Y22.116 E30.2689
G1 F2700 E25.2689
G1 F300 Z0.4
G0 F6000 X113.46 Y221.54 Z0.4
;TYPE:SKIN
G1 F300 Z0.2
G1 F2700 E30.2689
G1 F1200 X113.462 Y21.156 E36.9337
G1 F1061.9 X113.514 Y20.581 E36.9554
G1 F914.3 X113.534 Y20.47 E36.96033
G1 F926.6 X113.506 Y19.761 E36.99089
G1 F975.6 X113.508 Y19.234 E37.01245
G1 F946.7 X113.522 Y18.826 E37.02966
G1 F1043.5 X113.462 Y18.364 E37.04748
G1 F1200 X113.462 Y13.462 E37.21052
G1 X121.54 Y13.461 E37.47919
G1 X121.54 Y17.835 E37.62467
G1 F1061.9 X121.489 Y18.431 E37.64715
G1 F916 X121.468 Y18.543 E37.65212
G1 F926.6 X121.495 Y19.244 E37.68234
G1 F954.3 X121.483 Y20.14 E37.71981
G1 F1050.3 X121.54 Y20.701 E37.74124
G1 F1200 X121.54 Y221.54 E44.42117
G1 X113.46 Y221.54 E44.68992
G1 F2700 E39.68992
G1 F300 Z0.4
G0 F6000 X114.075 Y20.423 Z0.4
G1 F300 Z0.2
G1 F2700 E44.68992
G1 F914.3 X114.109 Y20.469 E44.69241
G1 F1061.9 X114.38 Y21.011 E44.71519
G1 F1200 X114.58 Y21.357 E44.72848
G1 X114.982 Y21.895 E44.75082
G1 X115.428 Y22.274 E44.77028
G1 X115.917 Y22.592 E44.78968
G1 X116.404 Y22.782 E44.80707
G1 X116.917 Y22.915 E44.8247
G1 X117.306 Y22.954 E44.8377
G1 X117.802 Y22.957 E44.8542
G1 X118.403 Y22.854 E44.87448
G1 X118.995 Y22.629 E44.89554
G1 X119.426 Y22.374 E44.9122
G1 X119.861 Y22.047 E44.9303
G1 X120.262 Y21.592 E44.95047
G1 X120.616 Y21.036 E44.97239
G1 F1050.3 X120.97 Y20.096 E45.01056
G1 F948.6 X120.996 Y19.78 E45.0239
G1 F969.7 X121.002 Y19.194 E45.04802
G1 F924.9 X120.926 Y18.588 E45.07438
G1 F916 X120.892 Y18.542 E45.07687
G1 F1061.9 X120.614 Y17.973 E45.10067
G1 F1200 X120.362 Y17.556 E45.11688
G1 X120.015 Y17.104 E45.13583
G1 X119.589 Y16.738 E45.15451
G1 X119.079 Y16.406 E45.17475
G1 X118.602 Y16.22 E45.19178
G1 X118.163 Y16.104 E45.20688
G1 X117.781 Y16.052 E45.21971
G1 X117.204 Y16.044 E45.2389
G1 X116.553 Y16.157 E45.26088
G1 X116.017 Y16.367 E45.28002
G1 X115.643 Y16.58 E45.29434
G1 X115.105 Y16.982 E45.31667
G1 X114.726 Y17.428 E45.33614
G1 X114.388 Y17.957 E45.35702
G1 F1043.5 X114.04 Y18.861 E45.39407
G1 F944.9 X114.004 Y19.209 E45.40885
G1 F969.7 X113.997 Y19.812 E45.43367
G1 F923.1 X114.075 Y20.423 E45.4603
G1 F2700 E40.4603
G1 F300 Z0.4
G0 F6000 X121.142 Y13.662 Z0.4
G1 F300 Z0.2
G1 F2700 E45.4603
G1 F1200 X121.339 Y13.859 E45.46957
G0 F6000 X121.339 Y14.424
G1 F1200 X120.576 Y13.662 E45.50544
G0 F6000 X120.01 Y13.662
G1 F1200 X121.339 Y14.99 E45.56792
G0 F6000 X121.339 Y15.556
G1 F1200 X119.445 Y13.662 E45.65701
G0 F6000 X118.879 Y13.662
G1 F1200 X121.339 Y16.122 E45.77272
G0 F6000 X121.339 Y16.687
G1 F1200 X118.313 Y13.662 E45.91503
G0 F6000 X117.748 Y13.662
G1 F1200 X121.339 Y17.253 E46.08394
G0 F6000 X121.339 Y17.819
G1 F1200 X117.182 Y13.662 E46.27948
G0 F6000 X116.616 Y13.662
G1 F1200 X119.202 Y16.247 E46.40109
G0 F6000 X118.331 Y15.942
G1 F1200 X116.051 Y13.662 E46.50833
G0 F6000 X115.485 Y13.662
G1 F1200 X117.674 Y15.851 E46.6113
G0 F6000 X117.113 Y15.856
G1 F1200 X114.919 Y13.662 E46.7145
G0 F6000 X114.354 Y13.662
G1 F1200 X116.628 Y15.936 E46.82146
G0 F6000 X116.205 Y16.079
G1 F1200 X113.788 Y13.662 E46.93515
G0 F6000 X113.661 Y14.1
G1 F1200 X115.811 Y16.25 E47.03628
G0 F6000 X115.461 Y16.466
G1 F1200 X113.661 Y14.666 E47.12094
G0 F6000 X113.661 Y15.231
G1 F1200 X115.134 Y16.705 E47.19025
G0 F6000 X114.844 Y16.98
G1 F1200 X113.661 Y15.797 E47.2459
G0 F6000 X113.661 Y16.363
G1 F1200 X114.585 Y17.287 E47.28936
G0 F6000 X114.358 Y17.626
G1 F1200 X113.661 Y16.928 E47.32217
G0 F6000 X113.661 Y17.494
G1 F1200 X114.159 Y17.993 E47.34561
G0 F6000 X114.004 Y18.403
G1 F1200 X113.661 Y18.06 E47.36175
G1 F2700 E42.36175
G1 F300 Z0.4
G0 F6000 X113.702 Y20.929 Z0.4
G1 F300 Z0.2
G1 F2700 E47.36175
G1 F1200 X121.34 Y28.567 E47.72102
G0 F6000 X121.34 Y28.002
G1 F1200 X116.294 Y22.956 E47.95836
G0 F6000 X117.031 Y23.128
G1 F1200 X121.34 Y27.436 E48.16102
G0 F6000 X121.34 Y26.87
G1 F1200 X117.627 Y23.157 E48.33567
G0 F6000 X118.137 Y23.102
G1 F1200 X121.34 Y26.305 E48.48633
G0 F6000 X121.34 Y25.739
G1 F1200 X118.598 Y22.997 E48.61531
G0 F6000 X119.002 Y22.836
G1 F1200 X121.34 Y25.173 E48.72525
G0 F6000 X121.34 Y24.608
G1 F1200 X119.371 Y22.639 E48.81787
G0 F6000 X119.71 Y22.412
G1 F1200 X121.34 Y24.042 E48.89454
G0 F6000 X121.34 Y23.476
G1 F1200 X120.028 Y22.164 E48.95625
G0 F6000 X120.29 Y21.861
G1 F1200 X121.34 Y22.91 E49.00562
G0 F6000 X121.34 Y22.345
G1 F1200 X120.532 Y21.537 E49.04362
G0 F6000 X120.755 Y21.194
G1 F1200 X121.34 Y21.779 E49.07114
G0 F6000 X121.34 Y21.213
G1 F1200 X120.92 Y20.793 E49.0909
G0 F6000 X121.093 Y20.401
G1 F1200 X121.326 Y20.634 E49.10186
G1 F2700 E44.10186
G1 F300 Z0.4
G0 F6000 X121.258 Y18.304 Z0.4
G1 F300 Z0.2
G1 F2700 E49.10186
G1 F1200 X120.72 Y17.766 E49.12716
G1 F2700 E44.12716
G1 F300 Z0.4
G0 F6000 X113.66 Y21.453 Z0.4
G1 F300 Z0.2
G1 F2700 E49.12716
G1 F1200 X121.34 Y29.133 E49.48841
G0 F6000 X121.34 Y29.699
G1 F1200 X113.66 Y22.019 E49.84965
G0 F6000 X113.66 Y22.584
G1 F1200 X121.34 Y30.264 E50.21089
G0 F6000 X121.34 Y30.83
G1 F1200 X113.66 Y23.15 E50.57214
G0 F6000 X113.66 Y23.716
G1 F1200 X121.34 Y31.396 E50.93338
G0 F6000 X121.34 Y31.961
G1 F1200 X113.66 Y24.282 E51.2946
G0 F6000 X113.66 Y24.847
G1 F1200 X121.34 Y32.527 E51.65584
G0 F6000 X121.34 Y33.093
G1 F1200 X113.66 Y25.413 E52.01709
G0 F6000 X113.66 Y25.979
G1 F1200 X121.34 Y33.658 E52.37831
G0 F6000 X121.34 Y34.224
G1 F1200 X113.66 Y26.544 E52.73955
G0 F6000 X113.66 Y27.11
G1 F1200 X121.34 Y34.79 E53.10079
G0 F6000 X121.34 Y35.356
G1 F1200 X113.66 Y27.676 E53.46204
G0 F6000 X113.66 Y28.241
G1 F1200 X121.34 Y35.921 E53.82328
G0 F6000 X121.34 Y36.487
G1 F1200 X113.66 Y28.807 E54.18453
G0 F6000 X113.66 Y29.373
G1 F1200 X121.34 Y37.053 E54.54577
G0 F6000 X121.34 Y37.618
G1 F1200 X113.66 Y29.938 E54.90701
G0 F6000 X113.66 Y30.504
G1 F1200 X121.34 Y38.184 E55.26826
G0 F6000 X121.34 Y38.75
G1 F1200 X113.66 Y31.07 E55.6295
G0 F6000 X113.66 Y31.635
G1 F1200 X121.34 Y39.315 E55.99074
G0 F6000 X121.34 Y39.881
G1 F1200 X113.66 Y32.201 E56.35199
G0 F6000 X113.66 Y32.767
G1 F1200 X121.34 Y40.447 E56.71323
G0 F6000 X121.34 Y41.012
G1 F1200 X113.66 Y33.333 E57.07445
G0 F6000 X113.66 Y33.898
G1 F1200 X121.34 Y41.578 E57.4357
G0 F6000 X121.34 Y42.144
G1 F1200 X113.66 Y34.464 E57.79694
G0 F6000 X113.66 Y35.03
G1 F1200 X121.34 Y42.709 E58.15816
G0 F6000 X121.34 Y43.275
G1 F1200 X113.66 Y35.595 E58.5194
G0 F6000 X113.66 Y36.161
G1 F1200 X121.34 Y43.841 E58.88065
G0 F6000 X121.34 Y44.407
G1 F1200 X113.66 Y36.727 E59.24189
G0 F6000 X113.66 Y37.292
G1 F1200 X121.34 Y44.972 E59.60313
G0 F6000 X121.34 Y45.538
G1 F1200 X113.66 Y37.858 E59.96438
G0 F6000 X113.66 Y38.424
G1 F1200 X121.34 Y46.104 E60.32562
G0 F6000 X121.34 Y46.669
G1 F1200 X113.66 Y38.989 E60.68686
G0 F6000 X113.66 Y39.555
G1 F1200 X121.34 Y47.235 E61.04811
G0 F6000 X121.34 Y47.801
G1 F1200 X113.66 Y40.121 E61.40935
G0 F6000 X113.66 Y40.686
G1 F1200 X121.34 Y48.366 E61.7706
G0 F6000 X121.34 Y48.932
G1 F1200 X113.66 Y41.252 E62.13184
G0 F6000 X113.66 Y41.818
G1 F1200 X121.34 Y49.498 E62.49308
G0 F6000 X121.34 Y50.063
G1 F1200 X113.66 Y42.383 E62.85433
G0 F6000 X113.66 Y42.949
G1 F1200 X121.34 Y50.629 E63.21557
G0 F6000 X121.34 Y51.195
G1 F1200 X113.66 Y43.515 E63.57681
G0 F6000 X113.66 Y44.081
G1 F1200 X121.34 Y51.76 E63.93803
G0 F6000 X121.34 Y52.326
G1 F1200 X113.66 Y44.646 E64.29928
G0 F6000 X113.66 Y45.212
G1 F1200 X121.34 Y52.892 E64.66052
G0 F6000 X121.34 Y53.457
G1 F1200 X113.66 Y45.778 E65.02174
G0 F6000 X113.66 Y46.343
G1 F1200 X121.34 Y54.023 E65.38298
G0 F6000 X121.34 Y54.589
G1 F1200 X113.66 Y46.909 E65.74423
G0 F6000 X113.66 Y47.475
G1 F1200 X121.34 Y55.155 E66.10547
G0 F6000 X121.34 Y55.72
G1 F1200 X113.66 Y48.04 E66.46672
G0 F6000 X113.66 Y48.606
G1 F1200 X121.34 Y56.286 E66.82796
G0 F6000 X121.34 Y56.852
G1 F1200 X113.66 Y49.172 E67.1892
G0 F6000 X113.66 Y49.737
G1 F1200 X121.34 Y57.417 E67.55045
G0 F6000 X121.34 Y57.983
G1 F1200 X113.66 Y50.303 E67.91169
G0 F6000 X113.66 Y50.869
G1 F1200 X121.34 Y58.549 E68.27293
G0 F6000 X121.34 Y59.114
G1 F1200 X113.66 Y51.434 E68.63418
G0 F6000 X113.66 Y52
G1 F1200 X121.34 Y59.68 E68.99542
G0 F6000 X121.34 Y60.246
G1 F1200 X113.66 Y52.566 E69.35667
G0 F6000 X113.66 Y53.132
G1 F1200 X121.34 Y60.811 E69.71789
G0 F6000 X121.34 Y61.377
G1 F1200 X113.66 Y53.697 E70.07913
G0 F6000 X113.66 Y54.263
G1 F1200 X121.34 Y61.943 E70.44037
G0 F6000 X121.34 Y62.508
G1 F1200 X113.66 Y54.829 E70.80159
G0 F6000 X113.66 Y55.394
G1 F1200 X121.34 Y63.074 E71.16284
G0 F6000 X121.34 Y63.64
G1 F1200 X113.66 Y55.96 E71.52408
G0 F6000 X113.66 Y56.526
G1 F1200 X121.34 Y64.206 E71.88532
G0 F6000 X121.34 Y64.771
G1 F1200 X113.66 Y57.091 E72.24657
G0 F6000 X113.66 Y57.657
G1 F1200 X121.34 Y65.337 E72.60781
G0 F6000 X121.34 Y65.903
G1 F1200 X113.66 Y58.223 E72.96905
G0 F6000 X113.66 Y58.788
G1 F1200 X121.34 Y66.468 E73.3303
G0 F6000 X121.34 Y67.034
G1 F1200 X113.66 Y59.354 E73.69154
G0 F6000 X113.66 Y59.92
G1 F1200 X121.34 Y67.6 E74.05279
G0 F6000 X121.34 Y68.165
G1 F1200 X113.66 Y60.485 E74.41403
G0 F6000 X113.66 Y61.051
G1 F1200 X121.34 Y68.731 E74.77527
G0 F6000 X121.34 Y69.297
G1 F1200 X113.66 Y61.617 E75.13652
G0 F6000 X113.66 Y62.182
G1 F1200 X121.34 Y69.862 E75.49776
G0 F6000 X121.34 Y70.428
G1 F1200 X113.66 Y62.748 E75.859
G0 F6000 X113.66 Y63.314
G1 F1200 X121.34 Y70.994 E76.22025
G0 F6000 X121.34 Y71.559
G1 F1200 X113.66 Y63.88 E76.58147
G0 F6000 X113.66 Y64.445
G1 F1200 X121.34 Y72.125 E76.94271
G0 F6000 X121.34 Y72.691
G1 F1200 X113.66 Y65.011 E77.30395
G0 F6000 X113.66 Y65.577
G1 F1200 X121.34 Y73.256 E77.66518
G0 F6000 X121.34 Y73.822
G1 F1200 X113.66 Y66.142 E78.02642
G0 F6000 X113.66 Y66.708
G1 F1200 X121.34 Y74.388 E78.38766
G0 F6000 X121.34 Y74.954
G1 F1200 X113.66 Y67.274 E78.74891
G0 F6000 X113.66 Y67.839
G1 F1200 X121.34 Y75.519 E79.11015
G0 F6000 X121.34 Y76.085
G1 F1200 X113.66 Y68.405 E79.47139
G0 F6000 X113.66 Y68.971
G1 F1200 X121.34 Y76.651 E79.83264
G0 F6000 X121.34 Y77.216
G1 F1200 X113.66 Y69.536 E80.19388
G0 F6000 X113.66 Y70.102
G1 F1200 X121.34 Y77.782 E80.55512
G0 F6000 X121.34 Y78.348
G1 F1200 X113.66 Y70.668 E80.91637
G0 F6000 X113.66 Y71.233
G1 F1200 X121.34 Y78.913 E81.27761
G0 F6000 X121.34 Y79.479
G1 F1200 X113.66 Y71.799 E81.63886
G0 F6000 X113.66 Y72.365
G1 F1200 X121.34 Y80.045 E82.0001
G0 F6000 X121.34 Y80.61
G1 F1200 X113.66 Y72.93 E82.36134
G0 F6000 X113.66 Y73.496
G1 F1200 X121.34 Y81.176 E82.72259
G0 F6000 X121.34 Y81.742
G1 F1200 X113.66 Y74.062 E83.08383
G0 F6000 X113.66 Y74.628
G1 F1200 X121.34 Y82.307 E83.44505
G0 F6000 X121.34 Y82.873
G1 F1200 X113.66 Y75.193 E83.80629
G0 F6000 X113.66 Y75.759
G1 F1200 X121.34 Y83.439 E84.16754
G0 F6000 X121.34 Y84.004
G1 F1200 X113.66 Y76.325 E84.52876
G0 F6000 X113.66 Y76.89
G1 F1200 X121.34 Y84.57 E84.89
G0 F6000 X121.34 Y85.136
G1 F1200 X113.66 Y77.456 E85.25124
G0 F6000 X113.66 Y78.022
G1 F1200 X121.34 Y85.702 E85.61249
G0 F6000 X121.34 Y86.267
G1 F1200 X113.66 Y78.587 E85.97373
G0 F6000 X113.66 Y79.153
G1 F1200 X121.34 Y86.833 E86.33498
G0 F6000 X121.34 Y87.399
G1 F1200 X113.66 Y79.719 E86.69622
G0 F6000 X113.66 Y80.284
G1 F1200 X121.34 Y87.964 E87.05746
G0 F6000 X121.34 Y88.53
G1 F1200 X113.66 Y80.85 E87.41871
G0 F6000 X113.66 Y81.416
G1 F1200 X121.34 Y89.096 E87.77995
G0 F6000 X121.34 Y89.661
G1 F1200 X113.66 Y81.981 E88.14119
G0 F6000 X113.66 Y82.547
G1 F1200 X121.34 Y90.227 E88.50244
G0 F6000 X121.34 Y90.793
G1 F1200 X113.66 Y83.113 E88.86368
G0 F6000 X113.66 Y83.679
G1 F1200 X121.34 Y91.358 E89.2249
G0 F6000 X121.34 Y91.924
G1 F1200 X113.66 Y84.244 E89.58615
G0 F6000 X113.66 Y84.81
G1 F1200 X121.34 Y92.49 E89.94739
G0 F6000 X121.34 Y93.055
G1 F1200 X113.66 Y85.376 E90.30861
G0 F6000 X113.66 Y85.941
G1 F1200 X121.34 Y93.621 E90.66985
G0 F6000 X121.34 Y94.187
G1 F1200 X113.66 Y86.507 E91.0311
G0 F6000 X113.66 Y87.073
G1 F1200 X121.34 Y94.753 E91.39234
G0 F6000 X121.34 Y95.318
G1 F1200 X113.66 Y87.638 E91.75358
G0 F6000 X113.66 Y88.204
G1 F1200 X121.34 Y95.884 E92.11483
G0 F6000 X121.34 Y96.45
G1 F1200 X113.66 Y88.77 E92.47607
G0 F6000 X113.66 Y89.335
G1 F1200 X121.34 Y97.015 E92.83731
G0 F6000 X121.34 Y97.581
G1 F1200 X113.66 Y89.901 E93.19856
G0 F6000 X113.66 Y90.467
G1 F1200 X121.34 Y98.147 E93.5598
G0 F6000 X121.34 Y98.712
G1 F1200 X113.66 Y91.032 E93.92105
G0 F6000 X113.66 Y91.598
G1 F1200 X121.34 Y99.278 E94.28229
G0 F6000 X121.34 Y99.844
G1 F1200 X113.66 Y92.164 E94.64353
G0 F6000 X113.66 Y92.729
G1 F1200 X121.34 Y100.409 E95.00478
