;FLAVOR:Marlin
;TIME:1907
;Filament used: 3.30086m
;Layer height: 0.4
;MINX:79.7
;MINY:85.2
;MINZ:0.2
;MAXX:155.3
;MAXY:149.8
;MAXZ:7.2
;Generated with Cura_SteamEngine 5.3.1
M140 S60
M105
M190 S60
M104 S230
M105
M109 S230
M82 ;absolute extrusion mode
; Ender 3 Custom Start G-code
G92 E0 ; Reset Extruder
G28 ; Home all axes
G1 Z2.0 F3000 ; Move Z Axis up little to prevent scratching of Heat Bed
G1 X0.1 Y20 Z0.3 F5000.0 ; Move to start position
G1 X0.1 Y200.0 Z0.3 F1500.0 E15 ; Draw the first line
G1 X0.4 Y200.0 Z0.3 F5000.0 ; Move to side a little
G1 X0.4 Y20 Z0.3 F1500.0 E30 ; Draw the second line
G92 E0 ; Reset Extruder
G1 Z2.0 F3000 ; Move Z Axis up little to prevent scratching of Heat Bed
G1 X5 Y20 Z0.3 F5000.0 ; Move over to prevent blob squish
G92 E0
G92 E0
G1 F2700 E-5
;LAYER_COUNT:18
;LAYER:0
M107
G1 F300 Z0.4
;MESH:Cube_TestFit_V2.stl
G0 F6000 X89.519 Y148.861 Z0.4
;TYPE:WALL-INNER
G1 F300 Z0.2
G1 F2700 E0
G1 F1200 X89.4 Y148.5 E0.01264
G1 X89.4 Y93.422 E1.84454
G1 X89.534 Y93.121 E1.8555
G1 X89.682 Y92.99 E1.86208
G1 X89.924 Y92.9 E1.87066
G1 X145.079 Y92.9 E3.70513
G1 X145.318 Y92.99 E3.71362
G1 X145.466 Y93.121 E3.72019
G1 X145.6 Y93.422 E3.73115
G1 X145.6 Y148.5 E5.56306
G1 X145.481 Y148.861 E5.5757
G1 F1269.8 X145.1 Y149.07 E5.58936
G1 F1355.9 X117.55 Y149.072 E6.4003
G1 F1367.5 X90 Y149.075 E7.20436
G1 F1280 X89.519 Y148.861 E7.22078
G1 F2700 E2.22078
G1 F300 Z0.4
G0 F6000 X145 Y149.425 Z0.4
G1 F300 Z0.2
G1 F2700 E7.22078
G1 F1280 X145.75 Y149.4 E7.24418
G1 F1200 X154.9 Y149.4 E7.54851
G1 X154.9 Y85.6 E9.67051
G1 X80.101 Y85.601 E12.15833
G1 X80.1 Y149.4 E14.28029
G1 X89.25 Y149.4 E14.58462
G1 F1280 X90 Y149.425 E14.60802
G1 F1371.4 X145 Y149.425 E16.20867
G1 F2700 E11.20867
G1 F300 Z0.4
G0 F6000 X89.839 Y148.621 Z0.4
;TYPE:WALL-OUTER
G1 F300 Z0.2
G1 F2700 E16.20867
G1 F1200 X89.8 Y148.5 E16.2129
G1 X89.802 Y93.465 E18.04337
G1 X89.866 Y93.35 E18.04774
G1 X89.965 Y93.302 E18.0514
G1 X145.038 Y93.303 E19.88314
G1 X145.134 Y93.35 E19.88669
G1 X145.198 Y93.465 E19.89107
G1 X145.2 Y148.5 E21.72154
G1 X145.161 Y148.621 E21.72577
G1 X145.035 Y148.698 E21.73068
G1 X90 Y148.7 E23.56115
G1 X89.839 Y148.621 E23.56712
G1 F2700 E18.56712
G1 F300 Z0.4
G0 F6000 X79.7 Y149.8 Z0.4
G1 F300 Z0.2
G1 F2700 E23.56712
G1 F1200 X155.3 Y149.8 E26.08159
G1 X155.3 Y85.2 E28.23019
G1 X79.701 Y85.201 E30.74462
G1 X79.7 Y149.8 E32.89319
G1 F2700 E27.89319
G1 F300 Z0.4
G0 F6000 X89.213 Y149.039 Z0.4
;TYPE:SKIN
G1 F300 Z0.2
G1 F2700 E32.89319
G1 F1200 X80.46 Y149.04 E33.18432
G1 X80.462 Y85.962 E35.2823
G1 X154.54 Y85.96 E37.74615
G1 X154.54 Y149.04 E39.8442
G1 X145.791 Y149.04 E40.13519
G1 X145.96 Y148.533 E40.15296
G1 X145.956 Y93.357 E41.98813
G1 X145.758 Y92.904 E42.00457
G1 X145.506 Y92.683 E42.01572
G1 X145.148 Y92.543 E42.0285
G1 X89.869 Y92.542 E43.86709
G1 X89.495 Y92.681 E43.88036
G1 X89.242 Y92.905 E43.8916
G1 X89.044 Y93.357 E43.90801
G1 X89.04 Y148.532 E45.74314
G1 X89.213 Y149.039 E45.76096
G1 F2700 E40.76096
G1 F300 Z0.4
G0 F6000 X80.956 Y148.838 Z0.4
G1 F300 Z0.2
G1 F2700 E45.76096
G1 F1200 X80.66 Y148.542 E45.77488
G0 F6000 X80.66 Y147.976
G1 F1200 X81.522 Y148.838 E45.81543
G0 F6000 X82.088 Y148.838
G1 F1200 X80.66 Y147.411 E45.88257
G0 F6000 X80.66 Y146.845
G1 F1200 X82.653 Y148.838 E45.97632
G0 F6000 X83.219 Y148.838
G1 F1200 X80.66 Y146.279 E46.09668
G0 F6000 X80.66 Y145.714
G1 F1200 X83.785 Y148.838 E46.24365
G0 F6000 X84.35 Y148.838
G1 F1200 X80.66 Y145.148 E46.41722
G0 F6000 X80.66 Y144.582
G1 F1200 X84.915 Y148.838 E46.61738
G0 F6000 X85.481 Y148.838
G1 F1200 X80.66 Y144.017 E46.84415
G0 F6000 X80.66 Y143.451
G1 F1200 X86.047 Y148.838 E47.09754
G0 F6000 X86.612 Y148.838
G1 F1200 X80.66 Y142.885 E47.37752
G0 F6000 X80.66 Y142.32
G1 F1200 X87.178 Y148.838 E47.68411
G0 F6000 X87.744 Y148.838
G1 F1200 X80.66 Y141.754 E48.01732
G0 F6000 X80.66 Y141.188
G1 F1200 X88.309 Y148.838 E48.37713
G0 F6000 X88.875 Y148.838
G1 F1200 X80.66 Y140.623 E48.76354
G0 F6000 X80.66 Y140.057
G1 F1200 X88.84 Y148.237 E49.1483
G0 F6000 X88.84 Y147.671
G1 F1200 X80.66 Y139.491 E49.53306
G0 F6000 X80.66 Y138.925
G1 F1200 X88.84 Y147.105 E49.91782
G0 F6000 X88.84 Y146.54
G1 F1200 X80.66 Y138.36 E50.30259
G0 F6000 X80.66 Y137.794
G1 F1200 X88.84 Y145.974 E50.68735
G0 F6000 X88.84 Y145.408
G1 F1200 X80.66 Y137.228 E51.07211
G0 F6000 X80.66 Y136.663
G1 F1200 X88.84 Y144.843 E51.45687
G0 F6000 X88.84 Y144.277
G1 F1200 X80.66 Y136.097 E51.84163
G0 F6000 X80.66 Y135.531
G1 F1200 X88.84 Y143.711 E52.2264
G0 F6000 X88.84 Y143.145
G1 F1200 X80.66 Y134.966 E52.61113
G0 F6000 X80.66 Y134.4
G1 F1200 X88.84 Y142.58 E52.9959
G0 F6000 X88.84 Y142.014
G1 F1200 X80.66 Y133.834 E53.38066
G0 F6000 X80.66 Y133.269
G1 F1200 X88.84 Y141.448 E53.7654
G0 F6000 X88.84 Y140.883
G1 F1200 X80.66 Y132.703 E54.15016
G0 F6000 X80.66 Y132.137
G1 F1200 X88.84 Y140.317 E54.53492
G0 F6000 X88.84 Y139.751
G1 F1200 X80.66 Y131.572 E54.91966
G0 F6000 X80.66 Y131.006
G1 F1200 X88.84 Y139.186 E55.30442
G0 F6000 X88.84 Y138.62
G1 F1200 X80.66 Y130.44 E55.68918
G0 F6000 X80.66 Y129.875
G1 F1200 X88.84 Y138.054 E56.07392
G0 F6000 X88.84 Y137.489
G1 F1200 X80.66 Y129.309 E56.45869
G0 F6000 X80.66 Y128.743
G1 F1200 X88.84 Y136.923 E56.84345
G0 F6000 X88.84 Y136.357
G1 F1200 X80.66 Y128.177 E57.22821
G0 F6000 X80.66 Y127.612
G1 F1200 X88.84 Y135.792 E57.61297
G0 F6000 X88.84 Y135.226
G1 F1200 X80.66 Y127.046 E57.99773
G0 F6000 X80.66 Y126.48
G1 F1200 X88.84 Y134.66 E58.3825
G0 F6000 X88.84 Y134.095
G1 F1200 X80.66 Y125.915 E58.76726
G0 F6000 X80.66 Y125.349
G1 F1200 X88.84 Y133.529 E59.15202
G0 F6000 X88.84 Y132.963
G1 F1200 X80.66 Y124.783 E59.53678
G0 F6000 X80.66 Y124.218
G1 F1200 X88.84 Y132.397 E59.92152
G0 F6000 X88.84 Y131.832
G1 F1200 X80.66 Y123.652 E60.30628
G0 F6000 X80.66 Y123.086
G1 F1200 X88.84 Y131.266 E60.69104
G0 F6000 X88.84 Y130.7
G1 F1200 X80.66 Y122.521 E61.07578
G0 F6000 X80.66 Y121.955
G1 F1200 X88.84 Y130.135 E61.46055
G0 F6000 X88.84 Y129.569
G1 F1200 X80.66 Y121.389 E61.84531
G0 F6000 X80.66 Y120.824
G1 F1200 X88.84 Y129.003 E62.23005
G0 F6000 X88.84 Y128.438
G1 F1200 X80.66 Y120.258 E62.61481
G0 F6000 X80.66 Y119.692
G1 F1200 X88.84 Y127.872 E62.99957
G0 F6000 X88.84 Y127.306
G1 F1200 X80.66 Y119.126 E63.38433
G0 F6000 X80.66 Y118.561
G1 F1200 X88.84 Y126.741 E63.76909
G0 F6000 X88.84 Y126.175
G1 F1200 X80.66 Y117.995 E64.15386
G0 F6000 X80.661 Y117.43
G1 F1200 X88.84 Y125.609 E64.53857
G0 F6000 X88.84 Y125.044
G1 F1200 X80.661 Y116.864 E64.92331
G0 F6000 X80.661 Y116.299
G1 F1200 X88.84 Y124.478 E65.30803
G0 F6000 X88.84 Y123.912
G1 F1200 X80.661 Y115.733 E65.69274
G0 F6000 X80.661 Y115.167
G1 F1200 X88.84 Y123.346 E66.07746
G0 F6000 X88.84 Y122.781
G1 F1200 X80.661 Y114.602 E66.46217
G0 F6000 X80.661 Y114.036
G1 F1200 X88.84 Y122.215 E66.84689
G0 F6000 X88.84 Y121.649
G1 F1200 X80.661 Y113.47 E67.2316
G0 F6000 X80.661 Y112.905
G1 F1200 X88.84 Y121.084 E67.61632
G0 F6000 X88.84 Y120.518
G1 F1200 X80.661 Y112.339 E68.00103
G0 F6000 X80.661 Y111.773
G1 F1200 X88.84 Y119.952 E68.38575
G0 F6000 X88.84 Y119.387
G1 F1200 X80.661 Y111.208 E68.77046
G0 F6000 X80.661 Y110.642
G1 F1200 X88.84 Y118.821 E69.15518
G0 F6000 X88.84 Y118.255
G1 F1200 X80.661 Y110.076 E69.53989
G0 F6000 X80.661 Y109.511
G1 F1200 X88.84 Y117.69 E69.92461
G0 F6000 X88.84 Y117.124
G1 F1200 X80.661 Y108.945 E70.30932
G0 F6000 X80.661 Y108.379
G1 F1200 X88.84 Y116.558 E70.69404
G0 F6000 X88.84 Y115.993
G1 F1200 X80.661 Y107.813 E71.07878
G0 F6000 X80.661 Y107.248
G1 F1200 X88.84 Y115.427 E71.46349
G0 F6000 X88.84 Y114.861
G1 F1200 X80.661 Y106.682 E71.84821
G0 F6000 X80.661 Y106.116
G1 F1200 X88.84 Y114.296 E72.23294
G0 F6000 X88.84 Y113.73
G1 F1200 X80.661 Y105.551 E72.61766
G0 F6000 X80.661 Y104.985
G1 F1200 X88.84 Y113.164 E73.00237
G0 F6000 X88.84 Y112.598
G1 F1200 X80.661 Y104.419 E73.38709
G0 F6000 X80.661 Y103.854
G1 F1200 X88.84 Y112.033 E73.7718
G0 F6000 X88.84 Y111.467
G1 F1200 X80.661 Y103.288 E74.15652
G0 F6000 X80.661 Y102.722
G1 F1200 X88.84 Y110.901 E74.54123
G0 F6000 X88.84 Y110.336
G1 F1200 X80.661 Y102.157 E74.92595
G0 F6000 X80.661 Y101.591
G1 F1200 X88.84 Y109.77 E75.31066
G0 F6000 X88.84 Y109.204
G1 F1200 X80.661 Y101.025 E75.69538
G0 F6000 X80.661 Y100.46
G1 F1200 X88.84 Y108.639 E76.0801
G0 F6000 X88.84 Y108.073
G1 F1200 X80.661 Y99.894 E76.46481
G0 F6000 X80.661 Y99.328
G1 F1200 X88.84 Y107.507 E76.84953
G0 F6000 X88.84 Y106.942
G1 F1200 X80.661 Y98.763 E77.23424
G0 F6000 X80.661 Y98.197
G1 F1200 X88.84 Y106.376 E77.61896
G0 F6000 X88.84 Y105.81
G1 F1200 X80.661 Y97.631 E78.00367
G0 F6000 X80.661 Y97.065
G1 F1200 X88.84 Y105.245 E78.38841
G0 F6000 X88.84 Y104.679
G1 F1200 X80.661 Y96.5 E78.77312
G0 F6000 X80.661 Y95.934
G1 F1200 X88.84 Y104.113 E79.15784
G0 F6000 X88.84 Y103.548
G1 F1200 X80.661 Y95.368 E79.54258
G0 F6000 X80.661 Y94.803
G1 F1200 X88.84 Y102.982 E79.92729
G0 F6000 X88.84 Y102.416
G1 F1200 X80.661 Y94.237 E80.31201
G0 F6000 X80.661 Y93.671
G1 F1200 X88.84 Y101.85 E80.69672
G0 F6000 X88.84 Y101.285
G1 F1200 X80.661 Y93.106 E81.08144
G0 F6000 X80.661 Y92.54
G1 F1200 X88.84 Y100.719 E81.46615
G0 F6000 X88.84 Y100.153
G1 F1200 X80.661 Y91.974 E81.85087
G0 F6000 X80.661 Y91.409
G1 F1200 X88.84 Y99.588 E82.23558
G0 F6000 X88.84 Y99.022
G1 F1200 X80.661 Y90.843 E82.6203
G0 F6000 X80.661 Y90.277
G1 F1200 X88.84 Y98.456 E83.00501
G0 F6000 X88.84 Y97.891
G1 F1200 X80.661 Y89.712 E83.38973
G0 F6000 X80.661 Y89.146
G1 F1200 X88.84 Y97.325 E83.77444
G0 F6000 X88.84 Y96.759
G1 F1200 X80.661 Y88.58 E84.15916
G0 F6000 X80.661 Y88.014
G1 F1200 X88.84 Y96.194 E84.5439
G0 F6000 X88.84 Y95.628
G1 F1200 X80.661 Y87.449 E84.92861
G0 F6000 X80.661 Y86.883
G1 F1200 X88.84 Y95.062 E85.31333
G0 F6000 X88.84 Y94.497
G1 F1200 X80.661 Y86.317 E85.69807
G0 F6000 X81.07 Y86.161
G1 F1200 X88.84 Y93.931 E86.06354
G0 F6000 X88.84 Y93.365
G1 F1200 X81.636 Y86.161 E86.4024
G0 F6000 X82.201 Y86.161
G1 F1200 X88.999 Y92.959 E86.72215
G0 F6000 X89.241 Y92.635
G1 F1200 X82.767 Y86.161 E87.02667
G0 F6000 X83.333 Y86.161
G1 F1200 X89.598 Y92.427 E87.32138
G0 F6000 X90.081 Y92.343
G1 F1200 X83.898 Y86.161 E87.61219
G0 F6000 X84.464 Y86.161
G1 F1200 X90.646 Y92.343 E87.90297
G0 F6000 X91.212 Y92.343
G1 F1200 X85.03 Y86.161 E88.19375
G0 F6000 X85.595 Y86.161
G1 F1200 X91.778 Y92.343 E88.48456
G0 F6000 X92.343 Y92.343
G1 F1200 X86.161 Y86.161 E88.77534
G0 F6000 X86.727 Y86.161
G1 F1200 X92.909 Y92.343 E89.06612
G0 F6000 X93.475 Y92.343
G1 F1200 X87.293 Y86.161 E89.3569
G0 F6000 X87.858 Y86.161
G1 F1200 X94.04 Y92.343 E89.64769
G0 F6000 X94.606 Y92.343
G1 F1200 X88.424 Y86.161 E89.93847
G0 F6000 X88.99 Y86.161
G1 F1200 X95.172 Y92.343 E90.22925
G0 F6000 X95.738 Y92.343
G1 F1200 X89.555 Y86.161 E90.52006
G0 F6000 X90.121 Y86.161
G1 F1200 X96.303 Y92.343 E90.81084
G0 F6000 X96.869 Y92.343
G1 F1200 X90.687 Y86.161 E91.10162
G0 F6000 X91.252 Y86.161
G1 F1200 X97.435 Y92.343 E91.39243
G0 F6000 X98 Y92.343
G1 F1200 X91.818 Y86.161 E91.68321
G0 F6000 X92.384 Y86.161
G1 F1200 X98.566 Y92.343 E91.97399
G0 F6000 X99.131 Y92.343
G1 F1200 X92.949 Y86.161 E92.26478
G0 F6000 X93.515 Y86.161
G1 F1200 X99.697 Y92.343 E92.55556
G0 F6000 X100.262 Y92.343
G1 F1200 X94.081 Y86.161 E92.84632
G0 F6000 X94.646 Y86.161
G1 F1200 X100.828 Y92.343 E93.1371
G0 F6000 X101.394 Y92.343
G1 F1200 X95.212 Y86.161 E93.42788
G0 F6000 X95.778 Y86.161
G1 F1200 X101.959 Y92.343 E93.71864
G0 F6000 X102.525 Y92.343
G1 F1200 X96.344 Y86.161 E94.0094
G0 F6000 X96.909 Y86.161
G1 F1200 X103.091 Y92.343 E94.30018
G0 F6000 X103.656 Y92.343
G1 F1200 X97.475 Y86.161 E94.59094
G0 F6000 X98.041 Y86.161
G1 F1200 X104.222 Y92.343 E94.8817
G0 F6000 X104.788 Y92.343
G1 F1200 X98.606 Y86.161 E95.17248
G0 F6000 X99.172 Y86.161
G1 F1200 X105.353 Y92.343 E95.46324
G0 F6000 X105.919 Y92.343
G1 F1200 X99.738 Y86.161 E95.754
G0 F6000 X100.303 Y86.161
G1 F1200 X106.485 Y92.343 E96.04478
G0 F6000 X107.051 Y92.343
G1 F1200 X100.869 Y86.161 E96.33556
G0 F6000 X101.435 Y86.161
G1 F1200 X107.616 Y92.343 E96.62632
G0 F6000 X108.182 Y92.343
G1 F1200 X102 Y86.161 E96.9171
G0 F6000 X102.566 Y86.161
G1 F1200 X108.747 Y92.342 E97.20784
G0 F6000 X109.313 Y92.342
G1 F1200 X103.132 Y86.161 E97.49857
G0 F6000 X103.697 Y86.161
G1 F1200 X109.878 Y92.342 E97.78931
G0 F6000 X110.444 Y92.342
G1 F1200 X104.263 Y86.161 E98.08005
G0 F6000 X104.829 Y86.161
G1 F1200 X111.01 Y92.342 E98.37078
G0 F6000 X111.575 Y92.342
G1 F1200 X105.394 Y86.161 E98.66152
G0 F6000 X105.96 Y86.161
G1 F1200 X112.141 Y92.342 E98.95225
G0 F6000 X112.707 Y92.342
G1 F1200 X106.526 Y86.161 E99.24299
G0 F6000 X107.092 Y86.161
G1 F1200 X113.272 Y92.342 E99.5337
G0 F6000 X113.838 Y92.342
G1 F1200 X107.657 Y86.161 E99.82443
G0 F6000 X108.223 Y86.161
G1 F1200 X114.404 Y92.342 E100.11517
G0 F6000 X114.969 Y92.342
G1 F1200 X108.789 Y86.161 E100.40588
G0 F6000 X109.354 Y86.161
G1 F1200 X115.535 Y92.342 E100.69662
G0 F6000 X116.101 Y92.342
G1 F1200 X109.92 Y86.161 E100.98735
G0 F6000 X110.486 Y86.161
G1 F1200 X116.666 Y92.342 E101.27806
G0 F6000 X117.232 Y92.342
G1 F1200 X111.051 Y86.161 E101.5688
G0 F6000 X111.617 Y86.161
G1 F1200 X117.797 Y92.341 E101.85949
G0 F6000 X118.363 Y92.341
G1 F1200 X112.183 Y86.161 E102.15017
G0 F6000 X112.748 Y86.161
G1 F1200 X118.928 Y92.341 E102.44086
G0 F6000 X119.494 Y92.341
G1 F1200 X113.314 Y86.161 E102.73155
G0 F6000 X113.88 Y86.161
G1 F1200 X120.06 Y92.341 E103.02224
G0 F6000 X120.626 Y92.341
G1 F1200 X114.445 Y86.161 E103.31295
G0 F6000 X115.011 Y86.161
G1 F1200 X121.191 Y92.341 E103.60364
G0 F6000 X121.757 Y92.341
G1 F1200 X115.577 Y86.161 E103.89433
G0 F6000 X116.142 Y86.161
G1 F1200 X122.323 Y92.341 E104.18504
G0 F6000 X122.888 Y92.341
G1 F1200 X116.708 Y86.161 E104.47573
G0 F6000 X117.274 Y86.161
G1 F1200 X123.454 Y92.341 E104.76642
G0 F6000 X124.02 Y92.341
G1 F1200 X117.839 Y86.16 E105.05715
G0 F6000 X118.405 Y86.16
G1 F1200 X124.585 Y92.341 E105.34786
G0 F6000 X125.151 Y92.341
G1 F1200 X118.97 Y86.16 E105.6386
G0 F6000 X119.536 Y86.16
G1 F1200 X125.717 Y92.341 E105.92933
G0 F6000 X126.282 Y92.341
G1 F1200 X120.102 Y86.16 E106.22005
G0 F6000 X120.667 Y86.16
G1 F1200 X126.847 Y92.341 E106.51076
G0 F6000 X127.413 Y92.341
G1 F1200 X121.233 Y86.16 E106.80147
G0 F6000 X121.799 Y86.16
G1 F1200 X127.979 Y92.341 E107.09218
G0 F6000 X128.544 Y92.341
G1 F1200 X122.364 Y86.16 E107.38289
G0 F6000 X122.93 Y86.16
G1 F1200 X129.11 Y92.341 E107.6736
G0 F6000 X129.676 Y92.341
G1 F1200 X123.496 Y86.16 E107.96432
G0 F6000 X124.061 Y86.16
G1 F1200 X130.241 Y92.341 E108.25503
G0 F6000 X130.807 Y92.341
G1 F1200 X124.627 Y86.16 E108.54574
G0 F6000 X125.193 Y86.16
G1 F1200 X131.373 Y92.341 E108.83645
G0 F6000 X131.939 Y92.341
G1 F1200 X125.758 Y86.16 E109.12719
G0 F6000 X126.324 Y86.16
G1 F1200 X132.504 Y92.341 E109.4179
G0 F6000 X133.07 Y92.341
G1 F1200 X126.89 Y86.16 E109.70861
G0 F6000 X127.455 Y86.16
G1 F1200 X133.636 Y92.341 E109.99935
G0 F6000 X134.201 Y92.341
G1 F1200 X128.021 Y86.16 E110.29006
G0 F6000 X128.587 Y86.16
G1 F1200 X134.767 Y92.341 E110.58077
G0 F6000 X135.333 Y92.341
G1 F1200 X129.153 Y86.16 E110.87148
G0 F6000 X129.718 Y86.16
G1 F1200 X135.898 Y92.341 E111.16219
G0 F6000 X136.463 Y92.34
G1 F1200 X130.284 Y86.16 E111.45286
G0 F6000 X130.85 Y86.16
G1 F1200 X137.029 Y92.34 E111.74352
G0 F6000 X137.595 Y92.34
G1 F1200 X131.415 Y86.16 E112.03421
G0 F6000 X131.981 Y86.16
G1 F1200 X138.16 Y92.34 E112.32488
G0 F6000 X138.726 Y92.34
G1 F1200 X132.547 Y86.16 E112.61554
G0 F6000 X133.112 Y86.16
G1 F1200 X139.292 Y92.34 E112.90623
G0 F6000 X139.857 Y92.34
G1 F1200 X133.678 Y86.16 E113.19689
G0 F6000 X134.244 Y86.16
G1 F1200 X140.423 Y92.34 E113.48756
G0 F6000 X140.989 Y92.34
G1 F1200 X134.809 Y86.16 E113.77825
G0 F6000 X135.375 Y86.16
G1 F1200 X141.554 Y92.34 E114.06891
G0 F6000 X142.12 Y92.34
G1 F1200 X135.941 Y86.16 E114.35958
G0 F6000 X136.506 Y86.16
G1 F1200 X142.686 Y92.34 E114.65026
G0 F6000 X143.252 Y92.34
G1 F1200 X137.072 Y86.16 E114.94095
G0 F6000 X137.638 Y86.16
G1 F1200 X143.817 Y92.34 E115.23162
G0 F6000 X144.383 Y92.34
G1 F1200 X138.204 Y86.16 E115.52228
G0 F6000 X138.769 Y86.16
G1 F1200 X144.949 Y92.34 E115.81297
G1 F2700 E110.81297
G1 F300 Z0.4
