;FLAVOR:Marlin
;TIME:1885
;Filament used: 2.37929m
;Layer height: 0.4
;MINX:98.051
;MINY:98.051
;MINZ:0.24
;MAXX:136.949
;MAXY:136.949
;MAXZ:26.59
;Generated with Cura_SteamEngine 5.3.1
M140 S60
M105
M190 S60
M104 S230
M105
M109 S230
M82 ;absolute extrusion mode
; Ender 3 Custom Start G-code
G92 E0 ; Reset Extruder
G28 ; Home all axes
G1 Z2.0 F3000 ; Move Z Axis up little to prevent scratching of Heat Bed
G1 X0.1 Y20 Z0.3 F5000.0 ; Move to start position
G1 X0.1 Y200.0 Z0.3 F1500.0 E15 ; Draw the first line
G1 X0.4 Y200.0 Z0.3 F5000.0 ; Move to side a little
G1 X0.4 Y20 Z0.3 F1500.0 E30 ; Draw the second line
G92 E0 ; Reset Extruder
G1 Z2.0 F3000 ; Move Z Axis up little to prevent scratching of Heat Bed
G1 X5 Y20 Z0.3 F5000.0 ; Move over to prevent blob squish
G92 E0
G92 E0
G1 F2700 E-5
;LAYER_COUNT:63
;LAYER:-5
M107
G0 F15000 X109.375 Y109.009 Z0.24
;TYPE:SUPPORT-INTERFACE
G1 F2700 E0
G1 F2250 X108.832 Y109.57 E0.06232
G1 X108.527 Y109.916 E0.09914
G1 X108.336 Y110.148 E0.12313
G1 X107.949 Y110.659 E0.1743
G1 X107.594 Y111.182 E0.22475
G1 X107.45 Y111.411 E0.24635
G1 X107.166 Y111.908 E0.29204
G1 X107.001 Y112.225 E0.32057
G1 X106.803 Y112.645 E0.35763
G1 X106.658 Y112.978 E0.38662
G1 X106.505 Y113.36 E0.41947
G1 X106.319 Y113.904 E0.46536
G1 X106.129 Y114.558 E0.51973
G1 X105.995 Y115.115 E0.56546
G1 X105.91 Y115.582 E0.60335
G1 X105.858 Y115.922 E0.63081
G1 X105.823 Y116.224 E0.65507
G1 X105.775 Y116.787 E0.70018
G1 X105.757 Y117.164 E0.73031
G1 X105.752 Y117.6 E0.76511
G1 X105.774 Y118.2 E0.81304
G1 X105.798 Y118.592 E0.84439
G1 X105.909 Y119.415 E0.91068
G1 X105.983 Y119.822 E0.9437
G1 X106.158 Y120.581 E1.00588
G1 X106.307 Y121.062 E1.04607
G1 X106.499 Y121.629 E1.09386
G1 X106.64 Y121.98 E1.12405
G1 X106.904 Y122.576 E1.17608
G1 X107.255 Y123.251 E1.23682
G1 X107.474 Y123.627 E1.27155
G1 X107.696 Y123.978 E1.3047
G1 X107.944 Y124.337 E1.33953
G1 X108.318 Y124.83 E1.38893
G1 X108.524 Y125.082 E1.41491
G1 X109.007 Y125.623 E1.4728
G1 X109.355 Y125.966 E1.5118
G1 X109.694 Y126.279 E1.54864
G1 X110.157 Y126.671 E1.59706
G1 X110.661 Y127.053 E1.64754
G1 X111.007 Y127.294 E1.6812
G1 X111.362 Y127.519 E1.71475
G1 X111.74 Y127.741 E1.74974
G1 X112.135 Y127.955 E1.7856
G1 X112.642 Y128.197 E1.83045
G1 X112.992 Y128.348 E1.86088
G1 X113.358 Y128.494 E1.89233
G1 X113.915 Y128.685 E1.93934
G1 X114.535 Y128.865 E1.99087
G1 X115.084 Y128.998 E2.03596
G1 X115.58 Y129.09 E2.07623
G1 X115.923 Y129.142 E2.10392
G1 X116.216 Y129.176 E2.12747
G1 X116.786 Y129.225 E2.17313
G1 X117.186 Y129.243 E2.2051
G1 X117.593 Y129.248 E2.23759
G1 X118.2 Y129.226 E2.28607
G1 X118.592 Y129.202 E2.31742
G1 X119.415 Y129.091 E2.38371
G1 X119.822 Y129.017 E2.41673
G1 X120.42 Y128.88 E2.46571
G1 X121.06 Y128.694 E2.51891
G1 X121.621 Y128.503 E2.56621
G1 X121.98 Y128.36 E2.59706
G1 X122.585 Y128.092 E2.64988
G1 X123.257 Y127.742 E2.71036
G1 X123.632 Y127.522 E2.74507
G1 X123.985 Y127.3 E2.77835
G1 X124.344 Y127.051 E2.81323
G1 X124.834 Y126.68 E2.86229
G1 X125.479 Y126.132 E2.92985
G1 X125.947 Y125.672 E2.98223
G1 X126.469 Y125.087 E3.04482
G1 X126.674 Y124.839 E3.0705
G1 X127.054 Y124.338 E3.1207
G1 X127.299 Y123.986 E3.15493
G1 X127.523 Y123.632 E3.18837
G1 X127.745 Y123.252 E3.2235
G1 X127.914 Y122.939 E3.25189
G1 X128.199 Y122.352 E3.30398
G1 X128.54 Y121.517 E3.37598
G1 X128.531 Y121.5 E3.37751
G1 X128.692 Y121.069 E3.41424
G1 X128.92 Y120.28 E3.4798
G1 X129.089 Y119.425 E3.54937
G1 X129.136 Y119.118 E3.57416
G1 X129.177 Y118.776 E3.60166
G1 X129.224 Y118.224 E3.64588
G1 X129.242 Y117.84 E3.67656
G1 X129.249 Y117.408 E3.71105
G1 X129.226 Y116.798 E3.75978
G1 X129.188 Y116.415 E3.7905
G1 X129.199 Y116.402 E3.79186
G1 X129.09 Y115.578 E3.85821
G1 X128.936 Y114.786 E3.92262
G1 X128.685 Y113.908 E3.99551
G1 X128.5 Y113.368 E4.04107
G1 X128.357 Y113.014 E4.07155
G1 X128.14 Y112.539 E4.11324
G1 X128.15 Y112.522 E4.11481
G1 X127.745 Y111.751 E4.18433
G1 X127.513 Y111.353 E4.2211
G1 X127.14 Y110.778 E4.27581
G1 X126.671 Y110.155 E4.33806
G1 X126.3 Y109.714 E4.38406
G1 X125.99 Y109.374 E4.42079
G1 X125.43 Y108.832 E4.483
G1 X125.084 Y108.529 E4.51971
G1 X124.839 Y108.326 E4.54511
G1 X124.333 Y107.941 E4.59587
G1 X123.986 Y107.702 E4.6295
G1 X123.638 Y107.481 E4.66241
G1 X123.253 Y107.255 E4.69804
G1 X122.863 Y107.044 E4.73344
G1 X122.351 Y106.8 E4.77871
G1 X122.001 Y106.649 E4.80914
G1 X121.625 Y106.499 E4.84145
G1 X121.085 Y106.315 E4.88699
G1 X120.47 Y106.137 E4.9381
G1 X119.882 Y105.995 E4.98639
G1 X119.42 Y105.91 E5.02388
G1 X119.077 Y105.858 E5.05158
G1 X118.784 Y105.824 E5.07512
G1 X118.214 Y105.775 E5.12079
G1 X117.585 Y105.752 E5.17103
G1 X117.19 Y105.757 E5.20256
G1 X116.385 Y105.8 E5.26692
G1 X115.585 Y105.909 E5.33136
G1 X115.178 Y105.983 E5.36439
G1 X114.566 Y106.124 E5.41452
G1 X113.94 Y106.306 E5.46656
G1 X113.371 Y106.499 E5.51452
G1 X113.02 Y106.64 E5.54471
G1 X112.401 Y106.914 E5.59875
G1 X111.743 Y107.258 E5.65802
G1 X111.368 Y107.477 E5.69268
G1 X111.015 Y107.701 E5.72606
G1 X110.663 Y107.945 E5.76024
G1 X110.17 Y108.318 E5.80959
G1 X109.706 Y108.707 E5.85792
G1 X109.375 Y109.009 E5.89369
G1 F2700 E0.89369
G1 F300 Z0.44
G0 F15000 X103.667 Y103.829 Z0.44
G1 F300 Z0.24
G1 F2700 E5.89369
G1 F2250 X104.361 Y103.148 E5.97131
G1 X104.376 Y103.148 E5.9725
G1 X104.783 Y102.784 E6.01609
G1 X105.308 Y102.346 E6.07067
G1 X105.803 Y101.963 E6.12063
G1 X106.391 Y101.536 E6.17863
G1 X106.841 Y101.232 E6.22198
G1 X107.744 Y100.671 E6.30684
G1 X108.416 Y100.303 E6.368
G1 X109.047 Y99.985 E6.42441
G1 X110.056 Y99.531 E6.51273
G1 X110.682 Y99.274 E6.56674
G1 X110.696 Y99.283 E6.56807
G1 X111.225 Y99.091 E6.61299
G1 X111.711 Y98.93 E6.65386
G1 X112.556 Y98.691 E6.72396
G1 X113.473 Y98.473 E6.7992
G1 X114.134 Y98.345 E6.85294
G1 X114.822 Y98.237 E6.90853
G1 X115.528 Y98.152 E6.9653
G1 X116.219 Y98.094 E7.02065
G1 X116.893 Y98.06 E7.07452
G1 X117.504 Y98.051 E7.1233
G1 X118.232 Y98.064 E7.18142
G1 X118.789 Y98.091 E7.22593
G1 X119.48 Y98.152 E7.28131
G1 X119.981 Y98.208 E7.32155
G1 X120.578 Y98.29 E7.36965
G1 X121.628 Y98.494 E7.45503
G1 X122.486 Y98.7 E7.52547
G1 X122.831 Y98.793 E7.55399
G1 X123.671 Y99.044 E7.62397
G1 X123.679 Y99.061 E7.62547
G1 X124.814 Y99.465 E7.72164
G1 X124.819 Y99.481 E7.72298
G1 X125.96 Y99.987 E7.82261
G1 X126.587 Y100.304 E7.8787
G1 X127.265 Y100.679 E7.94054
G1 X127.832 Y101.021 E7.9934
G1 X128.189 Y101.253 E8.02739
G1 X128.743 Y101.63 E8.08088
G1 X129.171 Y101.942 E8.12316
G1 X129.695 Y102.347 E8.17602
G1 X130.243 Y102.807 E8.23313
G1 X130.619 Y103.138 E8.27312
G1 X131.291 Y103.787 E8.34769
G1 X131.692 Y104.203 E8.39382
G1 X132.219 Y104.787 E8.45661
G1 X132.582 Y105.219 E8.50165
G1 X133.013 Y105.768 E8.55737
G1 X133.457 Y106.381 E8.61779
G1 X133.825 Y106.93 E8.67054
G1 X134.329 Y107.744 E8.74697
G1 X134.698 Y108.416 E8.80816
G1 X135.016 Y109.043 E8.86428
G1 X135.45 Y109.98 E8.94671
G1 X135.442 Y109.993 E8.94793
G1 X135.66 Y110.54 E8.99493
G1 X135.906 Y111.218 E9.05251
G1 X136.08 Y111.75 E9.09719
G1 X136.264 Y112.366 E9.14851
G1 X136.509 Y113.383 E9.23201
G1 X136.656 Y114.133 E9.29302
G1 X136.76 Y114.8 E9.3469
G1 X136.848 Y115.519 E9.40473
G1 X136.901 Y116.146 E9.45495
G1 X136.94 Y116.876 E9.51331
G1 X136.949 Y117.411 E9.55602
G1 X136.94 Y118.125 E9.61302
G1 X136.911 Y118.784 E9.66568
G1 X136.847 Y119.588 E9.73006
G1 X136.835 Y119.599 E9.73136
G1 X136.754 Y120.248 E9.78356
G1 X136.563 Y121.393 E9.87623
G1 X136.181 Y122.953 E10.00443
G1 X136.167 Y122.96 E10.00568
G1 X135.964 Y123.643 E10.06256
G1 X135.95 Y123.65 E10.06381
G1 X135.638 Y124.521 E10.13766
G1 X135.373 Y125.17 E10.19362
G1 X135.015 Y125.954 E10.26242
G1 X134.649 Y126.679 E10.32725
G1 X134.363 Y127.196 E10.37441
G1 X133.98 Y127.83 E10.43354
G1 X133.434 Y128.654 E10.51244
G1 X132.981 Y129.277 E10.57393
G1 X132.685 Y129.651 E10.612
G1 X132.165 Y130.275 E10.67684
G1 X131.717 Y130.774 E10.73037
G1 X131.299 Y131.206 E10.77835
G1 X130.755 Y131.734 E10.83887
G1 X130.217 Y132.216 E10.89653
G1 X129.716 Y132.634 E10.94861
G1 X129.197 Y133.038 E11.00111
G1 X128.614 Y133.46 E11.05856
G1 X128.108 Y133.8 E11.10723
G1 X127.734 Y134.039 E11.14265
G1 X127.176 Y134.371 E11.19448
G1 X126.584 Y134.698 E11.24847
G1 X125.952 Y135.016 E11.30495
G1 X125.136 Y135.393 E11.3767
G1 X124.32 Y135.725 E11.44702
G1 X124.306 Y135.717 E11.44831
G1 X123.858 Y135.88 E11.48636
G1 X122.886 Y136.191 E11.56783
G1 X122.515 Y136.291 E11.5985
G1 X121.527 Y136.527 E11.67958
G1 X120.866 Y136.655 E11.73333
G1 X120.295 Y136.746 E11.77948
G1 X119.565 Y136.839 E11.83822
G1 X118.78 Y136.906 E11.90111
G1 X118.043 Y136.942 E11.96001
G1 X117.497 Y136.949 E12.0036
G1 X116.768 Y136.936 E12.0618
G1 X116.211 Y136.909 E12.10632
G1 X115.549 Y136.852 E12.15936
G1 X114.431 Y136.711 E12.24931
G1 X113.372 Y136.506 E12.33541
G1 X112.515 Y136.3 E12.40577
G1 X112.171 Y136.207 E12.43421
G1 X111.796 Y136.093 E12.4655
G1 X111.082 Y135.86 E12.52545
G1 X110.464 Y135.633 E12.57801
G1 X109.826 Y135.372 E12.63303
G1 X108.947 Y134.968 E12.71025
G1 X108.316 Y134.644 E12.76688
G1 X107.791 Y134.353 E12.81479
G1 X107.161 Y133.974 E12.87348
G1 X106.902 Y133.809 E12.89799
G1 X106.374 Y133.453 E12.94882
G1 X105.787 Y133.025 E13.00681
G1 X105.305 Y132.654 E13.05537
G1 X104.747 Y132.185 E13.11355
G1 X104.242 Y131.729 E13.16787
G1 X103.698 Y131.202 E13.22833
G1 X103.274 Y130.762 E13.2771
G1 X102.868 Y130.313 E13.32542
G1 X102.414 Y129.776 E13.38155
G1 X101.962 Y129.197 E13.44019
G1 X101.529 Y128.598 E13.49919
G1 X101.251 Y128.187 E13.5388
G1 X101.009 Y127.811 E13.57449
G1 X100.697 Y127.295 E13.62262
G1 X100.227 Y126.469 E13.69848
G1 X100.235 Y126.455 E13.69977
G1 X99.979 Y125.942 E13.74554
G1 X99.612 Y125.138 E13.81609
G1 X99.316 Y124.398 E13.87971
G1 X99.108 Y123.821 E13.92867
G1 X98.895 Y123.17 E13.98334
G1 X98.737 Y122.623 E14.02879
G1 X98.489 Y121.608 E14.1122
G1 X98.33 Y120.787 E14.17895
G1 X98.207 Y120.044 E14.23907
G1 X98.219 Y120.032 E14.24042
G1 X98.159 Y119.543 E14.27975
G1 X98.081 Y118.768 E14.34192
G1 X98.092 Y118.756 E14.34322
G1 X98.06 Y118.128 E14.39342
G1 X98.051 Y117.507 E14.44299
G1 X98.06 Y116.876 E14.49337
G1 X98.091 Y116.211 E14.54651
G1 X98.147 Y115.572 E14.59771
G1 X98.206 Y115.022 E14.64187
G1 X98.339 Y114.166 E14.71102
G1 X98.491 Y113.385 E14.77453
G1 X98.832 Y112.018 E14.88699
G1 X99.033 Y111.363 E14.94169
G1 X99.049 Y111.355 E14.94311
G1 X99.276 Y110.708 E14.99785
G1 X99.266 Y110.695 E14.99916
G1 X99.463 Y110.196 E15.04198
G1 X99.475 Y110.194 E15.04295
G1 X99.987 Y109.04 E15.14373
G1 X100.351 Y108.322 E15.20799
G1 X100.636 Y107.805 E15.25511
G1 X101.174 Y106.928 E15.33724
G1 X101.629 Y106.259 E15.40182
G1 X102.001 Y105.752 E15.45202
G1 X102.348 Y105.31 E15.49687
G1 X102.835 Y104.725 E15.55764
G1 X103.283 Y104.226 E15.61117
G1 X103.667 Y103.829 E15.65525
G0 F15000 X104.03 Y104.03
G1 F2250 X108.911 Y108.911 E16.20626
G1 F2700 E11.20626
G1 F300 Z0.44
G0 F15000 X110.117 Y107.854 Z0.44
G1 F300 Z0.24
G1 F2700 E16.20626
G1 F2250 X105.21 Y102.947 E16.76021
G1 F2700 E11.76021
G1 F300 Z0.44
G0 F15000 X106.486 Y101.961 Z0.44
G1 F300 Z0.24
G1 F2700 E16.76021
G1 F2250 X111.475 Y106.949 E17.32335
G1 F2700 E12.32335
G1 F300 Z0.44
G0 F15000 X113.003 Y106.215 Z0.44
G1 F300 Z0.24
G1 F2700 E17.32335
G1 F2250 X107.859 Y101.071 E17.90405
G1 F2700 E12.90405
G1 F300 Z0.44
G0 F15000 X109.341 Y100.29 Z0.44
G1 F300 Z0.24
G1 F2700 E17.90405
G1 F2250 X114.726 Y105.675 E18.51196
G1 F2700 E13.51196
G1 F300 Z0.44
G0 F15000 X116.695 Y105.382 Z0.44
G1 F300 Z0.24
G1 F2700 E18.51196
G1 F2250 X110.935 Y99.621 E19.16225
G1 F2700 E14.16225
G1 F300 Z0.44
G0 F15000 X112.655 Y99.079 Z0.44
G1 F300 Z0.24
G1 F2700 E19.16225
G1 F2250 X119.026 Y105.45 E19.88147
G1 F2700 E14.88147
G1 F300 Z0.44
G0 F15000 X122.096 Y106.257 Z0.44
G1 F300 Z0.24
G1 F2700 E19.88147
G1 F2250 X114.527 Y98.688 E20.73592
G1 F2700 E15.73592
G1 F300 Z0.44
G0 F15000 X116.577 Y98.475 Z0.44
G1 F300 Z0.24
G1 F2700 E20.73592
G1 F2250 X136.526 Y118.424 E22.98794
G1 F2700 E17.98794
G1 F300 Z0.44
G0 F15000 X136.31 Y120.471 Z0.44
G1 F300 Z0.24
G1 F2700 E22.98794
G1 F2250 X128.742 Y112.903 E23.84228
G1 F2700 E18.84228
G1 F300 Z0.44
G0 F15000 X129.542 Y115.966 Z0.44
G1 F300 Z0.24
G1 F2700 E23.84228
G1 F2250 X135.918 Y122.342 E24.56206
G1 F2700 E19.56206
G1 F300 Z0.44
G0 F15000 X135.377 Y124.063 Z0.44
G1 F300 Z0.24
G1 F2700 E24.56206
G1 F2250 X129.617 Y118.303 E25.21229
G1 F2700 E20.21229
G1 F300 Z0.44
G0 F15000 X129.327 Y120.276 Z0.44
G1 F300 Z0.24
G1 F2700 E25.21229
G1 F2250 X134.709 Y125.658 E25.81986
G1 F2700 E20.81986
G1 F300 Z0.44
G0 F15000 X133.929 Y127.141 Z0.44
G1 F300 Z0.24
G1 F2700 E25.81986
G1 F2250 X128.776 Y121.988 E26.40158
G1 F2700 E21.40158
G1 F300 Z0.44
G0 F15000 X128.049 Y123.523 Z0.44
G1 F300 Z0.24
G1 F2700 E26.40158
G1 F2250 X133.04 Y128.514 E26.965
G1 F2700 E21.965
G1 F300 Z0.44
G0 F15000 X132.05 Y129.787 Z0.44
G1 F300 Z0.24
G1 F2700 E26.965
G1 F2250 X127.142 Y124.88 E27.519
G1 F2700 E22.519
G1 F300 Z0.44
G0 F15000 X126.091 Y126.091 Z0.44
G1 F300 Z0.24
G1 F2700 E27.519
G1 F2250 X130.968 Y130.968 E28.06956
G1 F2700 E23.06956
G1 F300 Z0.44
G0 F15000 X129.788 Y132.05 Z0.44
G1 F300 Z0.24
G1 F2700 E28.06956
G1 F2250 X124.882 Y127.145 E28.62334
G1 F2700 E23.62334
G1 F300 Z0.44
G0 F15000 X123.523 Y128.049 Z0.44
G1 F300 Z0.24
G1 F2700 E28.62334
G1 F2250 X128.513 Y133.038 E29.1866
G1 F2700 E24.1866
G1 F300 Z0.44
G0 F15000 X127.137 Y133.926 Z0.44
G1 F300 Z0.24
G1 F2700 E29.1866
G1 F2250 X121.996 Y128.784 E29.76701
G1 F2700 E24.76701
G1 F300 Z0.44
G0 F15000 X120.273 Y129.324 Z0.44
G1 F300 Z0.24
G1 F2700 E29.76701
G1 F2250 X125.658 Y134.709 E30.37492
G1 F2700 E25.37492
G1 F300 Z0.44
G0 F15000 X124.064 Y135.378 Z0.44
G1 F300 Z0.24
G1 F2700 E30.37492
G1 F2250 X118.306 Y129.619 E31.02499
G1 F2700 E26.02499
G1 F300 Z0.44
G0 F15000 X115.969 Y129.546 Z0.44
G1 F300 Z0.24
G1 F2700 E31.02499
G1 F2250 X122.342 Y135.919 E31.74443
G1 F2700 E26.74443
G1 F300 Z0.44
G0 F15000 X120.473 Y136.312 Z0.44
G1 F300 Z0.24
G1 F2700 E31.74443
G1 F2250 X112.903 Y128.742 E32.59899
G1 F2700 E27.59899
G1 F300 Z0.44
G0 F15000 X110.202 Y135.092 Z0.44
G1 F300 Z0.24
G1 F2700 E32.59899
G1 F2250 X99.906 Y124.796 E33.76129
G1 F2700 E28.76129
G1 F300 Z0.44
G0 F15000 X98.876 Y121.503 Z0.44
G1 F300 Z0.24
G1 F2700 E33.76129
G1 F2250 X113.494 Y136.121 E35.4115
G1 F2700 E30.4115
G1 F300 Z0.44
G0 F15000 X116.135 Y136.499 Z0.44
G1 F300 Z0.24
G1 F2700 E35.4115
G1 F2250 X98.49 Y118.855 E37.40336
G1 F2700 E32.40336
G1 F300 Z0.44
G0 F15000 X98.474 Y116.576 Z0.44
G1 F300 Z0.24
G1 F2700 E37.40336
G1 F2250 X118.42 Y136.522 E39.65504
G1 F2700 E34.65504
G1 F300 Z0.44
G0 F15000 X106.256 Y122.095 Z0.44
G1 F300 Z0.24
G1 F2700 E39.65504
G1 F2250 X98.687 Y114.526 E40.5095
G1 F2700 E35.5095
G1 F300 Z0.44
G0 F15000 X99.084 Y112.66 Z0.44
G1 F300 Z0.24
G1 F2700 E40.5095
G1 F2250 X105.453 Y119.03 E41.22854
G1 F2700 E36.22854
G1 F300 Z0.44
G0 F15000 X105.381 Y116.695 Z0.44
G1 F300 Z0.24
G1 F2700 E41.22854
G1 F2250 X99.62 Y110.933 E41.87895
G1 F2700 E36.87895
G1 F300 Z0.44
G0 F15000 X100.291 Y109.342 Z0.44
G1 F300 Z0.24
G1 F2700 E41.87895
G1 F2250 X105.677 Y114.728 E42.48697
G1 F2700 E37.48697
G1 F300 Z0.44
G0 F15000 X106.216 Y113.004 Z0.44
G1 F300 Z0.24
G1 F2700 E42.48697
G1 F2250 X101.071 Y107.859 E43.06778
G1 F2700 E38.06778
G1 F300 Z0.44
G0 F15000 X101.959 Y106.484 Z0.44
G1 F300 Z0.24
G1 F2700 E43.06778
G1 F2250 X106.952 Y111.477 E43.63143
G1 F2700 E38.63143
G1 F300 Z0.44
G0 F15000 X107.856 Y110.119 Z0.44
G1 F300 Z0.24
G1 F2700 E43.63143
G1 F2250 X102.949 Y105.211 E44.18543
G1 F2700 E39.18543
G1 F300 Z0.44
G0 F15000 X118.863 Y98.499 Z0.44
G1 F300 Z0.24
G1 F2700 E44.18543
G1 F2250 X136.497 Y116.132 E46.17605
G1 F2700 E41.17605
G1 F300 Z0.44
G0 F15000 X136.122 Y113.494 Z0.44
G1 F300 Z0.24
G1 F2700 E46.17605
G1 F2250 X121.505 Y98.878 E47.82609
G1 F2700 E42.82609
G1 F300 Z0.44
G0 F15000 X124.8 Y99.91 Z0.44
G1 F300 Z0.24
G1 F2700 E47.82609
G1 F2250 X135.094 Y110.204 E48.98817
G1 F2700 E43.98817
G1 F300 Z0.44
G0 F15000 X127.632 Y124.202 Z0.44
;TIME_ELAPSED:40.734374
;LAYER:-4
G0 X127.632 Y124.202 Z1.04
;TYPE:SUPPORT
G1 F300 Z0.84
G1 F2700 E48.98817
G1 F2250 X127.38 Y124.567 E49.07668
G1 X127.132 Y124.9 E49.15954
