;FLAVOR:Marlin
;TIME:4337
;Filament used: 9.32019m
;Layer height: 0.4
;MINX:77.7
;MINY:77.7
;MINZ:0.2
;MAXX:157.3
;MAXY:157.3
;MAXZ:7.2
;Generated with Cura_SteamEngine 5.3.1
M140 S60
M105
M190 S60
M104 S230
M105
M109 S230
M82 ;absolute extrusion mode
; Ender 3 Custom Start G-code
G92 E0 ; Reset Extruder
G28 ; Home all axes
G1 Z2.0 F3000 ; Move Z Axis up little to prevent scratching of Heat Bed
G1 X0.1 Y20 Z0.3 F5000.0 ; Move to start position
G1 X0.1 Y200.0 Z0.3 F1500.0 E15 ; Draw the first line
G1 X0.4 Y200.0 Z0.3 F5000.0 ; Move to side a little
G1 X0.4 Y20 Z0.3 F1500.0 E30 ; Draw the second line
G92 E0 ; Reset Extruder
G1 Z2.0 F3000 ; Move Z Axis up little to prevent scratching of Heat Bed
G1 X5 Y20 Z0.3 F5000.0 ; Move over to prevent blob squish
G92 E0
G92 E0
G1 F2700 E-5
;LAYER_COUNT:18
;LAYER:0
M107
G1 F300 Z0.4
;MESH:Cube_TestFit_V1.stl
G0 F6000 X156.9 Y156.9 Z0.4
;TYPE:WALL-INNER
G1 F300 Z0.2
G1 F2700 E0
G1 F1200 X156.9 Y78.1 E2.6209
G1 X78.1 Y78.1 E5.2418
G1 X78.1 Y156.9 E7.8627
G1 X156.9 Y156.9 E10.48359
G0 F6000 X157.3 Y157.3
;TYPE:WALL-OUTER
G1 F1200 X157.3 Y77.7 E13.1311
G1 X77.7 Y77.7 E15.77861
G1 X77.7 Y157.3 E18.42611
G1 X157.3 Y157.3 E21.07362
G0 F6000 X156.54 Y156.54
;TYPE:SKIN
G1 F1200 X78.46 Y156.54 E23.67057
G1 X78.46 Y78.46 E26.26752
G1 X156.54 Y78.46 E28.86448
G1 X156.54 Y156.54 E31.46143
G1 F2700 E26.46143
G1 F300 Z0.4
G0 F6000 X156.339 Y78.84 Z0.4
G1 F300 Z0.2
G1 F2700 E31.46143
G1 F1200 X156.158 Y78.659 E31.46994
G0 F6000 X155.593 Y78.659
G1 F1200 X156.339 Y79.406 E31.50505
G0 F6000 X156.339 Y79.972
G1 F1200 X155.027 Y78.659 E31.56679
G0 F6000 X154.461 Y78.659
G1 F1200 X156.339 Y80.538 E31.65515
G0 F6000 X156.339 Y81.103
G1 F1200 X153.896 Y78.659 E31.77008
G0 F6000 X153.33 Y78.659
G1 F1200 X156.339 Y81.669 E31.91164
G0 F6000 X156.339 Y82.235
G1 F1200 X152.764 Y78.659 E32.07982
G0 F6000 X152.199 Y78.659
G1 F1200 X156.339 Y82.8 E32.27458
G0 F6000 X156.339 Y83.366
G1 F1200 X151.633 Y78.659 E32.49596
G0 F6000 X151.067 Y78.659
G1 F1200 X156.339 Y83.932 E32.74396
G0 F6000 X156.339 Y84.497
G1 F1200 X150.502 Y78.659 E33.01854
G0 F6000 X149.936 Y78.659
G1 F1200 X156.339 Y85.063 E33.31974
G0 F6000 X156.339 Y85.629
G1 F1200 X149.37 Y78.659 E33.64756
G0 F6000 X148.804 Y78.659
G1 F1200 X156.339 Y86.194 E34.00199
G0 F6000 X156.339 Y86.76
G1 F1200 X148.239 Y78.659 E34.38301
G0 F6000 X147.673 Y78.659
G1 F1200 X156.339 Y87.326 E34.79065
G0 F6000 X156.339 Y87.891
G1 F1200 X147.107 Y78.659 E35.2249
G0 F6000 X146.542 Y78.659
G1 F1200 X156.339 Y88.457 E35.68574
G0 F6000 X156.339 Y89.023
G1 F1200 X145.976 Y78.659 E36.17321
G0 F6000 X145.41 Y78.659
G1 F1200 X156.339 Y89.589 E36.6873
G0 F6000 X156.339 Y90.154
G1 F1200 X144.845 Y78.659 E37.22797
G0 F6000 X144.279 Y78.659
G1 F1200 X156.339 Y90.72 E37.79526
G0 F6000 X156.339 Y91.286
G1 F1200 X143.713 Y78.659 E38.38917
G0 F6000 X143.148 Y78.659
G1 F1200 X156.339 Y91.851 E39.00966
G0 F6000 X156.339 Y92.417
G1 F1200 X142.582 Y78.659 E39.65677
G0 F6000 X142.016 Y78.659
G1 F1200 X156.339 Y92.983 E40.3305
G0 F6000 X156.339 Y93.548
G1 F1200 X141.451 Y78.659 E41.03081
G0 F6000 X140.885 Y78.659
G1 F1200 X156.339 Y94.114 E41.75774
G0 F6000 X156.339 Y94.68
G1 F1200 X140.319 Y78.659 E42.5113
G0 F6000 X139.753 Y78.659
G1 F1200 X156.339 Y95.245 E43.29145
G0 F6000 X156.339 Y95.811
G1 F1200 X139.188 Y78.659 E44.09821
G0 F6000 X138.622 Y78.659
G1 F1200 X156.339 Y96.377 E44.93158
G0 F6000 X156.339 Y96.942
G1 F1200 X138.056 Y78.659 E45.79156
G0 F6000 X137.491 Y78.659
G1 F1200 X156.339 Y97.508 E46.67813
G0 F6000 X156.339 Y98.074
G1 F1200 X136.925 Y78.659 E47.59133
G0 F6000 X136.359 Y78.659
G1 F1200 X156.339 Y98.639 E48.53113
G0 F6000 X156.339 Y99.205
G1 F1200 X135.794 Y78.659 E49.49753
G0 F6000 X135.228 Y78.659
G1 F1200 X156.339 Y99.771 E50.49055
G0 F6000 X156.339 Y100.337
G1 F1200 X134.662 Y78.659 E51.51019
G0 F6000 X134.097 Y78.659
G1 F1200 X156.339 Y100.902 E52.55641
G0 F6000 X156.339 Y101.468
G1 F1200 X133.531 Y78.659 E53.62925
G0 F6000 X132.965 Y78.659
G1 F1200 X156.339 Y102.034 E54.72872
G0 F6000 X156.339 Y102.599
G1 F1200 X132.4 Y78.659 E55.85476
G0 F6000 X131.834 Y78.659
G1 F1200 X156.339 Y103.165 E57.00742
G0 F6000 X156.339 Y103.731
G1 F1200 X131.268 Y78.659 E58.18671
G0 F6000 X130.703 Y78.659
G1 F1200 X156.339 Y104.296 E59.39257
G0 F6000 X156.339 Y104.862
G1 F1200 X130.137 Y78.659 E60.62506
G0 F6000 X129.571 Y78.659
G1 F1200 X156.339 Y105.428 E61.88416
G0 F6000 X156.339 Y105.993
G1 F1200 X129.005 Y78.659 E63.16987
G0 F6000 X128.44 Y78.659
G1 F1200 X156.339 Y106.559 E64.48218
G0 F6000 X156.339 Y107.125
G1 F1200 X127.874 Y78.659 E65.82111
G0 F6000 X127.308 Y78.659
G1 F1200 X156.339 Y107.69 E67.18664
G0 F6000 X156.339 Y108.256
G1 F1200 X126.743 Y78.659 E68.57877
G0 F6000 X126.177 Y78.659
G1 F1200 X156.339 Y108.822 E69.99752
G0 F6000 X156.339 Y109.388
G1 F1200 X125.611 Y78.659 E71.44289
G0 F6000 X125.046 Y78.659
G1 F1200 X156.339 Y109.953 E72.91484
G0 F6000 X156.339 Y110.519
G1 F1200 X124.48 Y78.659 E74.41341
G0 F6000 X123.914 Y78.659
G1 F1200 X156.339 Y111.085 E75.93861
G0 F6000 X156.339 Y111.65
G1 F1200 X123.349 Y78.659 E77.49038
G0 F6000 X122.783 Y78.659
G1 F1200 X156.339 Y112.216 E79.06878
G0 F6000 X156.339 Y112.782
G1 F1200 X122.217 Y78.659 E80.6738
G0 F6000 X121.652 Y78.659
G1 F1200 X156.339 Y113.347 E82.30539
G0 F6000 X156.339 Y113.913
G1 F1200 X121.086 Y78.659 E83.96361
G0 F6000 X120.52 Y78.659
G1 F1200 X156.339 Y114.479 E85.64845
G0 F6000 X156.339 Y115.044
G1 F1200 X119.955 Y78.659 E87.35986
G0 F6000 X119.389 Y78.659
G1 F1200 X156.339 Y115.61 E89.0979
G0 F6000 X156.339 Y116.176
G1 F1200 X118.823 Y78.659 E90.86256
G0 F6000 X118.257 Y78.659
G1 F1200 X156.339 Y116.741 E92.65382
G0 F6000 X156.339 Y117.307
G1 F1200 X117.692 Y78.659 E94.47168
G0 F6000 X117.126 Y78.659
G1 F1200 X156.339 Y117.873 E96.31616
G0 F6000 X156.339 Y118.438
G1 F1200 X116.56 Y78.659 E98.18725
G0 F6000 X115.995 Y78.659
G1 F1200 X156.339 Y119.004 E100.08493
G0 F6000 X156.339 Y119.57
G1 F1200 X115.429 Y78.659 E102.00923
G0 F6000 X114.863 Y78.659
G1 F1200 X156.339 Y120.136 E103.96016
G0 F6000 X156.339 Y120.701
G1 F1200 X114.298 Y78.659 E105.93766
G0 F6000 X113.732 Y78.659
G1 F1200 X156.339 Y121.267 E107.94179
G0 F6000 X156.339 Y121.833
G1 F1200 X113.166 Y78.659 E109.97254
G0 F6000 X112.601 Y78.659
G1 F1200 X156.339 Y122.398 E112.02986
G0 F6000 X156.339 Y122.964
G1 F1200 X112.035 Y78.659 E114.11381
G0 F6000 X111.469 Y78.659
G1 F1200 X156.339 Y123.53 E116.22438
G0 F6000 X156.339 Y124.095
G1 F1200 X110.904 Y78.659 E118.36153
G0 F6000 X110.338 Y78.659
G1 F1200 X156.339 Y124.661 E120.5253
G0 F6000 X156.339 Y125.227
G1 F1200 X109.772 Y78.659 E122.71569
G0 F6000 X109.206 Y78.659
G1 F1200 X156.339 Y125.792 E124.93268
G0 F6000 X156.339 Y126.358
G1 F1200 X108.641 Y78.659 E127.17627
G0 F6000 X108.075 Y78.659
G1 F1200 X156.339 Y126.924 E129.44649
G0 F6000 X156.339 Y127.489
G1 F1200 X107.509 Y78.659 E131.7433
G0 F6000 X106.944 Y78.659
G1 F1200 X156.339 Y128.055 E134.06671
G0 F6000 X156.339 Y128.621
G1 F1200 X106.378 Y78.659 E136.41675
G0 F6000 X105.812 Y78.659
G1 F1200 X156.339 Y129.186 E138.79338
G0 F6000 X156.339 Y129.752
G1 F1200 X105.247 Y78.659 E141.19662
G0 F6000 X104.681 Y78.659
G1 F1200 X156.339 Y130.318 E143.62648
G0 F6000 X156.339 Y130.884
G1 F1200 X104.115 Y78.659 E146.08296
G0 F6000 X103.55 Y78.659
G1 F1200 X156.339 Y131.449 E148.56601
G0 F6000 X156.339 Y132.015
G1 F1200 X102.984 Y78.659 E151.07569
G0 F6000 X102.418 Y78.659
G1 F1200 X156.339 Y132.581 E153.61199
G0 F6000 X156.339 Y133.146
G1 F1200 X101.853 Y78.659 E156.17487
G0 F6000 X101.287 Y78.659
G1 F1200 X156.339 Y133.712 E158.76437
G0 F6000 X156.339 Y134.278
G1 F1200 X100.721 Y78.659 E161.3805
G0 F6000 X100.156 Y78.659
G1 F1200 X156.339 Y134.843 E164.0232
G0 F6000 X156.339 Y135.409
G1 F1200 X99.59 Y78.659 E166.69252
G0 F6000 X99.024 Y78.659
G1 F1200 X156.339 Y135.975 E169.38846
G0 F6000 X156.339 Y136.54
G1 F1200 X98.458 Y78.659 E172.11101
G0 F6000 X97.893 Y78.659
G1 F1200 X156.339 Y137.106 E174.86015
G0 F6000 X156.339 Y137.672
G1 F1200 X97.327 Y78.659 E177.63592
G0 F6000 X96.761 Y78.659
G1 F1200 X156.339 Y138.237 E180.43829
G0 F6000 X156.339 Y138.803
G1 F1200 X96.196 Y78.659 E183.26725
G0 F6000 X95.63 Y78.659
G1 F1200 X156.339 Y139.369 E186.12284
G0 F6000 X156.339 Y139.935
G1 F1200 X95.064 Y78.659 E189.00505
G0 F6000 X94.499 Y78.659
G1 F1200 X156.339 Y140.5 E191.91384
G0 F6000 X156.339 Y141.066
G1 F1200 X93.933 Y78.659 E194.84925
G0 F6000 X93.367 Y78.659
G1 F1200 X156.339 Y141.632 E197.81128
G0 F6000 X156.339 Y142.197
G1 F1200 X92.802 Y78.659 E200.79989
G0 F6000 X92.236 Y78.659
G1 F1200 X156.339 Y142.763 E203.81513
G0 F6000 X156.339 Y143.329
G1 F1200 X91.67 Y78.659 E206.85698
G0 F6000 X91.105 Y78.659
G1 F1200 X156.339 Y143.894 E209.92541
G0 F6000 X156.339 Y144.46
G1 F1200 X90.539 Y78.659 E213.02046
G0 F6000 X89.973 Y78.659
G1 F1200 X156.339 Y145.026 E216.14214
G0 F6000 X156.339 Y145.591
G1 F1200 X89.407 Y78.659 E219.29042
G0 F6000 X88.842 Y78.659
G1 F1200 X156.339 Y146.157 E222.46529
G0 F6000 X156.339 Y146.723
G1 F1200 X88.276 Y78.659 E225.66679
G0 F6000 X87.71 Y78.659
G1 F1200 X156.339 Y147.288 E228.89489
G0 F6000 X156.339 Y147.854
G1 F1200 X87.145 Y78.659 E232.14959
G0 F6000 X86.579 Y78.659
G1 F1200 X156.339 Y148.42 E235.43091
G0 F6000 X156.339 Y148.985
G1 F1200 X86.013 Y78.659 E238.73883
G0 F6000 X85.448 Y78.659
G1 F1200 X156.339 Y149.551 E242.07334
G0 F6000 X156.339 Y150.117
G1 F1200 X84.882 Y78.659 E245.43449
G0 F6000 X84.316 Y78.659
G1 F1200 X156.339 Y150.683 E248.82225
G0 F6000 X156.339 Y151.248
G1 F1200 X83.751 Y78.659 E252.23659
G0 F6000 X83.185 Y78.659
G1 F1200 X156.339 Y151.814 E255.67755
G0 F6000 X156.339 Y152.38
G1 F1200 X82.619 Y78.659 E259.14514
G0 F6000 X82.054 Y78.659
G1 F1200 X156.339 Y152.945 E262.6393
G0 F6000 X156.339 Y153.511
G1 F1200 X81.488 Y78.659 E266.16009
G0 F6000 X80.922 Y78.659
G1 F1200 X156.339 Y154.077 E269.7075
G0 F6000 X156.339 Y154.642
G1 F1200 X80.357 Y78.659 E273.28148
G0 F6000 X79.791 Y78.659
G1 F1200 X156.339 Y155.208 E276.88209
G0 F6000 X156.339 Y155.774
G1 F1200 X79.225 Y78.659 E280.50932
G0 F6000 X78.659 Y78.659
G1 F1200 X156.339 Y156.339 E284.16315
G0 F6000 X155.774 Y156.339
G1 F1200 X78.659 Y79.225 E287.79038
G0 F6000 X78.659 Y79.791
G1 F1200 X155.208 Y156.339 E291.39098
G0 F6000 X154.642 Y156.339
G1 F1200 X78.659 Y80.357 E294.96497
G0 F6000 X78.659 Y80.922
G1 F1200 X154.077 Y156.339 E298.51237
G0 F6000 X153.511 Y156.339
G1 F1200 X78.659 Y81.488 E302.03316
G0 F6000 X78.659 Y82.054
G1 F1200 X152.945 Y156.339 E305.52732
G0 F6000 X152.38 Y156.339
G1 F1200 X78.659 Y82.619 E308.99491
G0 F6000 X78.659 Y83.185
G1 F1200 X151.814 Y156.339 E312.43587
G0 F6000 X151.248 Y156.339
G1 F1200 X78.659 Y83.751 E315.85021
G0 F6000 X78.659 Y84.316
G1 F1200 X150.683 Y156.339 E319.23798
G0 F6000 X150.117 Y156.339
G1 F1200 X78.659 Y84.882 E322.59912
G0 F6000 X78.659 Y85.448
G1 F1200 X149.551 Y156.339 E325.93364
G0 F6000 X148.985 Y156.339
G1 F1200 X78.659 Y86.013 E329.24156
G0 F6000 X78.659 Y86.579
G1 F1200 X148.42 Y156.339 E332.52288
G0 F6000 X147.854 Y156.339
G1 F1200 X78.659 Y87.145 E335.77757
G0 F6000 X78.659 Y87.71
G1 F1200 X147.288 Y156.339 E339.00567
G0 F6000 X146.723 Y156.339
G1 F1200 X78.659 Y88.276 E342.20717
G0 F6000 X78.659 Y88.842
G1 F1200 X146.157 Y156.339 E345.38204
G0 F6000 X145.591 Y156.339
G1 F1200 X78.659 Y89.407 E348.53032
G0 F6000 X78.659 Y89.973
G1 F1200 X145.026 Y156.339 E351.652
G0 F6000 X144.46 Y156.339
G1 F1200 X78.659 Y90.539 E354.74705
G0 F6000 X78.659 Y91.105
G1 F1200 X143.894 Y156.339 E357.81548
G0 F6000 X143.329 Y156.339
G1 F1200 X78.659 Y91.67 E360.85734
G0 F6000 X78.659 Y92.236
G1 F1200 X142.763 Y156.339 E363.87257
G0 F6000 X142.197 Y156.339
G1 F1200 X78.659 Y92.802 E366.86118
G0 F6000 X78.659 Y93.367
G1 F1200 X141.632 Y156.339 E369.82321
G0 F6000 X141.066 Y156.339
G1 F1200 X78.659 Y93.933 E372.75862
G0 F6000 X78.659 Y94.499
G1 F1200 X140.5 Y156.339 E375.66741
G0 F6000 X139.935 Y156.339
G1 F1200 X78.659 Y95.064 E378.54962
G0 F6000 X78.659 Y95.63
G1 F1200 X139.369 Y156.339 E381.40521
G0 F6000 X138.803 Y156.339
G1 F1200 X78.659 Y96.196 E384.23418
G0 F6000 X78.659 Y96.761
G1 F1200 X138.237 Y156.339 E387.03654
G0 F6000 X137.672 Y156.339
G1 F1200 X78.659 Y97.327 E389.81231
G0 F6000 X78.659 Y97.893
G1 F1200 X137.106 Y156.339 E392.56145
G0 F6000 X136.54 Y156.339
G1 F1200 X78.659 Y98.458 E395.284
G0 F6000 X78.659 Y99.024
G1 F1200 X135.975 Y156.339 E397.97994
G0 F6000 X135.409 Y156.339
G1 F1200 X78.659 Y99.59 E400.64927
G0 F6000 X78.659 Y100.156
G1 F1200 X134.843 Y156.339 E403.29197
G0 F6000 X134.278 Y156.339
G1 F1200 X78.659 Y100.721 E405.90809
G0 F6000 X78.659 Y101.287
G1 F1200 X133.712 Y156.339 E408.49759
G0 F6000 X133.146 Y156.339
G1 F1200 X78.659 Y101.853 E411.06047
G0 F6000 X78.659 Y102.418
G1 F1200 X132.581 Y156.339 E413.59677
G0 F6000 X132.015 Y156.339
G1 F1200 X78.659 Y102.984 E416.10645
G0 F6000 X78.659 Y103.55
G1 F1200 X131.449 Y156.339 E418.58951
G0 F6000 X130.884 Y156.339
G1 F1200 X78.659 Y104.115 E421.04599
G0 F6000 X78.659 Y104.681
G1 F1200 X130.318 Y156.339 E423.47584
G0 F6000 X129.752 Y156.339
G1 F1200 X78.659 Y105.247 E425.87908
G0 F6000 X78.659 Y105.812
G1 F1200 X129.186 Y156.339 E428.25571
G0 F6000 X128.621 Y156.339
G1 F1200 X78.659 Y106.378 E430.60575
G0 F6000 X78.659 Y106.944
G1 F1200 X128.055 Y156.339 E432.92916
G0 F6000 X127.489 Y156.339
G1 F1200 X78.659 Y107.509 E435.22598
G0 F6000 X78.659 Y108.075
G1 F1200 X126.924 Y156.339 E437.49619
G0 F6000 X126.358 Y156.339
G1 F1200 X78.659 Y108.641 E439.73978
G0 F6000 X78.659 Y109.206
G1 F1200 X125.792 Y156.339 E441.95677
G0 F6000 X125.227 Y156.339
G1 F1200 X78.659 Y109.772 E444.14716
G0 F6000 X78.659 Y110.338
G1 F1200 X124.661 Y156.339 E446.31093
G0 F6000 X124.095 Y156.339
G1 F1200 X78.659 Y110.904 E448.44808
G0 F6000 X78.659 Y111.469
G1 F1200 X123.53 Y156.339 E450.55865
G0 F6000 X122.964 Y156.339
G1 F1200 X78.659 Y112.035 E452.6426
G0 F6000 X78.659 Y112.601
G1 F1200 X122.398 Y156.339 E454.69992
G0 F6000 X121.833 Y156.339
G1 F1200 X78.659 Y113.166 E456.73067
G0 F6000 X78.659 Y113.732
G1 F1200 X121.267 Y156.339 E458.7348
G0 F6000 X120.701 Y156.339
G1 F1200 X78.659 Y114.298 E460.7123
G0 F6000 X78.659 Y114.863
G1 F1200 X120.136 Y156.339 E462.66323
G0 F6000 X119.57 Y156.339
G1 F1200 X78.659 Y115.429 E464.58753
G0 F6000 X78.659 Y115.995
G1 F1200 X119.004 Y156.339 E466.48522
G0 F6000 X118.438 Y156.339
G1 F1200 X78.659 Y116.56 E468.3563
G0 F6000 X78.659 Y117.126
G1 F1200 X117.873 Y156.339 E470.20078
G0 F6000 X117.307 Y156.339
G1 F1200 X78.659 Y117.692 E472.01864
G0 F6000 X78.659 Y118.257
G1 F1200 X116.741 Y156.339 E473.8099
G0 F6000 X116.176 Y156.339
G1 F1200 X78.659 Y118.823 E475.57456
G0 F6000 X78.659 Y119.389
G1 F1200 X115.61 Y156.339 E477.3126
G0 F6000 X115.044 Y156.339
G1 F1200 X78.659 Y119.955 E479.02402
G0 F6000 X78.659 Y120.52
G1 F1200 X114.479 Y156.339 E480.70886
G0 F6000 X113.913 Y156.339
G1 F1200 X78.659 Y121.086 E482.36707
G0 F6000 X78.659 Y121.652
G1 F1200 X113.347 Y156.339 E483.99867
G0 F6000 X112.782 Y156.339
G1 F1200 X78.659 Y122.217 E485.60368
G0 F6000 X78.659 Y122.783
G1 F1200 X112.216 Y156.339 E487.18208
G0 F6000 X111.65 Y156.339
G1 F1200 X78.659 Y123.349 E488.73385
G0 F6000 X78.659 Y123.914
G1 F1200 X111.085 Y156.339 E490.25905
G0 F6000 X110.519 Y156.339
G1 F1200 X78.659 Y124.48 E491.75762
G0 F6000 X78.659 Y125.046
G1 F1200 X109.953 Y156.339 E493.22957
G0 F6000 X109.388 Y156.339
G1 F1200 X78.659 Y125.611 E494.67494
G0 F6000 X78.659 Y126.177
G1 F1200 X108.822 Y156.339 E496.0937
G0 F6000 X108.256 Y156.339
G1 F1200 X78.659 Y126.743 E497.48582
G0 F6000 X78.659 Y127.308
G1 F1200 X107.69 Y156.339 E498.85135
G0 F6000 X107.125 Y156.339
G1 F1200 X78.659 Y127.874 E500.19028
G0 F6000 X78.659 Y128.44
G1 F1200 X106.559 Y156.339 E501.50259
G0 F6000 X105.993 Y156.339
G1 F1200 X78.659 Y129.005 E502.7883
G0 F6000 X78.659 Y129.571
G1 F1200 X105.428 Y156.339 E504.04741
G0 F6000 X104.862 Y156.339
G1 F1200 X78.659 Y130.137 E505.27989
G0 F6000 X78.659 Y130.703
G1 F1200 X104.296 Y156.339 E506.48575
G0 F6000 X103.731 Y156.339
G1 F1200 X78.659 Y131.268 E507.66504
G0 F6000 X78.659 Y131.834
G1 F1200 X103.165 Y156.339 E508.8177
