;FLAVOR:Marlin
;TIME:7569
;Filament used: 14.6745m
;Layer height: 0.4
;MINX:2.174
;MINY:11.174
;MINZ:0.2
;MAXX:224.826
;MAXY:223.826
;MAXZ:4.8
;Generated with Cura_SteamEngine 5.3.1
M140 S60
M105
M190 S60
M104 S200
M105
M109 S200
M82 ;absolute extrusion mode
; Ender 3 Custom Start G-code
G92 E0 ; Reset Extruder
G28 ; Home all axes
G1 Z2.0 F3000 ; Move Z Axis up little to prevent scratching of Heat Bed
G1 X0.1 Y20 Z0.3 F5000.0 ; Move to start position
G1 X0.1 Y200.0 Z0.3 F1500.0 E15 ; Draw the first line
G1 X0.4 Y200.0 Z0.3 F5000.0 ; Move to side a little
G1 X0.4 Y20 Z0.3 F1500.0 E30 ; Draw the second line
G92 E0 ; Reset Extruder
G1 Z2.0 F3000 ; Move Z Axis up little to prevent scratching of Heat Bed
G1 X5 Y20 Z0.3 F5000.0 ; Move over to prevent blob squish
G92 E0
G92 E0
G1 F2700 E-5
;LAYER_COUNT:12
;LAYER:0
M107
G1 F300 Z0.4
;MESH:Joints_Remake_Rods_TestFit_V1.stl(3)
G0 F6000 X195.333 Y14.371 Z0.4
;TYPE:WALL-INNER
G1 F300 Z0.2
G1 F2700 E0
G1 F884 X195.447 Y14.471 E0.00685
G1 F830.4 X195.849 Y14.937 E0.03643
G1 F2700 E-4.96357
G1 F300 Z0.4
G0 F6000 X5.885 Y204.805 Z0.4
G1 F300 Z0.2
G1 F2700 E0.03643
G1 F837.7 X5.476 Y204.454 E0.0621
G1 F884 X5.378 Y204.341 E0.06886
G1 F2700 E-4.93114
G1 F300 Z0.4
G0 F6000 X8.191 Y207.26 Z0.4
G1 F300 Z0.2
G1 F2700 E0.06886
G1 F1200 X198.26 Y17.191 E9.00912
G1 X196.363 Y15.295 E9.09833
G1 F1090.9 X196.075 Y15.064 E9.11183
G1 F872.7 X195.849 Y14.937 E9.12369
G1 F941.2 X195.977 Y15.691 E9.15612
G1 F1200 X195.989 Y16.2 E9.17306
G1 X195.884 Y16.628 E9.18771
G1 X195.707 Y16.985 E9.20097
G1 X195.368 Y17.388 E9.21848
G1 X195.064 Y17.621 E9.23122
G1 X194.615 Y17.823 E9.2476
G1 X194.03 Y17.905 E9.26724
G1 X193.602 Y17.852 E9.28159
G1 X193.253 Y17.734 E9.29384
G1 X192.844 Y17.489 E9.3097
G1 X192.432 Y17.053 E9.32965
G1 X192.156 Y16.453 E9.35162
G1 X192.094 Y15.92 E9.36946
G1 X192.165 Y15.38 E9.38758
G1 X192.463 Y14.77 E9.41016
G1 X192.921 Y14.352 E9.43078
G1 X193.396 Y14.107 E9.44856
G1 X193.952 Y13.981 E9.46752
G1 X194.487 Y14.043 E9.48543
G1 X194.835 Y14.164 E9.49769
G1 X194.954 Y14.222 E9.50209
G1 F1010.5 X195.333 Y14.371 E9.51818
G1 X195.103 Y14.035 E9.53426
G1 F1200 X192.809 Y11.74 E9.64218
G1 X2.74 Y201.809 E18.58245
G1 X4.984 Y204.053 E18.688
G1 F1010.5 X5.378 Y204.341 E18.70727
G1 X5.105 Y203.705 E18.73461
G1 F1200 X4.982 Y203.152 E18.75345
G1 X5.038 Y202.643 E18.77048
G1 X5.192 Y202.197 E18.78618
G1 X5.458 Y201.77 E18.80291
G1 X5.606 Y201.622 E18.80987
G1 X6.05 Y201.313 E18.82786
G1 X6.503 Y201.141 E18.84398
G1 X6.73 Y201.102 E18.85164
G1 X7.25 Y201.113 E18.86894
G1 X7.471 Y201.16 E18.87645
G1 X8.008 Y201.387 E18.89584
G1 X8.521 Y201.851 E18.91885
G1 X8.804 Y202.43 E18.94029
G1 X8.9 Y202.885 E18.95575
G1 X8.867 Y203.434 E18.97404
G1 X8.7 Y203.923 E18.99123
G1 X8.417 Y204.371 E19.00886
G1 X7.825 Y204.814 E19.03345
G1 X7.251 Y204.987 E19.05339
G1 X7.024 Y205.008 E19.06097
G1 X6.6 Y204.967 E19.07514
G1 F950.5 X5.885 Y204.805 E19.10592
G1 F857.1 X5.984 Y204.974 E19.11504
G1 F1054.9 X6.217 Y205.285 E19.12975
G1 F1200 X8.191 Y207.26 E19.22262
G0 F6000 X8.191 Y207.826
;TYPE:WALL-OUTER
G1 F1200 X198.826 Y17.191 E28.18951
G1 X192.809 Y11.174 E28.47253
G1 X2.174 Y201.809 E37.43941
G1 X8.191 Y207.826 E37.72243
G1 F2700 E32.72243
G1 F300 Z0.4
G0 F6000 X8.102 Y204.111 Z0.4
G1 F300 Z0.2
G1 F2700 E37.72243
G1 F1200 X7.636 Y204.455 E37.7417
G1 X7.102 Y204.614 E37.76023
G1 X6.612 Y204.566 E37.77661
G1 X6.197 Y204.409 E37.79136
G1 X5.807 Y204.123 E37.80745
G1 X5.504 Y203.652 E37.82608
G1 X5.387 Y203.131 E37.84384
G1 X5.438 Y202.711 E37.85791
G1 X5.55 Y202.383 E37.86944
G1 X5.803 Y201.972 E37.88549
G1 X6.217 Y201.684 E37.90226
G1 X6.68 Y201.501 E37.91882
G1 X7.282 Y201.514 E37.93885
G1 X7.792 Y201.73 E37.95727
G1 X8.191 Y202.097 E37.9753
G1 X8.423 Y202.561 E37.99255
G1 X8.497 Y202.915 E38.00458
G1 X8.47 Y203.361 E38.01944
G1 X8.325 Y203.767 E38.03378
G1 X8.102 Y204.111 E38.04742
G1 F2700 E33.04742
G1 F300 Z0.4
G0 F6000 X192.767 Y16.825 Z0.4
G1 F300 Z0.2
G1 F2700 E38.04742
G1 F1200 X192.547 Y16.345 E38.06498
G1 X192.498 Y15.922 E38.07914
G1 X192.553 Y15.498 E38.09336
G1 X192.79 Y15.019 E38.11114
G1 X193.153 Y14.682 E38.12761
G1 X193.557 Y14.481 E38.14262
G1 X193.972 Y14.387 E38.15677
G1 X194.377 Y14.434 E38.17033
G1 X194.703 Y14.542 E38.18176
G1 X195.117 Y14.802 E38.19802
G1 X195.456 Y15.265 E38.2171
G1 X195.576 Y15.674 E38.23128
G1 X195.588 Y16.156 E38.24732
G1 X195.496 Y16.511 E38.25951
G1 X195.376 Y16.752 E38.26847
G1 X195.085 Y17.105 E38.28368
G1 X194.874 Y17.263 E38.29245
G1 X194.503 Y17.435 E38.30605
G1 X194.026 Y17.502 E38.32207
G1 X193.673 Y17.454 E38.33392
G1 X193.44 Y17.375 E38.3421
G1 X193.099 Y17.176 E38.35524
G1 X192.767 Y16.825 E38.37131
G1 F2700 E33.37131
G1 F300 Z0.4
G0 F6000 X8.191 Y206.75 Z0.4
;TYPE:SKIN
G1 F300 Z0.2
G1 F2700 E38.37131
G1 F1200 X6.79 Y205.348 E38.43723
G1 X6.981 Y205.367 E38.44361
G1 X7.322 Y205.339 E38.45499
G1 X7.995 Y205.138 E38.47835
G1 X8.668 Y204.639 E38.50622
G1 X9.033 Y204.061 E38.52896
G1 X9.222 Y203.513 E38.54824
G1 X9.262 Y202.858 E38.57006
G1 X9.149 Y202.32 E38.58835
G1 X8.809 Y201.625 E38.61408
G1 X8.329 Y201.189 E38.63565
G1 X8.081 Y201.029 E38.64546
G1 X7.616 Y200.83 E38.66229
G1 X7.29 Y200.756 E38.67341
G1 X6.701 Y200.745 E38.693
G1 X6.409 Y200.793 E38.70284
G1 X5.88 Y200.991 E38.72163
G1 X5.246 Y201.438 E38.74743
G1 X4.861 Y202.051 E38.7715
G1 X4.691 Y202.542 E38.78879
G1 X4.633 Y203.014 E38.8046
G1 X4.642 Y203.2 E38.8108
G1 X3.25 Y201.809 E38.87625
G1 X192.809 Y12.251 E47.7925
G1 X194.186 Y13.628 E47.85727
G1 X193.771 Y13.652 E47.8711
G1 X193.297 Y13.76 E47.88727
G1 X192.717 Y14.05 E47.90883
G1 X192.17 Y14.556 E47.93362
G1 X191.873 Y15.165 E47.95615
G1 X191.801 Y15.401 E47.96436
G1 X191.732 Y15.911 E47.98148
G1 X191.806 Y16.555 E48.00304
G1 X192.077 Y17.138 E48.02442
G1 X192.22 Y17.349 E48.0329
G1 X192.618 Y17.775 E48.05229
G1 X193.114 Y18.071 E48.0715
G1 X193.616 Y18.217 E48.08889
G1 X194.034 Y18.267 E48.10289
G1 X194.715 Y18.172 E48.12576
G1 X195.272 Y17.919 E48.14611
G1 X195.624 Y17.641 E48.16103
G1 X196.013 Y17.181 E48.18106
G1 X196.229 Y16.732 E48.19763
G1 X196.35 Y16.239 E48.21452
G1 X196.34 Y15.782 E48.22972
G1 X197.749 Y17.191 E48.296
G1 X8.191 Y206.75 E57.21225
G0 F6000 X7.505 Y205.495
G1 F1200 X8.333 Y206.323 E57.25119
G0 F6000 X8.616 Y206.041
G1 F1200 X7.939 Y205.363 E57.28306
G0 F6000 X8.302 Y205.16
G1 F1200 X8.899 Y205.758 E57.31117
G0 F6000 X9.182 Y205.475
G1 F1200 X8.628 Y204.92 E57.33725
G0 F6000 X8.91 Y204.638
G1 F1200 X9.465 Y205.192 E57.36333
G0 F6000 X9.748 Y204.909
G1 F1200 X9.129 Y204.29 E57.39245
G0 F6000 X9.3 Y203.896
G1 F1200 X10.031 Y204.626 E57.42681
G0 F6000 X10.313 Y204.343
G1 F1200 X9.425 Y203.455 E57.46857
G0 F6000 X9.457 Y202.921
G1 F1200 X10.596 Y204.061 E57.52217
G0 F6000 X10.879 Y203.778
G1 F1200 X9.326 Y202.224 E57.59525
G1 F2700 E52.59525
G1 F300 Z0.4
G0 F6000 X7.785 Y200.684 Z0.4
G1 F300 Z0.2
G1 F2700 E57.59525
G1 F1200 X6.221 Y199.12 E57.66881
G0 F6000 X5.938 Y199.403
G1 F1200 X7.083 Y200.548 E57.72267
G0 F6000 X6.537 Y200.568
G1 F1200 X5.656 Y199.686 E57.76413
G0 F6000 X5.373 Y199.969
G1 F1200 X6.096 Y200.692 E57.79814
G0 F6000 X5.705 Y200.867
G1 F1200 X5.09 Y200.251 E57.82709
G0 F6000 X4.807 Y200.534
G1 F1200 X5.373 Y201.1 E57.85371
G0 F6000 X5.059 Y201.352
G1 F1200 X4.524 Y200.817 E57.87888
G0 F6000 X4.241 Y201.1
G1 F1200 X4.84 Y201.699 E57.90705
G0 F6000 X4.643 Y202.067
G1 F1200 X3.959 Y201.383 E57.93923
G0 F6000 X3.676 Y201.666
G1 F1200 X4.5 Y202.49 E57.97798
G1 F2700 E52.97798
G1 F300 Z0.4
G0 F6000 X6.504 Y198.837 Z0.4
G1 F300 Z0.2
G1 F2700 E57.97798
G1 F1200 X11.162 Y203.495 E58.19708
G0 F6000 X11.445 Y203.212
G1 F1200 X6.787 Y198.554 E58.41618
G0 F6000 X7.07 Y198.272
G1 F1200 X11.728 Y202.929 E58.63526
G0 F6000 X12.01 Y202.646
G1 F1200 X7.353 Y197.989 E58.85431
G0 F6000 X7.636 Y197.706
G1 F1200 X12.293 Y202.364 E59.07338
G0 F6000 X12.576 Y202.081
G1 F1200 X7.918 Y197.423 E59.29248
G0 F6000 X8.201 Y197.14
G1 F1200 X12.859 Y201.798 E59.51158
G0 F6000 X13.142 Y201.515
G1 F1200 X8.484 Y196.857 E59.73068
G0 F6000 X8.767 Y196.574
G1 F1200 X13.425 Y201.232 E59.94977
G0 F6000 X13.707 Y200.949
G1 F1200 X9.05 Y196.292 E60.16882
G0 F6000 X9.333 Y196.009
G1 F1200 X13.99 Y200.667 E60.3879
G0 F6000 X14.273 Y200.384
G1 F1200 X9.615 Y195.726 E60.607
G0 F6000 X9.898 Y195.443
G1 F1200 X14.556 Y200.101 E60.82609
G0 F6000 X14.839 Y199.818
G1 F1200 X10.181 Y195.16 E61.04519
G0 F6000 X10.464 Y194.877
G1 F1200 X15.122 Y199.535 E61.26429
G0 F6000 X15.405 Y199.252
G1 F1200 X10.747 Y194.595 E61.48337
G0 F6000 X11.03 Y194.312
G1 F1200 X15.687 Y198.969 E61.70242
G0 F6000 X15.97 Y198.687
G1 F1200 X11.313 Y194.029 E61.92149
G0 F6000 X11.595 Y193.746
G1 F1200 X16.253 Y198.404 E62.14059
G0 F6000 X16.536 Y198.121
G1 F1200 X11.878 Y193.463 E62.35969
G0 F6000 X12.161 Y193.18
G1 F1200 X16.819 Y197.838 E62.57879
G0 F6000 X17.102 Y197.555
G1 F1200 X12.444 Y192.898 E62.79786
G0 F6000 X12.727 Y192.615
G1 F1200 X17.384 Y197.272 E63.01691
G0 F6000 X17.667 Y196.99
G1 F1200 X13.01 Y192.332 E63.23599
G0 F6000 X13.292 Y192.049
G1 F1200 X17.95 Y196.707 E63.45508
G0 F6000 X18.233 Y196.424
G1 F1200 X13.575 Y191.766 E63.67418
G0 F6000 X13.858 Y191.483
G1 F1200 X18.516 Y196.141 E63.89328
G0 F6000 X18.799 Y195.858
G1 F1200 X14.141 Y191.2 E64.11238
G0 F6000 X14.424 Y190.918
G1 F1200 X19.081 Y195.575 E64.33143
G0 F6000 X19.364 Y195.292
G1 F1200 X14.707 Y190.635 E64.55048
G0 F6000 X14.989 Y190.352
G1 F1200 X19.647 Y195.01 E64.76958
G0 F6000 X19.93 Y194.727
G1 F1200 X15.272 Y190.069 E64.98868
G0 F6000 X15.555 Y189.786
G1 F1200 X20.213 Y194.444 E65.20777
G0 F6000 X20.496 Y194.161
G1 F1200 X15.838 Y189.503 E65.42687
G0 F6000 X16.121 Y189.221
G1 F1200 X20.779 Y193.878 E65.64595
G0 F6000 X21.061 Y193.595
G1 F1200 X16.404 Y188.938 E65.865
G0 F6000 X16.687 Y188.655
G1 F1200 X21.344 Y193.313 E66.08407
G0 F6000 X21.627 Y193.03
G1 F1200 X16.969 Y188.372 E66.30317
G0 F6000 X17.252 Y188.089
G1 F1200 X21.91 Y192.747 E66.52227
G0 F6000 X22.193 Y192.464
G1 F1200 X17.535 Y187.806 E66.74137
G0 F6000 X17.818 Y187.524
G1 F1200 X22.476 Y192.181 E66.96044
G0 F6000 X22.758 Y191.898
G1 F1200 X18.101 Y187.241 E67.17949
G0 F6000 X18.384 Y186.958
G1 F1200 X23.041 Y191.616 E67.39857
G0 F6000 X23.324 Y191.333
G1 F1200 X18.666 Y186.675 E67.61766
G0 F6000 X18.949 Y186.392
G1 F1200 X23.607 Y191.05 E67.83676
G0 F6000 X23.89 Y190.767
G1 F1200 X19.232 Y186.109 E68.05586
G0 F6000 X19.515 Y185.826
G1 F1200 X24.173 Y190.484 E68.27496
G0 F6000 X24.455 Y190.201
G1 F1200 X19.798 Y185.544 E68.49401
G0 F6000 X20.081 Y185.261
G1 F1200 X24.738 Y189.918 E68.71306
G0 F6000 X25.021 Y189.636
G1 F1200 X20.363 Y184.978 E68.93216
G0 F6000 X20.646 Y184.695
G1 F1200 X25.304 Y189.353 E69.15126
G0 F6000 X25.587 Y189.07
G1 F1200 X20.929 Y184.412 E69.37035
G0 F6000 X21.212 Y184.129
G1 F1200 X25.87 Y188.787 E69.58945
G0 F6000 X26.153 Y188.504
G1 F1200 X21.495 Y183.847 E69.80853
G0 F6000 X21.778 Y183.564
G1 F1200 X26.435 Y188.221 E70.02758
G0 F6000 X26.718 Y187.939
G1 F1200 X22.061 Y183.281 E70.24665
G0 F6000 X22.343 Y182.998
G1 F1200 X27.001 Y187.656 E70.46575
G0 F6000 X27.284 Y187.373
G1 F1200 X22.626 Y182.715 E70.68485
G0 F6000 X22.909 Y182.432
G1 F1200 X27.567 Y187.09 E70.90395
G0 F6000 X27.85 Y186.807
G1 F1200 X23.192 Y182.149 E71.12304
G0 F6000 X23.475 Y181.867
G1 F1200 X28.132 Y186.524 E71.3421
G0 F6000 X28.415 Y186.242
G1 F1200 X23.758 Y181.584 E71.56117
G0 F6000 X24.04 Y181.301
G1 F1200 X28.698 Y185.959 E71.78027
G0 F6000 X28.981 Y185.676
G1 F1200 X24.323 Y181.018 E71.99937
G0 F6000 X24.606 Y180.735
G1 F1200 X29.264 Y185.393 E72.21846
G0 F6000 X29.547 Y185.11
G1 F1200 X24.889 Y180.452 E72.43756
G0 F6000 X25.172 Y180.17
G1 F1200 X29.83 Y184.827 E72.65664
G0 F6000 X30.112 Y184.544
G1 F1200 X25.455 Y179.887 E72.87569
G0 F6000 X25.737 Y179.604
G1 F1200 X30.395 Y184.262 E73.09479
G0 F6000 X30.678 Y183.979
G1 F1200 X26.02 Y179.321 E73.31388
G0 F6000 X26.303 Y179.038
G1 F1200 X30.961 Y183.696 E73.53298
G0 F6000 X31.244 Y183.413
G1 F1200 X26.586 Y178.755 E73.75208
G0 F6000 X26.869 Y178.473
G1 F1200 X31.527 Y183.13 E73.97115
G0 F6000 X31.809 Y182.847
G1 F1200 X27.152 Y178.19 E74.1902
G0 F6000 X27.435 Y177.907
G1 F1200 X32.092 Y182.565 E74.40928
G0 F6000 X32.375 Y182.282
G1 F1200 X27.717 Y177.624 E74.62838
G0 F6000 X28 Y177.341
G1 F1200 X32.658 Y181.999 E74.84748
G0 F6000 X32.941 Y181.716
G1 F1200 X28.283 Y177.058 E75.06657
G0 F6000 X28.566 Y176.775
G1 F1200 X33.224 Y181.433 E75.28567
G0 F6000 X33.506 Y181.15
G1 F1200 X28.849 Y176.493 E75.50472
G0 F6000 X29.132 Y176.21
G1 F1200 X33.789 Y180.868 E75.7238
G0 F6000 X34.072 Y180.585
G1 F1200 X29.414 Y175.927 E75.9429
G0 F6000 X29.697 Y175.644
G1 F1200 X34.355 Y180.302 E76.16199
G0 F6000 X34.638 Y180.019
G1 F1200 X29.98 Y175.361 E76.38109
G0 F6000 X30.263 Y175.078
G1 F1200 X34.921 Y179.736 E76.60019
G0 F6000 X35.204 Y179.453
G1 F1200 X30.546 Y174.796 E76.81926
G0 F6000 X30.829 Y174.513
G1 F1200 X35.486 Y179.17 E77.03831
G0 F6000 X35.769 Y178.888
G1 F1200 X31.111 Y174.23 E77.25741
G0 F6000 X31.394 Y173.947
G1 F1200 X36.052 Y178.605 E77.47651
G0 F6000 X36.335 Y178.322
G1 F1200 X31.677 Y173.664 E77.69561
G0 F6000 X31.96 Y173.381
G1 F1200 X36.618 Y178.039 E77.91471
G0 F6000 X36.901 Y177.756
G1 F1200 X32.243 Y173.099 E78.13378
G0 F6000 X32.526 Y172.816
G1 F1200 X37.183 Y177.473 E78.35283
G0 F6000 X37.466 Y177.191
G1 F1200 X32.809 Y172.533 E78.57191
G0 F6000 X33.091 Y172.25
G1 F1200 X37.749 Y176.908 E78.79101
G0 F6000 X38.032 Y176.625
G1 F1200 X33.374 Y171.967 E79.0101
G0 F6000 X33.657 Y171.684
G1 F1200 X38.315 Y176.342 E79.2292
G0 F6000 X38.598 Y176.059
G1 F1200 X33.94 Y171.401 E79.4483
G0 F6000 X34.223 Y171.119
G1 F1200 X38.88 Y175.776 E79.66735
G0 F6000 X39.163 Y175.494
G1 F1200 X34.506 Y170.836 E79.88642
G0 F6000 X34.788 Y170.553
G1 F1200 X39.446 Y175.211 E80.10552
G0 F6000 X39.729 Y174.928
G1 F1200 X35.071 Y170.27 E80.32462
G0 F6000 X35.354 Y169.987
G1 F1200 X40.012 Y174.645 E80.54372
G0 F6000 X40.295 Y174.362
G1 F1200 X35.637 Y169.704 E80.76282
G0 F6000 X35.92 Y169.422
G1 F1200 X40.578 Y174.079 E80.98189
G0 F6000 X40.86 Y173.796
G1 F1200 X36.203 Y169.139 E81.20094
G0 F6000 X36.486 Y168.856
G1 F1200 X41.143 Y173.514 E81.42002
G0 F6000 X41.426 Y173.231
G1 F1200 X36.768 Y168.573 E81.63911
G0 F6000 X37.051 Y168.29
G1 F1200 X41.709 Y172.948 E81.85821
G0 F6000 X41.992 Y172.665
G1 F1200 X37.334 Y168.007 E82.07731
G0 F6000 X37.617 Y167.725
G1 F1200 X42.275 Y172.382 E82.29639
G0 F6000 X42.557 Y172.099
G1 F1200 X37.9 Y167.442 E82.51544
G0 F6000 X38.183 Y167.159
G1 F1200 X42.84 Y171.817 E82.73451
G0 F6000 X43.123 Y171.534
G1 F1200 X38.465 Y166.876 E82.95361
G0 F6000 X38.748 Y166.593
G1 F1200 X43.406 Y171.251 E83.17271
G0 F6000 X43.689 Y170.968
G1 F1200 X39.031 Y166.31 E83.39181
G0 F6000 X39.314 Y166.027
G1 F1200 X43.972 Y170.685 E83.6109
G0 F6000 X44.254 Y170.402
G1 F1200 X39.597 Y165.745 E83.82995
G0 F6000 X39.88 Y165.462
G1 F1200 X44.537 Y170.119 E84.04901
G0 F6000 X44.82 Y169.837
G1 F1200 X40.162 Y165.179 E84.2681
G0 F6000 X40.445 Y164.896
G1 F1200 X45.103 Y169.554 E84.4872
G0 F6000 X45.386 Y169.271
G1 F1200 X40.728 Y164.613 E84.7063
G0 F6000 X41.011 Y164.33
G1 F1200 X45.669 Y168.988 E84.9254
G0 F6000 X45.952 Y168.705
G1 F1200 X41.294 Y164.048 E85.14447
G0 F6000 X41.577 Y163.765
G1 F1200 X46.234 Y168.422 E85.36352
G0 F6000 X46.517 Y168.14
G1 F1200 X41.86 Y163.482 E85.5826
G0 F6000 X42.142 Y163.199
G1 F1200 X46.8 Y167.857 E85.8017
G0 F6000 X47.083 Y167.574
G1 F1200 X42.425 Y162.916 E86.02079
G0 F6000 X42.708 Y162.633
G1 F1200 X47.366 Y167.291 E86.23989
G0 F6000 X47.649 Y167.008
G1 F1200 X42.991 Y162.351 E86.45897
G0 F6000 X43.274 Y162.068
G1 F1200 X47.931 Y166.725 E86.67802
G0 F6000 X48.214 Y166.443
G1 F1200 X43.557 Y161.785 E86.89709
G0 F6000 X43.839 Y161.502
G1 F1200 X48.497 Y166.16 E87.11619
G0 F6000 X48.78 Y165.877
G1 F1200 X44.122 Y161.219 E87.33529
G0 F6000 X44.405 Y160.936
G1 F1200 X49.063 Y165.594 E87.55439
G0 F6000 X49.346 Y165.311
G1 F1200 X44.688 Y160.653 E87.77348
G0 F6000 X44.971 Y160.371
G1 F1200 X49.628 Y165.028 E87.99253
G0 F6000 X49.911 Y164.745
G1 F1200 X45.254 Y160.088 E88.21159
G0 F6000 X45.536 Y159.805
G1 F1200 X50.194 Y164.463 E88.43068
