;FLAVOR:Marlin
;TIME:5681
;Filament used: 9.79659m
;Layer height: 0.4
;MINX:47.701
;MINY:47.7
;MINZ:0.2
;MAXX:187.3
;MAXY:187.3
;MAXZ:5.2
;Generated with Cura_SteamEngine 5.3.1
M140 S60
M105
M190 S60
M104 S200
M105
M109 S200
M82 ;absolute extrusion mode
; Ender 3 Custom Start G-code
G92 E0 ; Reset Extruder
G28 ; Home all axes
G1 Z2.0 F3000 ; Move Z Axis up little to prevent scratching of Heat Bed
G1 X0.1 Y20 Z0.3 F5000.0 ; Move to start position
G1 X0.1 Y200.0 Z0.3 F1500.0 E15 ; Draw the first line
G1 X0.4 Y200.0 Z0.3 F5000.0 ; Move to side a little
G1 X0.4 Y20 Z0.3 F1500.0 E30 ; Draw the second line
G92 E0 ; Reset Extruder
G1 Z2.0 F3000 ; Move Z Axis up little to prevent scratching of Heat Bed
G1 X5 Y20 Z0.3 F5000.0 ; Move over to prevent blob squish
G92 E0
G92 E0
G1 F2700 E-5
;LAYER_COUNT:13
;LAYER:0
M107
G1 F300 Z0.4
;MESH:Joints_Remake_TestFit_V1.stl
G0 F6000 X63.623 Y68.396 Z0.4
;TYPE:WALL-INNER
G1 F300 Z0.2
G1 F2700 E0
G1 F1200 X63.383 Y68.63 E0.01115
G1 X63.176 Y68.7 E0.01842
G1 X57.417 Y68.7 E0.20996
G1 X57.192 Y68.616 E0.21795
G1 X57.045 Y68.492 E0.22435
G1 X56.9 Y68.179 E0.23582
G1 X56.9 Y57.419 E0.5937
G1 X56.969 Y57.219 E0.60074
G1 X57.141 Y57.018 E0.60953
G1 X57.419 Y56.9 E0.61958
G1 X63.18 Y56.9 E0.81119
G1 X63.365 Y56.961 E0.81767
G1 X63.505 Y57.056 E0.8233
G1 X63.638 Y57.232 E0.83063
G1 X63.696 Y57.428 E0.83743
G1 X63.698 Y68.157 E1.19428
G1 X63.623 Y68.396 E1.20261
G1 F2700 E-3.79739
G1 F300 Z0.4
G0 F6000 X107.41 Y104.545 Z0.4
G1 F300 Z0.2
G1 F2700 E1.20261
G1 F1200 X107.127 Y104.441 E1.21264
G1 X76.999 Y74.313 E2.62977
G1 X76.905 Y74.049 E2.63909
G1 X76.9 Y52.421 E3.35844
G1 X77.02 Y52.14 E3.3686
G1 X77.14 Y52.019 E3.37427
G1 X77.426 Y51.9 E3.38457
G1 X157.5 Y51.9 E6.04785
G1 X157.695 Y51.932 E6.05442
G1 X157.861 Y52.019 E6.06065
G1 X157.98 Y52.14 E6.0663
G1 X158.1 Y52.421 E6.07646
G1 X158.095 Y74.049 E6.79581
G1 X158.001 Y74.313 E6.80513
G1 X127.87 Y104.444 E8.2224
G1 X127.586 Y104.545 E8.23242
G1 X127.338 Y104.523 E8.24071
G1 X127.216 Y104.474 E8.24508
G1 X126.697 Y104.105 E8.26626
G1 X126.214 Y103.787 E8.28549
G1 X125.73 Y103.491 E8.30436
G1 X125.237 Y103.212 E8.3232
G1 X124.744 Y102.955 E8.34169
G1 X124.233 Y102.711 E8.36053
G1 X123.725 Y102.49 E8.37895
G1 X123.185 Y102.28 E8.39823
G1 X122.332 Y101.987 E8.42822
G1 X121.583 Y101.771 E8.45415
G1 X120.769 Y101.581 E8.48195
G1 X120.765 Y101.574 E8.48222
G1 X119.895 Y101.43 E8.51155
G1 X119.057 Y101.325 E8.53964
G1 X118.264 Y101.267 E8.56609
G1 X118.258 Y101.259 E8.56642
G1 X117.354 Y101.252 E8.59649
G1 X116.532 Y101.279 E8.62384
G1 X115.745 Y101.344 E8.65011
G1 X115.74 Y101.339 E8.65034
G1 X115.096 Y101.43 E8.67197
G1 X114.255 Y101.579 E8.70038
G1 X113.709 Y101.699 E8.71897
G1 X113.149 Y101.845 E8.73822
G1 X112.338 Y102.092 E8.76642
G1 X111.809 Y102.28 E8.78509
G1 X111.276 Y102.49 E8.80415
G1 X110.683 Y102.746 E8.82563
G1 X109.749 Y103.219 E8.86045
G1 X109.251 Y103.501 E8.87948
G1 X108.786 Y103.786 E8.89762
G1 X108.296 Y104.111 E8.91718
G1 X107.777 Y104.479 E8.93834
G1 X107.41 Y104.545 E8.95074
G1 F2700 E3.95074
G1 F300 Z0.4
G0 F6000 X116.457 Y132.415 Z0.4
G1 F300 Z0.2
G1 F2700 E8.95074
G1 F1200 X115.666 Y132.338 E8.97718
G1 X114.932 Y132.23 E9.00185
G1 X114.384 Y132.121 E9.02044
G1 X113.867 Y132.003 E9.03807
G1 X113.026 Y131.769 E9.06711
G1 X112.155 Y131.463 E9.09781
G1 X111.652 Y131.259 E9.11587
G1 X111.169 Y131.046 E9.13343
G1 X110.703 Y130.817 E9.15069
G1 X110.252 Y130.576 E9.1677
G1 X109.791 Y130.311 E9.18539
G1 X109.359 Y130.043 E9.2023
G1 X108.91 Y129.738 E9.22035
G1 X108.296 Y129.282 E9.24579
G1 X107.879 Y128.944 E9.26364
G1 X107.301 Y128.43 E9.28937
G1 X106.92 Y128.064 E9.30694
G1 X106.564 Y127.695 E9.32399
G1 X106.055 Y127.122 E9.34948
G1 X105.708 Y126.692 E9.36786
G1 X105.254 Y126.077 E9.39329
G1 X104.961 Y125.642 E9.41073
G1 X104.68 Y125.191 E9.4284
G1 X104.419 Y124.739 E9.44576
G1 X104.174 Y124.279 E9.4631
G1 X103.832 Y123.579 E9.48901
G1 X103.808 Y123.494 E9.49195
G1 X103.633 Y123.09 E9.50659
G1 X103.451 Y122.616 E9.52348
G1 X103.276 Y122.109 E9.54132
G1 X103.13 Y121.631 E9.55794
G1 X102.99 Y121.105 E9.57605
G1 X102.876 Y120.6 E9.59327
G1 X102.773 Y120.079 E9.61093
G1 X102.657 Y119.303 E9.63703
G1 X102.586 Y118.567 E9.66162
G1 X102.552 Y117.775 E9.68799
G1 X102.552 Y117.235 E9.70595
G1 X102.585 Y116.453 E9.73198
G1 X102.661 Y115.675 E9.75798
G1 X102.772 Y114.922 E9.78329
G1 X102.877 Y114.392 E9.80126
G1 X102.998 Y113.864 E9.81928
G1 X103.236 Y113.01 E9.84877
G1 X103.542 Y112.146 E9.87925
G1 X103.737 Y111.66 E9.89667
G1 X103.955 Y111.169 E9.91454
G1 X104.181 Y110.707 E9.93164
G1 X104.424 Y110.252 E9.9488
G1 X104.689 Y109.791 E9.96649
G1 X104.959 Y109.356 E9.98351
G1 X105.262 Y108.91 E10.00145
G1 X105.718 Y108.296 E10.02689
G1 X106.031 Y107.907 E10.04349
G1 X106.565 Y107.305 E10.07026
G1 X106.936 Y106.92 E10.08804
G1 X107.305 Y106.564 E10.10509
G1 X107.878 Y106.055 E10.13059
G1 X108.308 Y105.708 E10.14896
G1 X108.923 Y105.253 E10.17441
G1 X109.339 Y104.973 E10.19109
G1 X109.799 Y104.686 E10.20912
G1 X110.261 Y104.419 E10.22687
G1 X110.721 Y104.174 E10.2442
G1 X111.421 Y103.832 E10.27011
G1 X111.506 Y103.808 E10.27305
G1 X111.91 Y103.633 E10.2877
G1 X112.384 Y103.451 E10.30458
G1 X112.879 Y103.28 E10.322
G1 X113.369 Y103.13 E10.33905
G1 X113.883 Y102.993 E10.35674
G1 X114.4 Y102.876 E10.37437
G1 X114.921 Y102.773 E10.39203
G1 X115.663 Y102.661 E10.41699
G1 X116.433 Y102.586 E10.44272
G1 X117.225 Y102.552 E10.46909
G1 X117.765 Y102.552 E10.48705
G1 X118.547 Y102.585 E10.51308
G1 X119.334 Y102.662 E10.53938
G1 X120.078 Y102.771 E10.56439
G1 X120.617 Y102.878 E10.58267
G1 X121.134 Y102.997 E10.60031
G1 X121.985 Y103.233 E10.62969
G1 X122.85 Y103.538 E10.66019
G1 X123.349 Y103.741 E10.67811
G1 X123.827 Y103.95 E10.69546
G1 X124.294 Y104.18 E10.71278
G1 X124.747 Y104.424 E10.72989
G1 X125.192 Y104.679 E10.74695
G1 X125.639 Y104.954 E10.7644
G1 X126.082 Y105.254 E10.7822
G1 X126.704 Y105.718 E10.80801
G1 X127.113 Y106.049 E10.82551
G1 X127.695 Y106.565 E10.85138
G1 X128.08 Y106.936 E10.86916
G1 X128.436 Y107.305 E10.88621
G1 X128.945 Y107.878 E10.91171
G1 X129.292 Y108.308 E10.93008
G1 X129.739 Y108.91 E10.95502
G1 X130.038 Y109.356 E10.97288
G1 X130.304 Y109.781 E10.98956
G1 X130.581 Y110.26 E11.00796
G1 X130.816 Y110.699 E11.02452
G1 X131.169 Y111.418 E11.05116
G1 X131.191 Y111.506 E11.05418
G1 X131.367 Y111.91 E11.06884
G1 X131.549 Y112.384 E11.08573
G1 X131.717 Y112.869 E11.1028
G1 X131.871 Y113.371 E11.12026
G1 X132.005 Y113.87 E11.13745
G1 X132.131 Y114.434 E11.15667
G1 X132.227 Y114.921 E11.17318
G1 X132.341 Y115.67 E11.19838
G1 X132.415 Y116.432 E11.22384
G1 X132.449 Y117.229 E11.25037
G1 X132.448 Y117.765 E11.2682
G1 X132.416 Y118.547 E11.29423
G1 X132.34 Y119.325 E11.32023
G1 X132.229 Y120.082 E11.34568
G1 X132.124 Y120.608 E11.36352
G1 X132.011 Y121.105 E11.38047
G1 X131.768 Y121.981 E11.41071
G1 X131.462 Y122.85 E11.44135
G1 X131.263 Y123.339 E11.45891
G1 X131.051 Y123.822 E11.47645
G1 X130.82 Y124.294 E11.49393
G1 X130.576 Y124.747 E11.51104
G1 X130.321 Y125.192 E11.5281
G1 X130.046 Y125.639 E11.54556
G1 X129.748 Y126.079 E11.56323
G1 X129.298 Y126.684 E11.58831
G1 X128.951 Y127.113 E11.60666
G1 X128.435 Y127.695 E11.63253
G1 X128.064 Y128.08 E11.65031
G1 X127.694 Y128.437 E11.66742
G1 X127.125 Y128.941 E11.6927
G1 X126.693 Y129.291 E11.71119
G1 X126.086 Y129.741 E11.73632
G1 X125.644 Y130.037 E11.75401
G1 X125.209 Y130.31 E11.7711
G1 X124.752 Y130.575 E11.78867
G1 X124.299 Y130.817 E11.80575
G1 X123.596 Y131.162 E11.83179
G1 X123.494 Y131.192 E11.83533
G1 X123.091 Y131.367 E11.84994
G1 X122.616 Y131.549 E11.86686
G1 X122.131 Y131.718 E11.88394
G1 X121.611 Y131.875 E11.90201
G1 X121.117 Y132.007 E11.91902
G1 X120.567 Y132.131 E11.93777
G1 X120.089 Y132.227 E11.95399
G1 X119.31 Y132.342 E11.98018
G1 X118.541 Y132.415 E12.00587
G1 X117.775 Y132.448 E12.03137
G1 X117.235 Y132.448 E12.04933
G1 X116.457 Y132.415 E12.07523
G1 F2700 E7.07523
G1 F300 Z0.4
G0 F6000 X74.049 Y158.095 Z0.4
G1 F300 Z0.2
G1 F2700 E12.07523
G1 F1200 X52.421 Y158.1 E12.79458
G1 X52.14 Y157.98 E12.80474
G1 X52.019 Y157.86 E12.81041
G1 X51.9 Y157.574 E12.82071
G1 X51.9 Y77.5 E15.48398
G1 X51.932 Y77.305 E15.49056
G1 X52.019 Y77.139 E15.49679
G1 X52.14 Y77.02 E15.50244
G1 X52.421 Y76.9 E15.5126
G1 X74.049 Y76.905 E16.23195
G1 X74.313 Y76.999 E16.24127
G1 X104.444 Y107.13 E17.65854
G1 X104.55 Y107.429 E17.66909
G1 X104.516 Y107.723 E17.67893
G1 X104.104 Y108.303 E17.7026
G1 X103.787 Y108.786 E17.72181
G1 X103.491 Y109.27 E17.74068
G1 X103.212 Y109.763 E17.75952
G1 X102.955 Y110.256 E17.77801
G1 X102.711 Y110.767 E17.79685
G1 X102.486 Y111.286 E17.81566
G1 X102.275 Y111.824 E17.83488
G1 X101.993 Y112.645 E17.86376
G1 X101.767 Y113.44 E17.89125
G1 X101.581 Y114.231 E17.91827
G1 X101.574 Y114.235 E17.91854
G1 X101.43 Y115.11 E17.94803
G1 X101.324 Y115.943 E17.97596
G1 X101.267 Y116.736 E18.00241
G1 X101.259 Y116.742 E18.00274
G1 X101.252 Y117.658 E18.03321
G1 X101.279 Y118.468 E18.06016
G1 X101.344 Y119.251 E18.08629
G1 X101.339 Y119.257 E18.08655
G1 X101.473 Y120.183 E18.11767
G1 X101.572 Y120.715 E18.13567
G1 X101.699 Y121.29 E18.15526
G1 X101.841 Y121.837 E18.17405
G1 X102.09 Y122.655 E18.20249
G1 X102.278 Y123.186 E18.22123
G1 X102.491 Y123.725 E18.2405
G1 X102.746 Y124.317 E18.26194
G1 X103.219 Y125.251 E18.29676
G1 X103.495 Y125.739 E18.31541
G1 X103.791 Y126.223 E18.33428
G1 X104.111 Y126.705 E18.35352
G1 X104.479 Y127.223 E18.37466
G1 X104.545 Y127.59 E18.38706
G1 X104.441 Y127.873 E18.39709
G1 X74.35 Y157.96 E19.81238
G1 X74.049 Y158.095 E19.82335
G1 F2700 E14.82335
G1 F300 Z0.4
G0 F6000 X63.603 Y177.828 Z0.4
G1 F300 Z0.2
G1 F2700 E19.82335
G1 F1200 X63.365 Y178.039 E19.83393
G1 X63.18 Y178.1 E19.84041
G1 X57.419 Y178.1 E20.03202
G1 X57.219 Y178.031 E20.03906
G1 X57.018 Y177.859 E20.04786
G1 X56.9 Y177.581 E20.0579
G1 X56.9 Y166.821 E20.41578
G1 X57.045 Y166.508 E20.42726
G1 X57.193 Y166.384 E20.43368
G1 X57.424 Y166.3 E20.44185
G1 X63.181 Y166.3 E20.63333
G1 X63.383 Y166.37 E20.64044
G1 X63.623 Y166.604 E20.65159
G1 X63.698 Y166.843 E20.65992
G1 X63.7 Y177.574 E21.01684
G1 X63.603 Y177.828 E21.02588
G1 F2700 E16.02588
G1 F300 Z0.4
G0 F6000 X48.101 Y186.899 Z0.4
G1 F300 Z0.2
G1 F2700 E21.02588
G1 F1200 X186.9 Y186.9 E25.64235
G1 X186.9 Y48.1 E30.25886
G1 X48.101 Y48.101 E34.87533
G1 X48.101 Y186.899 E39.49178
G1 F2700 E34.49178
G1 F300 Z0.4
G0 F6000 X157.574 Y183.1 Z0.4
G1 F300 Z0.2
G1 F2700 E39.49178
G1 F1200 X77.5 Y183.1 E42.15505
G1 X77.305 Y183.068 E42.16162
G1 X77.139 Y182.981 E42.16785
G1 X77.02 Y182.86 E42.1735
G1 X76.9 Y182.579 E42.18366
G1 X76.905 Y160.951 E42.90301
G1 X77.04 Y160.65 E42.91398
G1 X107.13 Y130.563 E44.32925
G1 X107.411 Y130.459 E44.33922
G1 X107.725 Y130.485 E44.3497
G1 X108.306 Y130.899 E44.37343
G1 X108.773 Y131.208 E44.39205
G1 X109.518 Y131.654 E44.42093
G1 X110.006 Y131.918 E44.43939
G1 X110.471 Y132.154 E44.45673
G1 X110.475 Y132.163 E44.45706
G1 X111.308 Y132.519 E44.48719
G1 X111.309 Y132.527 E44.48745
G1 X112.093 Y132.824 E44.51534
G1 X112.897 Y133.085 E44.54345
G1 X113.166 Y133.162 E44.55276
G1 X113.724 Y133.305 E44.57192
G1 X114.546 Y133.478 E44.59986
G1 X115.108 Y133.572 E44.61881
G1 X115.583 Y133.64 E44.63477
G1 X115.589 Y133.647 E44.63508
G1 X116.401 Y133.712 E44.66217
G1 X116.805 Y133.736 E44.67563
G1 X117.368 Y133.751 E44.69436
G1 X117.923 Y133.745 E44.71282
G1 X118.791 Y133.699 E44.74173
G1 X119.338 Y133.645 E44.76001
G1 X119.913 Y133.572 E44.77929
G1 X120.458 Y133.479 E44.79768
G1 X120.888 Y133.396 E44.81225
G1 X120.896 Y133.403 E44.8126
G1 X121.446 Y133.266 E44.83145
G1 X122.113 Y133.081 E44.85448
G1 X122.931 Y132.817 E44.88306
G1 X123.434 Y132.628 E44.90094
G1 X123.98 Y132.402 E44.92059
G1 X124.574 Y132.128 E44.94235
G1 X124.58 Y132.132 E44.94259
G1 X125.245 Y131.785 E44.96753
G1 X125.986 Y131.358 E44.99598
G1 X126.469 Y131.05 E45.01503
G1 X127.274 Y130.488 E45.04769
G1 X127.592 Y130.457 E45.05831
G1 X127.872 Y130.561 E45.06825
G1 X157.96 Y160.65 E46.48352
G1 X158.095 Y160.951 E46.49449
G1 X158.1 Y182.579 E47.21384
G1 X157.98 Y182.86 E47.224
G1 X157.86 Y182.981 E47.22967
G1 X157.574 Y183.1 E47.23997
G1 F2700 E42.23997
G1 F300 Z0.4
G0 F6000 X171.362 Y177.768 Z0.4
G1 F300 Z0.2
G1 F2700 E47.23997
G1 F1200 X171.304 Y177.572 E47.24677
G1 X171.302 Y166.843 E47.60362
G1 X171.377 Y166.604 E47.61195
G1 X171.617 Y166.37 E47.6231
G1 X171.824 Y166.3 E47.63037
G1 X177.583 Y166.3 E47.82191
G1 X177.808 Y166.384 E47.8299
G1 X177.955 Y166.508 E47.8363
G1 X178.1 Y166.821 E47.84777
G1 X178.1 Y177.581 E48.20565
G1 X178.031 Y177.781 E48.21269
G1 X177.859 Y177.982 E48.22149
G1 X177.581 Y178.1 E48.23153
G1 X171.82 Y178.1 E48.42314
G1 X171.635 Y178.039 E48.42962
G1 X171.495 Y177.944 E48.43525
G1 X171.362 Y177.768 E48.44259
G1 F2700 E43.44259
G1 F300 Z0.4
G0 F6000 X160.951 Y158.095 Z0.4
G1 F300 Z0.2
G1 F2700 E48.44259
G1 F1200 X160.65 Y157.96 E48.45356
G1 X130.556 Y127.87 E49.86899
G1 X130.455 Y127.586 E49.87902
G1 X130.477 Y127.338 E49.8873
G1 X130.526 Y127.215 E49.8917
G1 X130.89 Y126.706 E49.91252
G1 X131.213 Y126.214 E49.93209
G1 X131.509 Y125.73 E49.95096
G1 X131.788 Y125.237 E49.9698
G1 X132.045 Y124.744 E49.98829
G1 X132.289 Y124.233 E50.00713
G1 X132.514 Y123.714 E50.02594
G1 X132.724 Y123.176 E50.04515
G1 X133.008 Y122.351 E50.07417
G1 X133.231 Y121.573 E50.10109
G1 X133.413 Y120.764 E50.12867
G1 X133.42 Y120.76 E50.12894
G1 X133.57 Y119.9 E50.15797
G1 X133.676 Y119.057 E50.18623
G1 X133.733 Y118.264 E50.21268
G1 X133.741 Y118.258 E50.21301
G1 X133.748 Y117.342 E50.24348
G1 X133.721 Y116.532 E50.27043
G1 X133.656 Y115.745 E50.2967
G1 X133.661 Y115.74 E50.29693
G1 X133.571 Y115.094 E50.31862
G1 X133.478 Y114.542 E50.33724
G1 X133.393 Y114.111 E50.35185
G1 X133.4 Y114.104 E50.35218
G1 X133.233 Y113.436 E50.37509
G1 X133.079 Y112.884 E50.39415
G1 X132.854 Y112.182 E50.41866
G1 X132.86 Y112.172 E50.41905
G1 X132.514 Y111.285 E50.45072
G1 X132.284 Y110.758 E50.46984
G1 X132.04 Y110.246 E50.48871
G1 X131.644 Y109.5 E50.5168
G1 X131.207 Y108.775 E50.54495
G1 X130.889 Y108.294 E50.56413
G1 X130.488 Y107.731 E50.58712
G1 X130.455 Y107.41 E50.59786
G1 X130.559 Y107.127 E50.60788
G1 X160.687 Y76.999 E52.02501
G1 X160.951 Y76.905 E52.03433
G1 X182.579 Y76.9 E52.75368
G1 X182.86 Y77.02 E52.76385
G1 X182.981 Y77.139 E52.76949
G1 X183.068 Y77.305 E52.77572
G1 X183.1 Y77.5 E52.7823
G1 X183.1 Y157.574 E55.44557
G1 X182.981 Y157.86 E55.45587
G1 X182.86 Y157.98 E55.46154
G1 X182.579 Y158.1 E55.4717
G1 X160.951 Y158.095 E56.19105
G1 F2700 E51.19105
G1 F300 Z0.4
G0 F6000 X171.377 Y68.396 Z0.4
G1 F300 Z0.2
G1 F2700 E56.19105
G1 F1200 X171.302 Y68.157 E56.19938
G1 X171.304 Y57.428 E56.55623
G1 X171.397 Y57.172 E56.56529
G1 X171.635 Y56.961 E56.57587
G1 X171.82 Y56.9 E56.58235
G1 X177.581 Y56.9 E56.77396
G1 X177.781 Y56.969 E56.781
G1 X177.982 Y57.141 E56.7898
G1 X178.1 Y57.419 E56.79984
G1 X178.1 Y68.179 E57.15772
G1 X177.955 Y68.492 E57.16919
G1 X177.807 Y68.616 E57.17561
G1 X177.576 Y68.7 E57.18379
G1 X171.819 Y68.7 E57.37527
G1 X171.617 Y68.63 E57.38238
G1 X171.377 Y68.396 E57.39353
G0 F6000 X171.7 Y68.181
;TYPE:WALL-OUTER
G1 F1200 X171.701 Y57.476 E57.74958
G1 X171.765 Y57.352 E57.75422
G1 X171.869 Y57.302 E57.75806
G1 X177.535 Y57.302 E57.94651
G1 X177.661 Y57.38 E57.95144
G1 X177.698 Y57.467 E57.95458
G1 X177.698 Y68.135 E58.3094
G1 X177.652 Y68.231 E58.31294
G1 X177.535 Y68.298 E58.31743
G1 X171.865 Y68.298 E58.50601
G1 X171.7 Y68.181 E58.51274
G1 F2700 E53.51274
G1 F300 Z0.4
G0 F6000 X107.46 Y104.148 Z0.4
G1 F300 Z0.2
G1 F2700 E58.51274
G1 F1200 X107.374 Y104.117 E58.51578
G1 X77.333 Y74.081 E59.9287
G1 X77.301 Y73.993 E59.93181
G1 X77.303 Y52.463 E60.6479
G1 X77.38 Y52.339 E60.65276
G1 X77.465 Y52.302 E60.65584
G1 X157.546 Y52.3 E63.31935
G1 X157.66 Y52.38 E63.32398
G1 X157.697 Y52.463 E63.327
G1 X157.699 Y73.993 E64.04309
G1 X157.667 Y74.081 E64.04621
G1 X127.623 Y104.118 E65.45922
G1 X127.434 Y104.139 E65.46554
G1 X126.917 Y103.771 E65.48665
G1 X126.438 Y103.454 E65.50575
G1 X125.943 Y103.151 E65.52506
G1 X125.438 Y102.865 E65.54436
G1 X124.917 Y102.594 E65.56389
G1 X124.382 Y102.34 E65.58359
