;FLAVOR:Marlin
;TIME:10650
;Filament used: 22.9013m
;Layer height: 0.4
;MINX:28.4
;MINY:28.401
;MINZ:0.24
;MAXX:206.599
;MAXY:206.6
;MAXZ:6.59
;Generated with Cura_SteamEngine 5.3.1
M140 S60
M105
M190 S60
M104 S200
M105
M109 S200
M82 ;absolute extrusion mode
; Ender 3 Custom Start G-code
G92 E0 ; Reset Extruder
G28 ; Home all axes
G1 Z2.0 F3000 ; Move Z Axis up little to prevent scratching of Heat Bed
G1 X0.1 Y20 Z0.3 F5000.0 ; Move to start position
G1 X0.1 Y200.0 Z0.3 F1500.0 E15 ; Draw the first line
G1 X0.4 Y200.0 Z0.3 F5000.0 ; Move to side a little
G1 X0.4 Y20 Z0.3 F1500.0 E30 ; Draw the second line
G92 E0 ; Reset Extruder
G1 Z2.0 F3000 ; Move Z Axis up little to prevent scratching of Heat Bed
G1 X5 Y20 Z0.3 F5000.0 ; Move over to prevent blob squish
G92 E0
G92 E0
G1 F2700 E-5
;LAYER_COUNT:13
;LAYER:-5
M107
G0 F15000 X33.718 Y34.28 Z0.24
;TYPE:SUPPORT-INTERFACE
G1 F2700 E0
G1 F2250 X34.702 Y33.326 E0.1094
G1 X35.642 Y32.531 E0.20767
G1 X36.612 Y31.811 E0.3041
G1 X37.663 Y31.132 E0.40398
G1 X38.713 Y30.546 E0.49997
G1 X39.823 Y30.015 E0.59819
G1 X40.8 Y29.618 E0.68237
G1 X41.962 Y29.225 E0.78029
G1 X43.314 Y28.868 E0.89191
G1 X44.52 Y28.638 E0.98991
G1 X45.875 Y28.464 E1.09896
G1 X45.887 Y28.476 E1.10032
G1 X46.791 Y28.416 E1.17264
G1 X47.568 Y28.401 E1.23467
G1 X187.552 Y28.403 E12.4088
G1 X188.594 Y28.422 E12.49199
G1 X188.606 Y28.436 E12.49346
G1 X190.033 Y28.572 E12.60789
G1 X191.081 Y28.742 E12.69264
G1 X192.053 Y28.953 E12.77204
G1 X192.06 Y28.965 E12.77314
G1 X192.411 Y29.046 E12.8019
G1 X193.577 Y29.396 E12.89908
G1 X194.661 Y29.795 E12.99128
G1 X195.784 Y30.291 E13.08928
G1 X196.794 Y30.818 E13.18022
G1 X197.912 Y31.489 E13.2843
G1 X198.856 Y32.145 E13.37606
G1 X199.867 Y32.945 E13.47897
G1 X200.72 Y33.718 E13.57086
G1 X201.674 Y34.702 E13.68027
G1 X202.469 Y35.642 E13.77854
G1 X203.189 Y36.612 E13.87497
G1 X203.868 Y37.663 E13.97485
G1 X204.454 Y38.713 E14.07083
G1 X204.984 Y39.818 E14.16866
G1 X205.377 Y40.786 E14.25206
G1 X205.775 Y41.962 E14.35116
G1 X206.13 Y43.303 E14.46189
G1 X206.362 Y44.52 E14.56079
G1 X206.536 Y45.875 E14.66984
G1 X206.524 Y45.887 E14.67119
G1 X206.584 Y46.781 E14.74272
G1 X206.594 Y47.226 E14.77825
G1 X206.599 Y187.517 E25.97688
G1 X206.578 Y188.594 E26.06287
G1 X206.564 Y188.607 E26.06439
G1 X206.43 Y190.022 E26.17785
G1 X206.236 Y191.2 E26.27315
G1 X206.048 Y192.05 E26.34264
G1 X206.036 Y192.058 E26.34379
G1 X205.954 Y192.411 E26.37272
G1 X205.608 Y193.567 E26.46904
G1 X205.206 Y194.662 E26.56215
G1 X204.712 Y195.777 E26.6595
G1 X204.182 Y196.794 E26.75104
G1 X203.511 Y197.912 E26.85513
G1 X202.855 Y198.856 E26.94689
G1 X202.055 Y199.867 E27.0498
G1 X201.282 Y200.72 E27.14169
G1 X200.298 Y201.674 E27.25109
G1 X199.358 Y202.469 E27.34937
G1 X198.388 Y203.189 E27.4458
G1 X197.337 Y203.868 E27.54568
G1 X196.286 Y204.454 E27.64173
G1 X195.183 Y204.984 E27.73941
G1 X194.2 Y205.382 E27.82407
G1 X193.038 Y205.775 E27.92199
G1 X191.687 Y206.132 E28.03353
G1 X190.48 Y206.362 E28.13161
G1 X189.125 Y206.537 E28.24067
G1 X189.113 Y206.524 E28.24208
G1 X188.209 Y206.584 E28.3144
G1 X187.432 Y206.6 E28.37644
G1 X47.448 Y206.598 E39.55057
G1 X46.406 Y206.578 E39.63376
G1 X46.394 Y206.564 E39.63523
G1 X44.966 Y206.428 E39.74974
G1 X43.918 Y206.258 E39.83449
G1 X42.947 Y206.047 E39.91381
G1 X42.94 Y206.035 E39.91492
G1 X42.588 Y205.954 E39.94375
G1 X41.541 Y205.643 E40.03093
G1 X40.33 Y205.202 E40.13381
G1 X39.216 Y204.708 E40.23109
G1 X38.206 Y204.182 E40.32199
G1 X37.088 Y203.511 E40.42607
G1 X36.144 Y202.855 E40.51783
G1 X35.197 Y202.106 E40.61421
G1 X34.271 Y201.273 E40.71364
G1 X33.326 Y200.298 E40.82202
G1 X32.525 Y199.35 E40.92109
G1 X31.81 Y198.388 E41.01677
G1 X31.126 Y197.328 E41.11747
G1 X30.546 Y196.287 E41.2126
G1 X30.015 Y195.177 E41.31082
G1 X29.614 Y194.19 E41.39586
G1 X29.225 Y193.038 E41.49292
G1 X28.868 Y191.685 E41.60461
G1 X28.648 Y190.56 E41.69612
G1 X28.464 Y189.125 E41.8116
G1 X28.476 Y189.113 E41.81296
G1 X28.416 Y188.209 E41.88528
G1 X28.4 Y187.437 E41.94692
G1 X28.403 Y47.44 E53.12208
G1 X28.422 Y46.406 E53.20463
G1 X28.436 Y46.393 E53.20616
G1 X28.57 Y44.977 E53.3197
G1 X28.741 Y43.924 E53.40485
G1 X28.953 Y42.947 E53.48466
G1 X28.965 Y42.94 E53.48576
G1 X29.046 Y42.589 E53.51452
G1 X29.392 Y41.433 E53.61084
G1 X29.794 Y40.338 E53.70395
G1 X30.288 Y39.223 E53.8013
G1 X30.818 Y38.206 E53.89284
G1 X31.489 Y37.088 E53.99693
G1 X32.145 Y36.144 E54.08869
G1 X32.945 Y35.133 E54.1916
G1 X33.718 Y34.28 E54.28349
G0 F15000 X34.286 Y34.286
G1 F2250 X200.712 Y200.712 E73.0711
G1 F2700 E68.0711
G1 F300 Z0.44
G0 F15000 X201.802 Y199.539 Z0.44
G1 F300 Z0.24
G1 F2700 E73.0711
G1 F2250 X35.466 Y33.203 E91.84854
G1 F2700 E86.84854
G1 F300 Z0.44
G0 F15000 X36.739 Y32.214 Z0.44
G1 F300 Z0.24
G1 F2700 E91.84854
G1 F2250 X202.783 Y198.257 E110.59297
G1 F2700 E105.59297
G1 F300 Z0.44
G0 F15000 X203.665 Y196.877 Z0.44
G1 F300 Z0.24
G1 F2700 E110.59297
G1 F2250 X38.122 Y31.334 E129.28089
G1 F2700 E124.28089
G1 F300 Z0.44
G0 F15000 X39.61 Y30.559 Z0.44
G1 F300 Z0.24
G1 F2700 E129.28089
G1 F2250 X204.444 Y195.393 E147.88878
G1 F2700 E142.88878
G1 F300 Z0.44
G0 F15000 X205.1 Y193.786 Z0.44
G1 F300 Z0.24
G1 F2700 E147.88878
G1 F2250 X41.213 Y29.9 E166.3897
G1 F2700 E161.3897
G1 F300 Z0.44
G0 F15000 X42.953 Y29.376 Z0.44
G1 F300 Z0.24
G1 F2700 E166.3897
G1 F2250 X205.627 Y192.05 E184.75375
G1 F2700 E179.75375
G1 F300 Z0.44
G0 F15000 X206.001 Y190.162 Z0.44
G1 F300 Z0.24
G1 F2700 E184.75375
G1 F2250 X44.839 Y29 E202.94711
G1 F2700 E197.94711
G1 F300 Z0.44
G0 F15000 X46.915 Y28.813 Z0.44
G1 F300 Z0.24
G1 F2700 E202.94711
G1 F2250 X206.187 Y188.085 E220.92711
G1 F2700 E215.92711
G1 F300 Z0.44
G0 F15000 X206.197 Y185.833 Z0.44
G1 F300 Z0.24
G1 F2700 E220.92711
G1 F2250 X49.165 Y28.801 E238.65424
G1 F2700 E233.65424
G1 F300 Z0.44
G0 F15000 X51.428 Y28.801 Z0.44
G1 F300 Z0.24
G1 F2700 E238.65424
G1 F2250 X206.197 Y183.57 E256.1259
G1 F2700 E251.1259
G1 F300 Z0.44
G0 F15000 X206.197 Y181.307 Z0.44
G1 F300 Z0.24
G1 F2700 E256.1259
G1 F2250 X53.691 Y28.801 E273.34209
G1 F2700 E268.34209
G1 F300 Z0.44
G0 F15000 X55.954 Y28.801 Z0.44
G1 F300 Z0.24
G1 F2700 E273.34209
G1 F2250 X206.197 Y179.045 E290.30288
G1 F2700 E285.30288
G1 F300 Z0.44
G0 F15000 X206.197 Y176.782 Z0.44
G1 F300 Z0.24
G1 F2700 E290.30288
G1 F2250 X58.216 Y28.801 E307.00825
G1 F2700 E302.00825
G1 F300 Z0.44
G0 F15000 X60.479 Y28.801 Z0.44
G1 F300 Z0.24
G1 F2700 E307.00825
G1 F2250 X206.197 Y174.519 E323.45816
G1 F2700 E318.45816
G1 F300 Z0.44
G0 F15000 X206.197 Y172.256 Z0.44
G1 F300 Z0.24
G1 F2700 E323.45816
G1 F2250 X62.742 Y28.801 E339.6526
G1 F2700 E334.6526
G1 F300 Z0.44
G0 F15000 X65.005 Y28.801 Z0.44
G1 F300 Z0.24
G1 F2700 E339.6526
G1 F2250 X206.197 Y169.994 E355.59163
G1 F2700 E350.59163
G1 F300 Z0.44
G0 F15000 X206.197 Y167.731 Z0.44
G1 F300 Z0.24
G1 F2700 E355.59163
G1 F2250 X67.267 Y28.801 E371.27525
G1 F2700 E366.27525
G1 F300 Z0.44
G0 F15000 X69.53 Y28.801 Z0.44
G1 F300 Z0.24
G1 F2700 E371.27525
G1 F2250 X206.197 Y165.467 E386.70334
G1 F2700 E381.70334
G1 F300 Z0.44
G0 F15000 X206.197 Y163.205 Z0.44
G1 F300 Z0.24
G1 F2700 E386.70334
G1 F2250 X71.793 Y28.801 E401.87603
G1 F2700 E396.87603
G1 F300 Z0.44
G0 F15000 X74.056 Y28.801 Z0.44
G1 F300 Z0.24
G1 F2700 E401.87603
G1 F2250 X206.197 Y160.942 E416.79325
G1 F2700 E411.79325
G1 F300 Z0.44
G0 F15000 X206.197 Y158.679 Z0.44
G1 F300 Z0.24
G1 F2700 E416.79325
G1 F2250 X76.318 Y28.801 E431.45506
G1 F2700 E426.45506
G1 F300 Z0.44
G0 F15000 X78.581 Y28.801 Z0.44
G1 F300 Z0.24
G1 F2700 E431.45506
G1 F2250 X206.197 Y156.416 E445.8614
G1 F2700 E440.8614
G1 F300 Z0.44
G0 F15000 X206.197 Y154.154 Z0.44
G1 F300 Z0.24
G1 F2700 E445.8614
G1 F2250 X80.844 Y28.801 E460.01233
G1 F2700 E455.01233
G1 F300 Z0.44
G0 F15000 X83.107 Y28.801 Z0.44
G1 F300 Z0.24
G1 F2700 E460.01233
G1 F2250 X206.197 Y151.891 E473.90779
G1 F2700 E468.90779
G1 F300 Z0.44
G0 F15000 X206.197 Y149.628 Z0.44
G1 F300 Z0.24
G1 F2700 E473.90779
G1 F2250 X85.37 Y28.801 E487.54778
G1 F2700 E482.54778
G1 F300 Z0.44
G0 F15000 X87.633 Y28.801 Z0.44
G1 F300 Z0.24
G1 F2700 E487.54778
G1 F2250 X206.196 Y147.365 E500.93226
G1 F2700 E495.93226
G1 F300 Z0.44
G0 F15000 X206.196 Y145.102 Z0.44
G1 F300 Z0.24
G1 F2700 E500.93226
G1 F2250 X89.895 Y28.801 E514.06132
G1 F2700 E509.06132
G1 F300 Z0.44
G0 F15000 X92.158 Y28.801 Z0.44
G1 F300 Z0.24
G1 F2700 E514.06132
G1 F2250 X206.196 Y142.839 E526.93491
G1 F2700 E521.93491
G1 F300 Z0.44
G0 F15000 X206.196 Y140.577 Z0.44
G1 F300 Z0.24
G1 F2700 E526.93491
G1 F2250 X94.421 Y28.801 E539.5531
G1 F2700 E534.5531
G1 F300 Z0.44
G0 F15000 X96.684 Y28.801 Z0.44
G1 F300 Z0.24
G1 F2700 E539.5531
G1 F2250 X206.196 Y138.314 E551.91582
G1 F2700 E546.91582
G1 F300 Z0.44
G0 F15000 X206.196 Y136.051 Z0.44
G1 F300 Z0.24
G1 F2700 E551.91582
G1 F2250 X98.946 Y28.801 E564.02312
G1 F2700 E559.02312
G1 F300 Z0.44
G0 F15000 X101.209 Y28.801 Z0.44
G1 F300 Z0.24
G1 F2700 E564.02312
G1 F2250 X206.196 Y133.788 E575.87496
G1 F2700 E570.87496
G1 F300 Z0.44
G0 F15000 X206.196 Y131.526 Z0.44
G1 F300 Z0.24
G1 F2700 E575.87496
G1 F2250 X103.472 Y28.801 E587.47139
G1 F2700 E582.47139
G1 F300 Z0.44
G0 F15000 X105.735 Y28.801 Z0.44
G1 F300 Z0.24
G1 F2700 E587.47139
G1 F2250 X206.196 Y129.263 E598.81235
G1 F2700 E593.81235
G1 F300 Z0.44
G0 F15000 X206.195 Y126.999 Z0.44
G1 F300 Z0.24
G1 F2700 E598.81235
G1 F2250 X107.997 Y28.801 E609.89779
G1 F2700 E604.89779
G1 F300 Z0.44
G0 F15000 X110.26 Y28.801 Z0.44
G1 F300 Z0.24
G1 F2700 E609.89779
G1 F2250 X206.195 Y124.737 E620.72782
G1 F2700 E615.72782
G1 F300 Z0.44
G0 F15000 X206.195 Y122.474 Z0.44
G1 F300 Z0.24
G1 F2700 E620.72782
G1 F2250 X112.523 Y28.801 E631.30238
G1 F2700 E626.30238
G1 F300 Z0.44
G0 F15000 X114.786 Y28.801 Z0.44
G1 F300 Z0.24
G1 F2700 E631.30238
G1 F2250 X206.195 Y120.211 E641.62148
G1 F2700 E636.62148
G1 F300 Z0.44
G0 F15000 X206.195 Y117.948 Z0.44
G1 F300 Z0.24
G1 F2700 E641.62148
G1 F2250 X117.048 Y28.801 E651.68516
G1 F2700 E646.68516
G1 F300 Z0.44
G0 F15000 X119.312 Y28.802 Z0.44
G1 F300 Z0.24
G1 F2700 E651.68516
G1 F2250 X206.195 Y115.686 E661.49332
G1 F2700 E656.49332
G1 F300 Z0.44
G0 F15000 X206.195 Y113.423 Z0.44
G1 F300 Z0.24
G1 F2700 E661.49332
G1 F2250 X121.574 Y28.802 E671.04607
G1 F2700 E666.04607
G1 F300 Z0.44
G0 F15000 X123.837 Y28.802 Z0.44
G1 F300 Z0.24
G1 F2700 E671.04607
G1 F2250 X206.195 Y111.16 E680.34335
G1 F2700 E675.34335
G1 F300 Z0.44
G0 F15000 X206.195 Y108.897 Z0.44
G1 F300 Z0.24
G1 F2700 E680.34335
G1 F2250 X126.1 Y28.802 E689.38517
G1 F2700 E684.38517
G1 F300 Z0.44
G0 F15000 X128.363 Y28.802 Z0.44
G1 F300 Z0.24
G1 F2700 E689.38517
G1 F2250 X206.195 Y106.634 E698.17152
G1 F2700 E693.17152
G1 F300 Z0.44
G0 F15000 X206.195 Y104.371 Z0.44
G1 F300 Z0.24
G1 F2700 E698.17152
G1 F2250 X130.625 Y28.802 E706.70246
G1 F2700 E701.70246
G1 F300 Z0.44
G0 F15000 X132.888 Y28.802 Z0.44
G1 F300 Z0.24
G1 F2700 E706.70246
G1 F2250 X206.195 Y102.109 E714.97798
G1 F2700 E709.97798
G1 F300 Z0.44
G0 F15000 X206.195 Y99.846 Z0.44
G1 F300 Z0.24
G1 F2700 E714.97798
G1 F2250 X135.151 Y28.802 E722.99804
G1 F2700 E717.99804
G1 F300 Z0.44
G0 F15000 X137.414 Y28.802 Z0.44
G1 F300 Z0.24
G1 F2700 E722.99804
G1 F2250 X206.195 Y97.583 E730.76264
G1 F2700 E725.76264
G1 F300 Z0.44
G0 F15000 X206.195 Y95.32 Z0.44
G1 F300 Z0.24
G1 F2700 E730.76264
G1 F2250 X139.676 Y28.802 E738.27182
G1 F2700 E733.27182
G1 F300 Z0.44
G0 F15000 X141.939 Y28.802 Z0.44
G1 F300 Z0.24
G1 F2700 E738.27182
G1 F2250 X206.195 Y93.058 E745.52559
G1 F2700 E740.52559
G1 F300 Z0.44
G0 F15000 X206.195 Y90.795 Z0.44
G1 F300 Z0.24
G1 F2700 E745.52559
G1 F2250 X144.202 Y28.802 E752.5239
G1 F2700 E747.5239
G1 F300 Z0.44
G0 F15000 X146.465 Y28.802 Z0.44
G1 F300 Z0.24
G1 F2700 E752.5239
G1 F2250 X206.195 Y88.532 E759.26674
G1 F2700 E754.26674
G1 F300 Z0.44
G0 F15000 X206.194 Y86.269 Z0.44
G1 F300 Z0.24
G1 F2700 E759.26674
G1 F2250 X148.727 Y28.802 E765.75411
G1 F2700 E760.75411
G1 F300 Z0.44
G0 F15000 X150.99 Y28.802 Z0.44
G1 F300 Z0.24
G1 F2700 E765.75411
G1 F2250 X206.194 Y84.006 E771.98601
G1 F2700 E766.98601
G1 F300 Z0.44
G0 F15000 X206.194 Y81.743 Z0.44
G1 F300 Z0.24
G1 F2700 E771.98601
G1 F2250 X153.254 Y28.803 E777.96234
G1 F2700 E772.96234
G1 F300 Z0.44
G0 F15000 X155.516 Y28.803 Z0.44
G1 F300 Z0.24
G1 F2700 E777.96234
G1 F2250 X206.194 Y79.48 E783.68325
G1 F2700 E778.68325
G1 F300 Z0.44
G0 F15000 X206.194 Y77.218 Z0.44
G1 F300 Z0.24
G1 F2700 E783.68325
G1 F2250 X157.779 Y28.803 E789.14876
G1 F2700 E784.14876
G1 F300 Z0.44
G0 F15000 X160.042 Y28.803 Z0.44
G1 F300 Z0.24
G1 F2700 E789.14876
G1 F2250 X206.194 Y74.955 E794.35879
G1 F2700 E789.35879
G1 F300 Z0.44
G0 F15000 X206.194 Y72.692 Z0.44
G1 F300 Z0.24
G1 F2700 E794.35879
G1 F2250 X162.305 Y28.803 E799.31336
G1 F2700 E794.31336
G1 F300 Z0.44
G0 F15000 X164.567 Y28.803 Z0.44
G1 F300 Z0.24
G1 F2700 E799.31336
G1 F2250 X206.194 Y70.429 E804.01252
G1 F2700 E799.01252
G1 F300 Z0.44
G0 F15000 X206.194 Y68.167 Z0.44
G1 F300 Z0.24
G1 F2700 E804.01252
G1 F2250 X166.83 Y28.803 E808.45627
G1 F2700 E803.45627
G1 F300 Z0.44
G0 F15000 X169.093 Y28.803 Z0.44
G1 F300 Z0.24
G1 F2700 E808.45627
G1 F2250 X206.193 Y65.903 E812.64444
G1 F2700 E807.64444
G1 F300 Z0.44
G0 F15000 X206.193 Y63.641 Z0.44
G1 F300 Z0.24
G1 F2700 E812.64444
G1 F2250 X171.356 Y28.803 E816.5772
G1 F2700 E811.5772
G1 F300 Z0.44
G0 F15000 X173.618 Y28.803 Z0.44
G1 F300 Z0.24
G1 F2700 E816.5772
G1 F2250 X206.193 Y61.378 E820.25454
G1 F2700 E815.25454
G1 F300 Z0.44
G0 F15000 X206.193 Y59.115 Z0.44
G1 F300 Z0.24
G1 F2700 E820.25454
G1 F2250 X175.881 Y28.803 E823.67642
G1 F2700 E818.67642
G1 F300 Z0.44
G0 F15000 X178.144 Y28.803 Z0.44
G1 F300 Z0.24
G1 F2700 E823.67642
G1 F2250 X206.193 Y56.852 E826.84284
G1 F2700 E821.84284
G1 F300 Z0.44
G0 F15000 X206.193 Y54.59 Z0.44
G1 F300 Z0.24
G1 F2700 E826.84284
G1 F2250 X180.406 Y28.803 E829.7539
G1 F2700 E824.7539
G1 F300 Z0.44
G0 F15000 X182.669 Y28.803 Z0.44
G1 F300 Z0.24
G1 F2700 E829.7539
G1 F2250 X206.193 Y52.327 E832.40949
G1 F2700 E827.40949
G1 F300 Z0.44
G0 F15000 X206.193 Y50.064 Z0.44
G1 F300 Z0.24
G1 F2700 E832.40949
G1 F2250 X184.932 Y28.803 E834.80962
G1 F2700 E829.80962
G1 F300 Z0.44
G0 F15000 X187.195 Y28.803 Z0.44
G1 F300 Z0.24
G1 F2700 E834.80962
G1 F2250 X206.193 Y47.801 E836.95427
G1 F2700 E831.95427
G1 F300 Z0.44
G0 F15000 X206.073 Y45.418 Z0.44
G1 F300 Z0.24
G1 F2700 E836.95427
G1 F2250 X189.585 Y28.931 E838.81553
G1 F2700 E833.81553
G1 F300 Z0.44
G0 F15000 X192.368 Y29.45 Z0.44
G1 F300 Z0.24
G1 F2700 E838.81553
G1 F2250 X205.534 Y42.617 E840.30187
G1 F2700 E835.30187
G1 F300 Z0.44
G0 F15000 X204.118 Y38.938 Z0.44
G1 F300 Z0.24
G1 F2700 E840.30187
G1 F2250 X196.075 Y30.895 E841.20984
G1 F2700 E836.20984
G1 F300 Z0.44
G0 F15000 X33.196 Y35.459 Z0.44
G1 F300 Z0.24
G1 F2700 E841.20984
G1 F2250 X199.532 Y201.795 E859.98728
G1 F2700 E854.98728
G1 F300 Z0.44
G0 F15000 X198.259 Y202.784 Z0.44
G1 F300 Z0.24
G1 F2700 E859.98728
G1 F2250 X32.215 Y36.741 E878.73171
G1 F2700 E873.73171
G1 F300 Z0.44
G0 F15000 X31.334 Y38.122 Z0.44
G1 F300 Z0.24
G1 F2700 E878.73171
G1 F2250 X196.876 Y203.665 E897.41958
G1 F2700 E892.41958
G1 F300 Z0.44
G0 F15000 X195.389 Y204.44 Z0.44
G1 F300 Z0.24
G1 F2700 E897.41958
G1 F2250 X30.555 Y39.606 E916.02746
G1 F2700 E911.02746
G1 F300 Z0.44
G0 F15000 X29.898 Y41.212 Z0.44
G1 F300 Z0.24
G1 F2700 E916.02746
G1 F2250 X193.785 Y205.099 E934.52844
G1 F2700 E929.52844
G1 F300 Z0.44
G0 F15000 X192.045 Y205.622 Z0.44
G1 F300 Z0.24
G1 F2700 E934.52844
G1 F2250 X29.373 Y42.949 E952.89232
G1 F2700 E947.89232
G1 F300 Z0.44
G0 F15000 X28.997 Y44.836 Z0.44
G1 F300 Z0.24
G1 F2700 E952.89232
G1 F2250 X190.159 Y205.998 E971.08568
G1 F2700 E966.08568
G1 F300 Z0.44
G0 F15000 X188.083 Y206.185 Z0.44
G1 F300 Z0.24
G1 F2700 E971.08568
G1 F2250 X28.811 Y46.913 E989.06568
G1 F2700 E984.06568
G1 F300 Z0.44
G0 F15000 X28.801 Y49.166 Z0.44
G1 F300 Z0.24
G1 F2700 E989.06568
G1 F2250 X185.834 Y206.198 E1006.79286
G1 F2700 E1001.79286
G1 F300 Z0.44
G0 F15000 X183.571 Y206.198 Z0.44
G1 F300 Z0.24
G1 F2700 E1006.79286
G1 F2250 X28.801 Y51.429 E1024.26458
G1 F2700 E1019.26458
G1 F300 Z0.44
G0 F15000 X28.801 Y53.692 Z0.44
