;FLAVOR:Marlin
;TIME:294
;Filament used: 0.379122m
;Layer height: 0.4
;MINX:110.75
;MINY:113.2
;MINZ:0.2
;MAXX:124.25
;MAXY:121.8
;MAXZ:12
;Generated with Cura_SteamEngine 5.3.1
M140 S60
M105
M190 S60
M104 S200
M105
M109 S200
M82 ;absolute extrusion mode
; Ender 3 Custom Start G-code
G92 E0 ; Reset Extruder
G28 ; Home all axes
G1 Z2.0 F3000 ; Move Z Axis up little to prevent scratching of Heat Bed
G1 X0.1 Y20 Z0.3 F5000.0 ; Move to start position
G1 X0.1 Y200.0 Z0.3 F1500.0 E15 ; Draw the first line
G1 X0.4 Y200.0 Z0.3 F5000.0 ; Move to side a little
G1 X0.4 Y20 Z0.3 F1500.0 E30 ; Draw the second line
G92 E0 ; Reset Extruder
G1 Z2.0 F3000 ; Move Z Axis up little to prevent scratching of Heat Bed
G1 X5 Y20 Z0.3 F5000.0 ; Move over to prevent blob squish
G92 E0
G92 E0
G1 F2700 E-5
;LAYER_COUNT:31
;LAYER:0
M107
G1 F300 Z0.4
;MESH:Joints_Remake_Coupler_V4.stl
G0 F6000 X111.275 Y114.75 Z0.4
;TYPE:WALL-INNER
G1 F300 Z0.2
G1 F2700 E0
G1 F707 X111.28 Y120.376 E0.30641
G1 F2700 E-4.69359
G1 F300 Z0.4
G0 F6000 X123.72 Y120.376 Z0.4
G1 F300 Z0.2
G1 F2700 E0.30641
G1 F707 X123.725 Y114.75 E0.61282
G1 F774.3 X123.777 Y113.947 E0.65284
G1 F846.5 X123.777 Y113.673 E0.6653
G1 X123.503 Y113.673 E0.67776
G1 F906.2 X123 Y113.637 E0.69919
G1 F968.7 X111.848 Y113.641 E1.14243
G1 F900.9 X111.497 Y113.673 E1.1575
G1 F846.5 X111.223 Y113.673 E1.16996
G1 X111.223 Y113.947 E1.18242
G1 F774.3 X111.275 Y114.75 E1.22243
G1 X111.642 Y114.179 E1.25618
G1 F900.9 X111.889 Y114.118 E1.26706
G1 F968.7 X123 Y114.113 E1.70867
G1 F906.2 X123.358 Y114.179 E1.72414
G1 F774.3 X123.725 Y114.75 E1.75789
G1 F2700 E-3.24211
G1 F300 Z0.4
G0 F6000 X123.72 Y120.376 Z0.4
G1 F300 Z0.2
G1 F2700 E1.75789
G1 F767.9 X123.358 Y120.821 E1.78666
G1 F900.9 X123.111 Y120.882 E1.79753
G1 F968.7 X112 Y120.887 E2.23915
G1 F906.2 X111.642 Y120.821 E2.25461
G1 F767.9 X111.28 Y120.376 E2.28338
G1 X111.223 Y121.053 E2.31744
G1 F846.5 X111.223 Y121.327 E2.3299
G1 X111.497 Y121.327 E2.34237
G1 F906.2 X112 Y121.363 E2.36379
G1 F968.7 X123.152 Y121.359 E2.80704
G1 F900.9 X123.503 Y121.327 E2.8221
G1 F846.5 X123.777 Y121.327 E2.83456
G1 X123.777 Y121.053 E2.84703
G1 F767.9 X123.72 Y120.376 E2.88109
G0 F6000 X123.107 Y120.42
;TYPE:WALL-OUTER
G1 F1157.6 X123.035 Y120.448 E2.88366
G1 X112 Y120.45 E3.25069
G1 X111.893 Y120.42 E3.25438
G1 X111.802 Y120.285 E3.2598
G1 X111.8 Y114.75 E3.44389
G1 X111.893 Y114.58 E3.45034
G1 X111.965 Y114.552 E3.45291
G1 X123 Y114.55 E3.81993
G1 X123.107 Y114.58 E3.82363
G1 X123.2 Y114.75 E3.83007
G1 X123.198 Y120.285 E4.01417
G1 X123.107 Y120.42 E4.01958
G1 F2700 E-0.98042
G1 F300 Z0.4
G0 F6000 X124.25 Y121.8 Z0.4
G1 F300 Z0.2
G1 F2700 E4.01958
G1 F1157.6 X124.25 Y113.2 E4.30562
G1 X110.75 Y113.2 E4.75463
G1 X110.75 Y121.8 E5.04067
G1 X124.25 Y121.8 E5.48968
G1 F2700 E0.48968
G1 F300 Z0.4
;MESH:NONMESH
G0 F6000 X111.275 Y114.75 Z0.4
;TIME_ELAPSED:15.080125
;LAYER:1
M106 S85
;MESH:Joints_Remake_Coupler_V4.stl
G0 F10500 X111.275 Y114.75 Z0.8
;TYPE:WALL-INNER
G1 F300 Z0.6
G1 F2700 E5.48968
G1 F810.7 X111.28 Y120.376 E6.1025
G1 F2700 E1.1025
G1 F300 Z0.8
G0 F10500 X123.72 Y120.376 Z0.8
G1 F300 Z0.6
G1 F2700 E6.1025
G1 F810.7 X123.725 Y114.75 E6.71533
G1 F888 X123.777 Y113.947 E6.79535
G1 F970.7 X123.777 Y113.673 E6.82028
G1 X123.503 Y113.673 E6.8452
G1 F1039.1 X123 Y113.637 E6.88806
G1 F1110.9 X111.848 Y113.641 E7.77455
G1 F1033.1 X111.497 Y113.673 E7.80467
G1 F970.7 X111.223 Y113.673 E7.8296
G1 X111.223 Y113.947 E7.85452
G1 F888 X111.275 Y114.75 E7.93455
G1 X111.642 Y114.179 E8.00205
G1 F1033.1 X111.889 Y114.118 E8.0238
G1 F1110.9 X123 Y114.113 E8.90703
G1 F1039.1 X123.358 Y114.179 E8.93797
G1 F888 X123.725 Y114.75 E9.00547
G1 F2700 E4.00547
G1 F300 Z0.8
G0 F10500 X123.72 Y120.376 Z0.8
G1 F300 Z0.6
G1 F2700 E9.00547
G1 F880.6 X123.358 Y120.821 E9.06299
G1 F1033.1 X123.111 Y120.882 E9.08474
G1 F1110.9 X112 Y120.887 E9.96797
G1 F1039.1 X111.642 Y120.821 E9.99891
G1 F880.6 X111.28 Y120.376 E10.05643
G1 X111.223 Y121.053 E10.12456
G1 F970.7 X111.223 Y121.327 E10.14949
G1 X111.497 Y121.327 E10.17441
G1 F1039.1 X112 Y121.363 E10.21727
G1 F1110.9 X123.152 Y121.359 E11.10376
G1 F1033.1 X123.503 Y121.327 E11.13389
G1 F970.7 X123.777 Y121.327 E11.15881
G1 X123.777 Y121.053 E11.18373
G1 F880.6 X123.72 Y120.376 E11.25186
G0 F10500 X123.107 Y120.42
;TYPE:WALL-OUTER
G1 F1327.5 X123.035 Y120.448 E11.257
G1 X112 Y120.45 E11.99105
G1 X111.893 Y120.42 E11.99845
G1 X111.802 Y120.285 E12.00928
G1 X111.8 Y114.75 E12.37747
G1 X111.893 Y114.58 E12.39036
G1 X111.965 Y114.552 E12.39549
G1 X123 Y114.55 E13.12955
G1 X123.107 Y114.58 E13.13694
G1 X123.2 Y114.75 E13.14983
G1 X123.198 Y120.285 E13.51802
G1 X123.107 Y120.42 E13.52885
G1 F2700 E8.52885
G1 F300 Z0.8
G0 F10500 X124.25 Y121.8 Z0.8
G1 F300 Z0.6
G1 F2700 E13.52885
G1 F1327.5 X124.25 Y113.2 E14.10092
G1 X110.75 Y113.2 E14.99895
G1 X110.75 Y121.8 E15.57102
G1 X124.25 Y121.8 E16.46904
G1 F2700 E11.46904
G1 F300 Z0.8
;MESH:NONMESH
G0 F10500 X111.275 Y114.75 Z0.8
;TIME_ELAPSED:25.055942
;LAYER:2
M106 S170
;MESH:Joints_Remake_Coupler_V4.stl
G0 F15000 X111.275 Y114.75 Z1.2
;TYPE:WALL-INNER
G1 F300 Z1
G1 F2700 E16.46904
G1 F993.4 X111.28 Y120.376 E17.08187
G1 F2700 E12.08187
G1 F300 Z1.2
G0 F15000 X123.72 Y120.376 Z1.2
G1 F300 Z1
G1 F2700 E17.08187
G1 F993.4 X123.725 Y114.75 E17.69469
G1 F1088.1 X123.777 Y113.947 E17.77471
G1 F1189.6 X123.777 Y113.673 E17.79964
G1 X123.503 Y113.673 E17.82456
G1 F1273.4 X123 Y113.637 E17.86742
G1 F1361.3 X111.848 Y113.641 E18.75391
G1 F1266 X111.497 Y113.673 E18.78404
G1 F1189.6 X111.223 Y113.673 E18.80896
G1 X111.223 Y113.947 E18.83389
G1 F1088.1 X111.275 Y114.75 E18.91391
G1 X111.642 Y114.179 E18.98141
G1 F1266 X111.889 Y114.118 E19.00316
G1 F1361.3 X123 Y114.113 E19.88639
G1 F1273.4 X123.358 Y114.179 E19.91733
G1 F1088.1 X123.725 Y114.75 E19.98483
G1 F2700 E14.98483
G1 F300 Z1.2
G0 F15000 X123.72 Y120.376 Z1.2
G1 F300 Z1
G1 F2700 E19.98483
G1 F1079.1 X123.358 Y120.821 E20.04236
G1 F1266 X123.111 Y120.882 E20.0641
G1 F1361.3 X112 Y120.887 E20.94734
G1 F1273.4 X111.642 Y120.821 E20.97827
G1 F1079.1 X111.28 Y120.376 E21.0358
G1 X111.223 Y121.053 E21.10392
G1 F1189.6 X111.223 Y121.327 E21.12885
G1 X111.497 Y121.327 E21.15377
G1 F1273.4 X112 Y121.363 E21.19663
G1 F1361.3 X123.152 Y121.359 E22.08312
G1 F1266 X123.503 Y121.327 E22.11325
G1 F1189.6 X123.777 Y121.327 E22.13817
G1 X123.777 Y121.053 E22.1631
G1 F1079.1 X123.72 Y120.376 E22.23123
G0 F15000 X123.107 Y120.42
;TYPE:WALL-OUTER
G1 F1626.8 X123.035 Y120.448 E22.23637
G1 X112 Y120.45 E22.97042
G1 X111.893 Y120.42 E22.97781
G1 X111.802 Y120.285 E22.98864
G1 X111.8 Y114.75 E23.35683
G1 X111.893 Y114.58 E23.36972
G1 X111.965 Y114.552 E23.37486
G1 X123 Y114.55 E24.10891
G1 X123.107 Y114.58 E24.1163
G1 X123.2 Y114.75 E24.12919
G1 X123.198 Y120.285 E24.49738
G1 X123.107 Y120.42 E24.50821
G1 F2700 E19.50821
G1 F300 Z1.2
G0 F15000 X124.25 Y121.8 Z1.2
G1 F300 Z1
G1 F2700 E24.50821
G1 F1626.8 X124.25 Y113.2 E25.08028
G1 X110.75 Y113.2 E25.97831
G1 X110.75 Y121.8 E26.55038
G1 X124.25 Y121.8 E27.44841
G1 F2700 E22.44841
G1 F300 Z1.2
;MESH:NONMESH
G0 F15000 X111.275 Y114.75 Z1.2
;TIME_ELAPSED:33.789618
;LAYER:3
M106 S255
;MESH:Joints_Remake_Coupler_V4.stl
G0 X111.275 Y114.75 Z1.6
;TYPE:WALL-INNER
G1 F300 Z1.4
G1 F2700 E27.44841
G1 F993.4 X111.28 Y120.376 E28.06123
G1 F2700 E23.06123
G1 F300 Z1.6
G0 F15000 X123.72 Y120.376 Z1.6
G1 F300 Z1.4
G1 F2700 E28.06123
G1 F993.4 X123.725 Y114.75 E28.67405
G1 F1088.1 X123.777 Y113.947 E28.75408
G1 F1189.6 X123.777 Y113.673 E28.779
G1 X123.503 Y113.673 E28.80393
G1 F1273.4 X123 Y113.637 E28.84678
G1 F1361.3 X111.848 Y113.641 E29.73327
G1 F1266 X111.497 Y113.673 E29.7634
G1 F1189.6 X111.223 Y113.673 E29.78832
G1 X111.223 Y113.947 E29.81325
G1 F1088.1 X111.275 Y114.75 E29.89327
G1 X111.642 Y114.179 E29.96078
G1 F1266 X111.889 Y114.118 E29.98252
G1 F1361.3 X123 Y114.113 E30.86576
G1 F1273.4 X123.358 Y114.179 E30.89669
G1 F1088.1 X123.725 Y114.75 E30.96419
G1 F2700 E25.96419
G1 F300 Z1.6
G0 F15000 X123.72 Y120.376 Z1.6
G1 F300 Z1.4
G1 F2700 E30.96419
G1 F1079.1 X123.358 Y120.821 E31.02172
G1 F1266 X123.111 Y120.882 E31.04347
G1 F1361.3 X112 Y120.887 E31.9267
G1 F1273.4 X111.642 Y120.821 E31.95763
G1 F1079.1 X111.28 Y120.376 E32.01516
G1 X111.223 Y121.053 E32.08329
G1 F1189.6 X111.223 Y121.327 E32.10821
G1 X111.497 Y121.327 E32.13314
G1 F1273.4 X112 Y121.363 E32.17599
G1 F1361.3 X123.152 Y121.359 E33.06248
G1 F1266 X123.503 Y121.327 E33.09261
G1 F1189.6 X123.777 Y121.327 E33.11754
G1 X123.777 Y121.053 E33.14246
G1 F1079.1 X123.72 Y120.376 E33.21059
G0 F15000 X123.107 Y120.42
;TYPE:WALL-OUTER
G1 F1626.8 X123.035 Y120.448 E33.21573
G1 X112 Y120.45 E33.94978
G1 X111.893 Y120.42 E33.95717
G1 X111.802 Y120.285 E33.968
G1 X111.8 Y114.75 E34.33619
G1 X111.893 Y114.58 E34.34908
G1 X111.965 Y114.552 E34.35422
G1 X123 Y114.55 E35.08827
G1 X123.107 Y114.58 E35.09566
G1 X123.2 Y114.75 E35.10855
G1 X123.198 Y120.285 E35.47674
G1 X123.107 Y120.42 E35.48757
G1 F2700 E30.48757
G1 F300 Z1.6
G0 F15000 X124.25 Y121.8 Z1.6
G1 F300 Z1.4
G1 F2700 E35.48757
G1 F1626.8 X124.25 Y113.2 E36.05965
G1 X110.75 Y113.2 E36.95767
G1 X110.75 Y121.8 E37.52975
G1 X124.25 Y121.8 E38.42777
G1 F2700 E33.42777
G1 F300 Z1.6
;MESH:NONMESH
G0 F15000 X111.275 Y114.75 Z1.6
;TIME_ELAPSED:42.523295
;LAYER:4
;MESH:Joints_Remake_Coupler_V4.stl
G0 X111.275 Y114.75 Z2
;TYPE:WALL-INNER
G1 F300 Z1.8
G1 F2700 E38.42777
G1 F993.4 X111.28 Y120.376 E39.04059
G1 F2700 E34.04059
G1 F300 Z2
G0 F15000 X123.72 Y120.376 Z2
G1 F300 Z1.8
G1 F2700 E39.04059
G1 F993.4 X123.725 Y114.75 E39.65342
G1 F1088.1 X123.777 Y113.947 E39.73344
G1 F1189.6 X123.777 Y113.673 E39.75836
G1 X123.503 Y113.673 E39.78329
G1 F1273.4 X123 Y113.637 E39.82614
G1 F1361.3 X111.848 Y113.641 E40.71263
G1 F1266 X111.497 Y113.673 E40.74276
G1 F1189.6 X111.223 Y113.673 E40.76769
G1 X111.223 Y113.947 E40.79261
G1 F1088.1 X111.275 Y114.75 E40.87264
G1 X111.642 Y114.179 E40.94014
G1 F1266 X111.889 Y114.118 E40.96189
G1 F1361.3 X123 Y114.113 E41.84512
G1 F1273.4 X123.358 Y114.179 E41.87605
G1 F1088.1 X123.725 Y114.75 E41.94356
G1 F2700 E36.94356
G1 F300 Z2
G0 F15000 X123.72 Y120.376 Z2
G1 F300 Z1.8
G1 F2700 E41.94356
G1 F1079.1 X123.358 Y120.821 E42.00108
G1 F1266 X123.111 Y120.882 E42.02283
G1 F1361.3 X112 Y120.887 E42.90606
G1 F1273.4 X111.642 Y120.821 E42.937
G1 F1079.1 X111.28 Y120.376 E42.99452
G1 X111.223 Y121.053 E43.06265
G1 F1189.6 X111.223 Y121.327 E43.08757
G1 X111.497 Y121.327 E43.1125
G1 F1273.4 X112 Y121.363 E43.15535
G1 F1361.3 X123.152 Y121.359 E44.04185
G1 F1266 X123.503 Y121.327 E44.07197
G1 F1189.6 X123.777 Y121.327 E44.0969
G1 X123.777 Y121.053 E44.12182
G1 F1079.1 X123.72 Y120.376 E44.18995
G0 F15000 X123.107 Y120.42
;TYPE:WALL-OUTER
G1 F1626.8 X123.035 Y120.448 E44.19509
G1 X112 Y120.45 E44.92914
G1 X111.893 Y120.42 E44.93653
G1 X111.802 Y120.285 E44.94736
G1 X111.8 Y114.75 E45.31555
G1 X111.893 Y114.58 E45.32844
G1 X111.965 Y114.552 E45.33358
G1 X123 Y114.55 E46.06763
G1 X123.107 Y114.58 E46.07503
G1 X123.2 Y114.75 E46.08792
G1 X123.198 Y120.285 E46.45611
G1 X123.107 Y120.42 E46.46694
G1 F2700 E41.46694
G1 F300 Z2
G0 F15000 X124.25 Y121.8 Z2
G1 F300 Z1.8
G1 F2700 E46.46694
G1 F1626.8 X124.25 Y113.2 E47.03901
G1 X110.75 Y113.2 E47.93703
G1 X110.75 Y121.8 E48.50911
G1 X124.25 Y121.8 E49.40713
G1 F2700 E44.40713
G1 F300 Z2
;MESH:NONMESH
G0 F15000 X111.275 Y114.75 Z2
;TIME_ELAPSED:51.256971
;LAYER:5
;MESH:Joints_Remake_Coupler_V4.stl
G0 X111.275 Y114.75 Z2.4
;TYPE:WALL-INNER
G1 F300 Z2.2
G1 F2700 E49.40713
G1 F993.4 X111.28 Y120.376 E50.01995
G1 F2700 E45.01995
G1 F300 Z2.4
G0 F15000 X123.72 Y120.376 Z2.4
G1 F300 Z2.2
G1 F2700 E50.01995
G1 F993.4 X123.725 Y114.75 E50.63278
G1 F1088.1 X123.777 Y113.947 E50.7128
G1 F1189.6 X123.777 Y113.673 E50.73773
G1 X123.503 Y113.673 E50.76265
G1 F1273.4 X123 Y113.637 E50.80551
G1 F1361.3 X111.848 Y113.641 E51.692
G1 F1266 X111.497 Y113.673 E51.72212
G1 F1189.6 X111.223 Y113.673 E51.74705
G1 X111.223 Y113.947 E51.77197
G1 F1088.1 X111.275 Y114.75 E51.852
G1 X111.642 Y114.179 E51.9195
G1 F1266 X111.889 Y114.118 E51.94125
G1 F1361.3 X123 Y114.113 E52.82448
G1 F1273.4 X123.358 Y114.179 E52.85542
G1 F1088.1 X123.725 Y114.75 E52.92292
G1 F2700 E47.92292
G1 F300 Z2.4
G0 F15000 X123.72 Y120.376 Z2.4
G1 F300 Z2.2
G1 F2700 E52.92292
G1 F1079.1 X123.358 Y120.821 E52.98044
G1 F1266 X123.111 Y120.882 E53.00219
G1 F1361.3 X112 Y120.887 E53.88542
G1 F1273.4 X111.642 Y120.821 E53.91636
G1 F1079.1 X111.28 Y120.376 E53.97388
G1 X111.223 Y121.053 E54.04201
G1 F1189.6 X111.223 Y121.327 E54.06694
G1 X111.497 Y121.327 E54.09186
G1 F1273.4 X112 Y121.363 E54.13472
G1 F1361.3 X123.152 Y121.359 E55.02121
G1 F1266 X123.503 Y121.327 E55.05134
G1 F1189.6 X123.777 Y121.327 E55.07626
G1 X123.777 Y121.053 E55.10119
G1 F1079.1 X123.72 Y120.376 E55.16931
G0 F15000 X123.107 Y120.42
;TYPE:WALL-OUTER
G1 F1626.8 X123.035 Y120.448 E55.17445
G1 X112 Y120.45 E55.9085
G1 X111.893 Y120.42 E55.9159
G1 X111.802 Y120.285 E55.92673
G1 X111.8 Y114.75 E56.29492
G1 X111.893 Y114.58 E56.30781
G1 X111.965 Y114.552 E56.31295
G1 X123 Y114.55 E57.047
G1 X123.107 Y114.58 E57.05439
G1 X123.2 Y114.75 E57.06728
G1 X123.198 Y120.285 E57.43547
G1 X123.107 Y120.42 E57.4463
G1 F2700 E52.4463
G1 F300 Z2.4
G0 F15000 X124.25 Y121.8 Z2.4
G1 F300 Z2.2
G1 F2700 E57.4463
G1 F1626.8 X124.25 Y113.2 E58.01837
G1 X110.75 Y113.2 E58.9164
G1 X110.75 Y121.8 E59.48847
G1 X124.25 Y121.8 E60.38649
G1 F2700 E55.38649
G1 F300 Z2.4
;MESH:NONMESH
G0 F15000 X111.275 Y114.75 Z2.4
;TIME_ELAPSED:59.990648
;LAYER:6
;MESH:Joints_Remake_Coupler_V4.stl
G0 X111.275 Y114.75 Z2.8
;TYPE:WALL-INNER
G1 F300 Z2.6
G1 F2700 E60.38649
G1 F993.4 X111.28 Y120.376 E60.99932
G1 F2700 E55.99932
G1 F300 Z2.8
G0 F15000 X123.72 Y120.376 Z2.8
G1 F300 Z2.6
G1 F2700 E60.99932
G1 F993.4 X123.725 Y114.75 E61.61214
G1 F1088.1 X123.777 Y113.947 E61.69216
G1 F1189.6 X123.777 Y113.673 E61.71709
G1 X123.503 Y113.673 E61.74201
G1 F1273.4 X123 Y113.637 E61.78487
G1 F1361.3 X111.848 Y113.641 E62.67136
G1 F1266 X111.497 Y113.673 E62.70149
G1 F1189.6 X111.223 Y113.673 E62.72641
G1 X111.223 Y113.947 E62.75134
G1 F1088.1 X111.275 Y114.75 E62.83136
G1 X111.642 Y114.179 E62.89886
G1 F1266 X111.889 Y114.118 E62.92061
G1 F1361.3 X123 Y114.113 E63.80384
G1 F1273.4 X123.358 Y114.179 E63.83478
G1 F1088.1 X123.725 Y114.75 E63.90228
G1 F2700 E58.90228
G1 F300 Z2.8
G0 F15000 X123.72 Y120.376 Z2.8
G1 F300 Z2.6
G1 F2700 E63.90228
G1 F1079.1 X123.358 Y120.821 E63.95981
G1 F1266 X123.111 Y120.882 E63.98155
G1 F1361.3 X112 Y120.887 E64.86479
G1 F1273.4 X111.642 Y120.821 E64.89572
G1 F1079.1 X111.28 Y120.376 E64.95325
G1 X111.223 Y121.053 E65.02138
G1 F1189.6 X111.223 Y121.327 E65.0463
G1 X111.497 Y121.327 E65.07122
G1 F1273.4 X112 Y121.363 E65.11408
G1 F1361.3 X123.152 Y121.359 E66.00057
G1 F1266 X123.503 Y121.327 E66.0307
G1 F1189.6 X123.777 Y121.327 E66.05562
G1 X123.777 Y121.053 E66.08055
G1 F1079.1 X123.72 Y120.376 E66.14868
G0 F15000 X123.107 Y120.42
;TYPE:WALL-OUTER
G1 F1626.8 X123.035 Y120.448 E66.15382
G1 X112 Y120.45 E66.88787
G1 X111.893 Y120.42 E66.89526
G1 X111.802 Y120.285 E66.90609
G1 X111.8 Y114.75 E67.27428
G1 X111.893 Y114.58 E67.28717
G1 X111.965 Y114.552 E67.29231
G1 X123 Y114.55 E68.02636
G1 X123.107 Y114.58 E68.03375
G1 X123.2 Y114.75 E68.04664
G1 X123.198 Y120.285 E68.41483
G1 X123.107 Y120.42 E68.42566
G1 F2700 E63.42566
G1 F300 Z2.8
G0 F15000 X124.25 Y121.8 Z2.8
G1 F300 Z2.6
G1 F2700 E68.42566
G1 F1626.8 X124.25 Y113.2 E68.99774
G1 X110.75 Y113.2 E69.89576
G1 X110.75 Y121.8 E70.46783
G1 X124.25 Y121.8 E71.36586
G1 F2700 E66.36586
G1 F300 Z2.8
;MESH:NONMESH
G0 F15000 X111.275 Y114.75 Z2.8
;TIME_ELAPSED:68.724324
;LAYER:7
;MESH:Joints_Remake_Coupler_V4.stl
G0 X111.275 Y114.75 Z3.2
;TYPE:WALL-INNER
G1 F300 Z3
G1 F2700 E71.36586
G1 F993.4 X111.28 Y120.376 E71.97868
G1 F2700 E66.97868
G1 F300 Z3.2
G0 F15000 X123.72 Y120.376 Z3.2
G1 F300 Z3
G1 F2700 E71.97868
G1 F993.4 X123.725 Y114.75 E72.5915
G1 F1088.1 X123.777 Y113.947 E72.67153
G1 F1189.6 X123.777 Y113.673 E72.69645
G1 X123.503 Y113.673 E72.72138
G1 F1273.4 X123 Y113.637 E72.76423
G1 F1361.3 X111.848 Y113.641 E73.65072
