;FLAVOR:Marlin
;TIME:1710
;Filament used: 2.65383m
;Layer height: 0.4
;MINX:95.45
;MINY:100.3
;MINZ:0.2
;MAXX:134.7
;MAXY:134.7
;MAXZ:12
;Generated with Cura_SteamEngine 5.3.1
M140 S60
M105
M190 S60
M104 S200
M105
M109 S200
M82 ;absolute extrusion mode
; Ender 3 Custom Start G-code
G92 E0 ; Reset Extruder
G28 ; Home all axes
G1 Z2.0 F3000 ; Move Z Axis up little to prevent scratching of Heat Bed
G1 X0.1 Y20 Z0.3 F5000.0 ; Move to start position
G1 X0.1 Y200.0 Z0.3 F1500.0 E15 ; Draw the first line
G1 X0.4 Y200.0 Z0.3 F5000.0 ; Move to side a little
G1 X0.4 Y20 Z0.3 F1500.0 E30 ; Draw the second line
G92 E0 ; Reset Extruder
G1 Z2.0 F3000 ; Move Z Axis up little to prevent scratching of Heat Bed
G1 X5 Y20 Z0.3 F5000.0 ; Move over to prevent blob squish
G92 E0
G92 E0
G1 F2700 E-5
;LAYER_COUNT:31
;LAYER:0
M107
G1 F300 Z0.4
;MESH:Joints_Remake_Coupler_V4.stl(6)
G0 F6000 X95.975 Y101.85 Z0.4
;TYPE:WALL-INNER
G1 F300 Z0.2
G1 F2700 E0
G1 F732.8 X95.98 Y107.476 E0.30641
G1 F2700 E-4.69359
G1 F300 Z0.4
G0 F6000 X108.42 Y107.476 Z0.4
G1 F300 Z0.2
G1 F2700 E0.30641
G1 F732.8 X108.425 Y101.85 E0.61282
G1 F802.7 X108.477 Y101.047 E0.65284
G1 F877.5 X108.477 Y100.773 E0.6653
G1 X108.203 Y100.773 E0.67776
G1 F939.3 X107.7 Y100.737 E0.69919
G1 F1004.2 X96.548 Y100.741 E1.14243
G1 F933.9 X96.197 Y100.773 E1.1575
G1 F877.5 X95.923 Y100.773 E1.16996
G1 X95.923 Y101.047 E1.18242
G1 F802.7 X95.975 Y101.85 E1.22243
G1 X96.342 Y101.279 E1.25618
G1 F933.9 X96.589 Y101.218 E1.26706
G1 F1004.2 X107.7 Y101.213 E1.70867
G1 F939.3 X108.058 Y101.279 E1.72414
G1 F802.7 X108.425 Y101.85 E1.75789
G1 F2700 E-3.24211
G1 F300 Z0.4
G0 F6000 X108.42 Y107.476 Z0.4
G1 F300 Z0.2
G1 F2700 E1.75789
G1 F796 X108.058 Y107.921 E1.78666
G1 F933.9 X107.811 Y107.982 E1.79753
G1 F1004.2 X96.7 Y107.987 E2.23915
G1 F939.3 X96.342 Y107.921 E2.25461
G1 F796 X95.98 Y107.476 E2.28338
G1 X95.923 Y108.153 E2.31744
G1 F877.5 X95.923 Y108.427 E2.3299
G1 X96.197 Y108.427 E2.34237
G1 F939.3 X96.7 Y108.463 E2.36379
G1 F1004.2 X107.852 Y108.459 E2.80704
G1 F933.9 X108.203 Y108.427 E2.8221
G1 F877.5 X108.477 Y108.427 E2.83456
G1 X108.477 Y108.153 E2.84703
G1 F796 X108.42 Y107.476 E2.88109
G0 F6000 X107.807 Y107.52
;TYPE:WALL-OUTER
G1 F1200 X107.735 Y107.548 E2.88366
G1 X96.7 Y107.55 E3.25069
G1 X96.593 Y107.52 E3.25438
G1 X96.502 Y107.385 E3.2598
G1 X96.5 Y101.85 E3.44389
G1 X96.593 Y101.68 E3.45034
G1 X96.665 Y101.652 E3.45291
G1 X107.7 Y101.65 E3.81993
G1 X107.807 Y101.68 E3.82363
G1 X107.9 Y101.85 E3.83007
G1 X107.898 Y107.385 E4.01417
G1 X107.807 Y107.52 E4.01958
G1 F2700 E-0.98042
G1 F300 Z0.4
G0 F6000 X108.95 Y108.9 Z0.4
G1 F300 Z0.2
G1 F2700 E4.01958
G1 F1200 X108.95 Y100.3 E4.30562
G1 X95.45 Y100.3 E4.75463
G1 X95.45 Y108.9 E5.04067
G1 X108.95 Y108.9 E5.48968
G1 F2700 E0.48968
G1 F300 Z0.4
;MESH:Joints_Remake_Coupler_V4.stl(4)
G0 F6000 X107.35 Y111.275 Z0.4
;TYPE:WALL-INNER
G1 F300 Z0.2
G1 F2700 E5.48968
G1 F732.8 X101.724 Y111.28 E5.79609
G1 F2700 E0.79609
G1 F300 Z0.4
G0 F6000 X101.85 Y123.725 Z0.4
G1 F300 Z0.2
G1 F2700 E5.79609
G1 F732.8 X107.476 Y123.72 E6.1025
G1 F796 X108.153 Y123.777 E6.13657
G1 F877.5 X108.427 Y123.777 E6.14903
G1 X108.427 Y123.503 E6.16149
G1 F933.9 X108.46 Y123.152 E6.17656
G1 F1004.2 X108.463 Y112 E6.61981
G1 F939.3 X108.427 Y111.497 E6.64123
G1 F877.5 X108.427 Y111.223 E6.6537
G1 X108.153 Y111.223 E6.66616
G1 F802.7 X107.35 Y111.275 E6.70617
G1 X107.921 Y111.642 E6.73992
G1 F939.3 X107.987 Y112 E6.75539
G1 F1004.2 X107.982 Y123.111 E7.19701
G1 F933.9 X107.921 Y123.358 E7.20788
G1 F796 X107.476 Y123.72 E7.23664
G1 F2700 E2.23664
G1 F300 Z0.4
G0 F6000 X101.85 Y123.725 Z0.4
G1 F300 Z0.2
G1 F2700 E7.23664
G1 F802.7 X101.279 Y123.358 E7.27039
G1 F933.9 X101.218 Y123.111 E7.28127
G1 F1004.2 X101.213 Y112 E7.72288
G1 F939.3 X101.279 Y111.642 E7.73835
G1 F796 X101.724 Y111.28 E7.76711
G1 X101.047 Y111.223 E7.80118
G1 F877.5 X100.773 Y111.223 E7.81364
G1 X100.773 Y111.497 E7.8261
G1 F939.3 X100.737 Y112 E7.84753
G1 F1004.2 X100.741 Y123.152 E8.29078
G1 F933.9 X100.773 Y123.503 E8.30584
G1 F877.5 X100.773 Y123.777 E8.3183
G1 X101.047 Y123.777 E8.33076
G1 F802.7 X101.85 Y123.725 E8.37078
G1 F2700 E3.37078
G1 F300 Z0.4
G0 F6000 X107.52 Y123.107 Z0.4
;TYPE:WALL-OUTER
G1 F300 Z0.2
G1 F2700 E8.37078
G1 F1200 X107.385 Y123.198 E8.37619
G1 X101.85 Y123.2 E8.56029
G1 X101.68 Y123.107 E8.56673
G1 X101.652 Y123.035 E8.5693
G1 X101.65 Y112 E8.93633
G1 X101.68 Y111.893 E8.94002
G1 X101.815 Y111.802 E8.94544
G1 X107.35 Y111.8 E9.12953
G1 X107.52 Y111.893 E9.13598
G1 X107.55 Y112 E9.13967
G1 X107.548 Y123.035 E9.5067
G1 X107.52 Y123.107 E9.50927
G1 F2700 E4.50927
G1 F300 Z0.4
G0 F6000 X108.9 Y124.25 Z0.4
G1 F300 Z0.2
G1 F2700 E9.50927
G1 F1200 X108.9 Y110.75 E9.95828
G1 X100.3 Y110.75 E10.24432
G1 X100.3 Y124.25 E10.69333
G1 X108.9 Y124.25 E10.97937
G1 F2700 E5.97937
G1 F300 Z0.4
;MESH:Joints_Remake_Coupler_V4.stl
G0 F6000 X111.28 Y120.376 Z0.4
;TYPE:WALL-INNER
G1 F300 Z0.2
G1 F2700 E10.97937
G1 F732.8 X111.275 Y114.75 E11.28578
G1 F2700 E6.28578
G1 F300 Z0.4
G0 F6000 X123.725 Y114.75 Z0.4
G1 F300 Z0.2
G1 F2700 E11.28578
G1 F732.8 X123.72 Y120.376 E11.59219
G1 F796 X123.358 Y120.821 E11.62095
G1 F933.9 X123.111 Y120.882 E11.63183
G1 F1004.2 X112 Y120.887 E12.07344
G1 F939.3 X111.642 Y120.821 E12.08891
G1 F796 X111.28 Y120.376 E12.11767
G1 X111.223 Y121.053 E12.15174
G1 F877.5 X111.223 Y121.327 E12.1642
G1 X111.497 Y121.327 E12.17666
G1 F939.3 X112 Y121.363 E12.19809
G1 F1004.2 X123.152 Y121.359 E12.64133
G1 F933.9 X123.503 Y121.327 E12.6564
G1 F877.5 X123.777 Y121.327 E12.66886
G1 X123.777 Y121.053 E12.68132
G1 F796 X123.72 Y120.376 E12.71539
G1 F2700 E7.71539
G1 F300 Z0.4
G0 F6000 X123.725 Y114.75 Z0.4
G1 F300 Z0.2
G1 F2700 E12.71539
G1 F802.7 X123.777 Y113.947 E12.7554
G1 F877.5 X123.777 Y113.673 E12.76786
G1 X123.503 Y113.673 E12.78032
G1 F939.3 X123 Y113.637 E12.80175
G1 F1004.2 X111.848 Y113.641 E13.245
G1 F933.9 X111.497 Y113.673 E13.26006
G1 F877.5 X111.223 Y113.673 E13.27252
G1 X111.223 Y113.947 E13.28499
G1 F802.7 X111.275 Y114.75 E13.325
G1 X111.642 Y114.179 E13.35875
G1 F933.9 X111.889 Y114.118 E13.36962
G1 F1004.2 X123 Y114.113 E13.81124
G1 F939.3 X123.358 Y114.179 E13.82671
G1 F802.7 X123.725 Y114.75 E13.86046
G1 F2700 E8.86046
G1 F300 Z0.4
G0 F6000 X123.107 Y120.42 Z0.4
;TYPE:WALL-OUTER
G1 F300 Z0.2
G1 F2700 E13.86046
G1 F1200 X123.035 Y120.448 E13.86303
G1 X112 Y120.45 E14.23005
G1 X111.893 Y120.42 E14.23375
G1 X111.802 Y120.285 E14.23916
G1 X111.8 Y114.75 E14.42326
G1 X111.893 Y114.58 E14.4297
G1 X111.965 Y114.552 E14.43227
G1 X123 Y114.55 E14.7993
G1 X123.107 Y114.58 E14.80299
G1 X123.2 Y114.75 E14.80944
G1 X123.198 Y120.285 E14.99353
G1 X123.107 Y120.42 E14.99895
G1 F2700 E9.99895
G1 F300 Z0.4
G0 F6000 X124.25 Y121.8 Z0.4
G1 F300 Z0.2
G1 F2700 E14.99895
G1 F1200 X124.25 Y113.2 E15.28499
G1 X110.75 Y113.2 E15.734
G1 X110.75 Y121.8 E16.02004
G1 X124.25 Y121.8 E16.46905
G1 F2700 E11.46905
G1 F300 Z0.4
;MESH:Joints_Remake_Coupler_V4.stl(1)
G0 F6000 X123.725 Y125.25 Z0.4
;TYPE:WALL-INNER
G1 F300 Z0.2
G1 F2700 E16.46905
G1 F732.8 X123.72 Y130.876 E16.77546
G1 F796 X123.358 Y131.321 E16.80422
G1 F933.9 X123.111 Y131.382 E16.8151
G1 F1004.2 X112 Y131.387 E17.25671
G1 F939.3 X111.642 Y131.321 E17.27218
G1 F796 X111.28 Y130.876 E17.30094
G1 X111.223 Y131.553 E17.33501
G1 F877.5 X111.223 Y131.827 E17.34747
G1 X111.497 Y131.827 E17.35993
G1 F939.3 X112 Y131.863 E17.38136
G1 F1004.2 X123.152 Y131.859 E17.8246
G1 F933.9 X123.503 Y131.827 E17.83967
G1 F877.5 X123.777 Y131.827 E17.85213
G1 X123.777 Y131.553 E17.86459
G1 F796 X123.72 Y130.876 E17.89866
G1 F2700 E12.89866
G1 F300 Z0.4
G0 F6000 X123.725 Y125.25 Z0.4
G1 F300 Z0.2
G1 F2700 E17.89866
G1 F802.7 X123.777 Y124.447 E17.93867
G1 F877.5 X123.777 Y124.173 E17.95113
G1 X123.503 Y124.173 E17.96359
G1 F939.3 X123 Y124.137 E17.98502
G1 F1004.2 X111.848 Y124.141 E18.42827
G1 F933.9 X111.497 Y124.173 E18.44333
G1 F877.5 X111.223 Y124.173 E18.45579
G1 X111.223 Y124.447 E18.46826
G1 F802.7 X111.275 Y125.25 E18.50827
G1 X111.642 Y124.679 E18.54202
G1 F933.9 X111.889 Y124.618 E18.55289
G1 F1004.2 X123 Y124.613 E18.99451
G1 F939.3 X123.358 Y124.679 E19.00998
G1 F802.7 X123.725 Y125.25 E19.04373
G1 F2700 E14.04373
G1 F300 Z0.4
G0 F6000 X111.275 Y125.25 Z0.4
G1 F300 Z0.2
G1 F2700 E19.04373
G1 F732.8 X111.28 Y130.876 E19.35014
G1 F2700 E14.35014
G1 F300 Z0.4
G0 F6000 X123.107 Y130.92 Z0.4
;TYPE:WALL-OUTER
G1 F300 Z0.2
G1 F2700 E19.35014
G1 F1200 X123.035 Y130.948 E19.35271
G1 X112 Y130.95 E19.71973
G1 X111.893 Y130.92 E19.72343
G1 X111.802 Y130.785 E19.72885
G1 X111.8 Y125.25 E19.91294
G1 X111.893 Y125.08 E19.91939
G1 X111.965 Y125.052 E19.92195
G1 X123 Y125.05 E20.28898
G1 X123.107 Y125.08 E20.29268
G1 X123.2 Y125.25 E20.29912
G1 X123.198 Y130.785 E20.48322
G1 X123.107 Y130.92 E20.48863
G1 F2700 E15.48863
G1 F300 Z0.4
G0 F6000 X124.25 Y132.3 Z0.4
G1 F300 Z0.2
G1 F2700 E20.48863
G1 F1200 X124.25 Y123.7 E20.77467
G1 X110.75 Y123.7 E21.22368
G1 X110.75 Y132.3 E21.50972
G1 X124.25 Y132.3 E21.95873
G1 F2700 E16.95873
G1 F300 Z0.4
;MESH:Joints_Remake_Coupler_V4.stl(5)
G0 F6000 X108.42 Y133.276 Z0.4
;TYPE:WALL-INNER
G1 F300 Z0.2
G1 F2700 E21.95873
G1 F732.8 X108.425 Y127.65 E22.26514
G1 F802.7 X108.477 Y126.847 E22.30515
G1 F877.5 X108.477 Y126.573 E22.31762
G1 X108.203 Y126.573 E22.33008
G1 F939.3 X107.7 Y126.537 E22.3515
G1 F1004.2 X96.548 Y126.541 E22.79475
G1 F933.9 X96.197 Y126.573 E22.80981
G1 F877.5 X95.923 Y126.573 E22.82228
G1 X95.923 Y126.847 E22.83474
G1 F802.7 X95.975 Y127.65 E22.87475
G1 X96.342 Y127.079 E22.9085
G1 F933.9 X96.589 Y127.018 E22.91938
G1 F1004.2 X107.7 Y127.013 E23.36099
G1 F939.3 X108.058 Y127.079 E23.37646
G1 F802.7 X108.425 Y127.65 E23.41021
G1 F2700 E18.41021
G1 F300 Z0.4
G0 F6000 X108.42 Y133.276 Z0.4
G1 F300 Z0.2
G1 F2700 E23.41021
G1 F796 X108.058 Y133.721 E23.43897
G1 F933.9 X107.811 Y133.782 E23.44985
G1 F1004.2 X96.7 Y133.787 E23.89146
G1 F939.3 X96.342 Y133.721 E23.90693
G1 F796 X95.98 Y133.276 E23.93569
G1 X95.923 Y133.953 E23.96976
G1 F877.5 X95.923 Y134.227 E23.98222
G1 X96.197 Y134.227 E23.99468
G1 F939.3 X96.7 Y134.263 E24.01611
G1 F1004.2 X107.852 Y134.259 E24.45936
G1 F933.9 X108.203 Y134.227 E24.47442
G1 F877.5 X108.477 Y134.227 E24.48688
G1 X108.477 Y133.953 E24.49934
G1 F796 X108.42 Y133.276 E24.53341
G1 F2700 E19.53341
G1 F300 Z0.4
G0 F6000 X95.98 Y133.276 Z0.4
G1 F300 Z0.2
G1 F2700 E24.53341
G1 F732.8 X95.975 Y127.65 E24.83982
G1 F2700 E19.83982
G1 F300 Z0.4
G0 F6000 X107.807 Y133.32 Z0.4
;TYPE:WALL-OUTER
G1 F300 Z0.2
G1 F2700 E24.83982
G1 F1200 X107.735 Y133.348 E24.84239
G1 X96.7 Y133.35 E25.20942
G1 X96.593 Y133.32 E25.21311
G1 X96.502 Y133.185 E25.21853
G1 X96.5 Y127.65 E25.40262
G1 X96.593 Y127.48 E25.40907
G1 X96.665 Y127.452 E25.41164
G1 X107.7 Y127.45 E25.77866
G1 X107.807 Y127.48 E25.78236
G1 X107.9 Y127.65 E25.7888
G1 X107.898 Y133.185 E25.9729
G1 X107.807 Y133.32 E25.97831
G1 F2700 E20.97831
G1 F300 Z0.4
G0 F6000 X108.95 Y134.7 Z0.4
G1 F300 Z0.2
G1 F2700 E25.97831
G1 F1200 X108.95 Y126.1 E26.26435
G1 X95.45 Y126.1 E26.71336
G1 X95.45 Y134.7 E26.9994
G1 X108.95 Y134.7 E27.44841
G1 F2700 E22.44841
G1 F300 Z0.4
;MESH:Joints_Remake_Coupler_V4.stl(2)
G0 F6000 X111.28 Y109.876 Z0.4
;TYPE:WALL-INNER
G1 F300 Z0.2
G1 F2700 E27.44841
G1 F732.8 X111.275 Y104.25 E27.75482
G1 F2700 E22.75482
G1 F300 Z0.4
G0 F6000 X123.725 Y104.25 Z0.4
G1 F300 Z0.2
G1 F2700 E27.75482
G1 F732.8 X123.72 Y109.876 E28.06123
G1 F796 X123.358 Y110.321 E28.09
G1 F933.9 X123.111 Y110.382 E28.10087
G1 F1004.2 X112 Y110.387 E28.54249
G1 F939.3 X111.642 Y110.321 E28.55795
G1 F796 X111.28 Y109.876 E28.58672
G1 X111.223 Y110.553 E28.62078
G1 F877.5 X111.223 Y110.827 E28.63324
G1 X111.497 Y110.827 E28.64571
G1 F939.3 X112 Y110.863 E28.66713
G1 F1004.2 X123.152 Y110.859 E29.11038
G1 F933.9 X123.503 Y110.827 E29.12544
G1 F877.5 X123.777 Y110.827 E29.1379
G1 X123.777 Y110.553 E29.15037
G1 F796 X123.72 Y109.876 E29.18443
G1 F2700 E24.18443
G1 F300 Z0.4
G0 F6000 X123.725 Y104.25 Z0.4
G1 F300 Z0.2
G1 F2700 E29.18443
G1 F802.7 X123.777 Y103.447 E29.22444
G1 F877.5 X123.777 Y103.173 E29.23691
G1 X123.503 Y103.173 E29.24937
G1 F939.3 X123 Y103.137 E29.2708
G1 F1004.2 X111.848 Y103.141 E29.71404
G1 F933.9 X111.497 Y103.173 E29.72911
G1 F877.5 X111.223 Y103.173 E29.74157
G1 X111.223 Y103.447 E29.75403
G1 F802.7 X111.275 Y104.25 E29.79404
G1 X111.642 Y103.679 E29.82779
G1 F933.9 X111.889 Y103.618 E29.83867
G1 F1004.2 X123 Y103.613 E30.28028
G1 F939.3 X123.358 Y103.679 E30.29575
G1 F802.7 X123.725 Y104.25 E30.3295
G1 F2700 E25.3295
G1 F300 Z0.4
G0 F6000 X123.107 Y109.92 Z0.4
;TYPE:WALL-OUTER
G1 F300 Z0.2
G1 F2700 E30.3295
G1 F1200 X123.035 Y109.948 E30.33207
G1 X112 Y109.95 E30.6991
G1 X111.893 Y109.92 E30.70279
G1 X111.802 Y109.785 E30.70821
G1 X111.8 Y104.25 E30.8923
G1 X111.893 Y104.08 E30.89875
G1 X111.965 Y104.052 E30.90132
G1 X123 Y104.05 E31.26834
G1 X123.107 Y104.08 E31.27204
G1 X123.2 Y104.25 E31.27848
G1 X123.198 Y109.785 E31.46258
G1 X123.107 Y109.92 E31.46799
G1 F2700 E26.46799
G1 F300 Z0.4
G0 F6000 X124.25 Y111.3 Z0.4
G1 F300 Z0.2
G1 F2700 E31.46799
G1 F1200 X124.25 Y102.7 E31.75403
G1 X110.75 Y102.7 E32.20304
G1 X110.75 Y111.3 E32.48908
G1 X124.25 Y111.3 E32.93809
G1 F2700 E27.93809
G1 F300 Z0.4
;MESH:Joints_Remake_Coupler_V4.stl(3)
G0 F6000 X127.524 Y111.28 Z0.4
;TYPE:WALL-INNER
G1 F300 Z0.2
G1 F2700 E32.93809
G1 F732.8 X133.15 Y111.275 E33.2445
G1 F2700 E28.2445
G1 F300 Z0.4
G0 F6000 X133.276 Y123.72 Z0.4
G1 F300 Z0.2
G1 F2700 E33.2445
G1 F732.8 X127.65 Y123.725 E33.55091
G1 F802.7 X127.079 Y123.358 E33.58467
G1 F933.9 X127.018 Y123.111 E33.59554
G1 F1004.2 X127.013 Y112 E34.03716
G1 F939.3 X127.079 Y111.642 E34.05262
G1 F796 X127.524 Y111.28 E34.08139
G1 X126.847 Y111.223 E34.11545
G1 F877.5 X126.573 Y111.223 E34.12791
G1 X126.573 Y111.497 E34.14038
G1 F939.3 X126.537 Y112 E34.1618
G1 F1004.2 X126.541 Y123.152 E34.60505
G1 F933.9 X126.573 Y123.503 E34.62011
G1 F877.5 X126.573 Y123.777 E34.63257
G1 X126.847 Y123.777 E34.64504
G1 F802.7 X127.65 Y123.725 E34.68505
G1 F2700 E29.68505
G1 F300 Z0.4
G0 F6000 X133.276 Y123.72 Z0.4
G1 F300 Z0.2
G1 F2700 E34.68505
G1 F796 X133.953 Y123.777 E34.71911
G1 F877.5 X134.227 Y123.777 E34.73158
G1 X134.227 Y123.503 E34.74404
G1 F933.9 X134.26 Y123.152 E34.75911
G1 F1004.2 X134.263 Y112 E35.20235
G1 F939.3 X134.227 Y111.497 E35.22378
G1 F877.5 X134.227 Y111.223 E35.23624
G1 X133.953 Y111.223 E35.2487
G1 F802.7 X133.15 Y111.275 E35.28872
G1 X133.721 Y111.642 E35.32247
G1 F939.3 X133.787 Y112 E35.33793
G1 F1004.2 X133.782 Y123.111 E35.77955
G1 F933.9 X133.721 Y123.358 E35.79042
G1 F796 X133.276 Y123.72 E35.81919
G1 F2700 E30.81919
G1 F300 Z0.4
G0 F6000 X127.48 Y123.107 Z0.4
;TYPE:WALL-OUTER
G1 F300 Z0.2
G1 F2700 E35.81919
G1 F1200 X127.452 Y123.035 E35.82176
G1 X127.45 Y112 E36.18878
G1 X127.48 Y111.893 E36.19248
G1 X127.615 Y111.802 E36.19789
G1 X133.15 Y111.8 E36.38199
G1 X133.32 Y111.893 E36.38843
G1 X133.35 Y112 E36.39213
G1 X133.348 Y123.035 E36.75915
G1 X133.32 Y123.107 E36.76172
G1 X133.185 Y123.198 E36.76714
G1 X127.65 Y123.2 E36.95123
G1 X127.48 Y123.107 E36.95768
G1 F2700 E31.95768
G1 F300 Z0.4
G0 F6000 X126.1 Y124.25 Z0.4
G1 F300 Z0.2
G1 F2700 E36.95768
G1 F1200 X134.7 Y124.25 E37.24372
G1 X134.7 Y110.75 E37.69273
G1 X126.1 Y110.75 E37.97877
G1 X126.1 Y124.25 E38.42778
G1 F2700 E33.42778
G1 F300 Z0.4
;MESH:NONMESH
G0 F6000 X95.975 Y101.85 Z0.4
;TIME_ELAPSED:80.788905
;LAYER:1
M106 S85
;MESH:Joints_Remake_Coupler_V4.stl(6)
G0 F10500 X95.975 Y101.85 Z0.8
;TYPE:WALL-INNER
G1 F300 Z0.6
G1 F2700 E38.42778
G1 F1282.4 X95.98 Y107.476 E39.0406
G1 F2700 E34.0406
G1 F300 Z0.8
G0 F10500 X108.42 Y107.476 Z0.8
G1 F300 Z0.6
G1 F2700 E39.0406
G1 F1282.4 X108.425 Y101.85 E39.65342
G1 F1404.7 X108.477 Y101.047 E39.73345
G1 F1535.6 X108.477 Y100.773 E39.75837
G1 X108.203 Y100.773 E39.7833
G1 F1643.8 X107.7 Y100.737 E39.82615
G1 F1757.3 X96.548 Y100.741 E40.71264
G1 F1634.2 X96.197 Y100.773 E40.74277
G1 F1535.6 X95.923 Y100.773 E40.76769
G1 X95.923 Y101.047 E40.79262
G1 F1404.7 X95.975 Y101.85 E40.87264
G1 X96.342 Y101.279 E40.94015
