;FLAVOR:Marlin
;TIME:12035
;Filament used: 22.7507m
;Layer height: 0.4
;MINX:49.151
;MINY:55.051
;MINZ:0.24
;MAXX:185.649
;MAXY:196.1
;MAXZ:6.59
;Generated with Cura_SteamEngine 5.3.1
M140 S60
M105
M190 S60
M104 S200
M105
M109 S200
M82 ;absolute extrusion mode
; Ender 3 Custom Start G-code
G92 E0 ; Reset Extruder
G28 ; Home all axes
G1 Z2.0 F3000 ; Move Z Axis up little to prevent scratching of Heat Bed
G1 X0.1 Y20 Z0.3 F5000.0 ; Move to start position
G1 X0.1 Y200.0 Z0.3 F1500.0 E15 ; Draw the first line
G1 X0.4 Y200.0 Z0.3 F5000.0 ; Move to side a little
G1 X0.4 Y20 Z0.3 F1500.0 E30 ; Draw the second line
G92 E0 ; Reset Extruder
G1 Z2.0 F3000 ; Move Z Axis up little to prevent scratching of Heat Bed
G1 X5 Y20 Z0.3 F5000.0 ; Move over to prevent blob squish
G92 E0
G92 E0
G1 F2700 E-5
;LAYER_COUNT:13
;LAYER:-5
M107
G0 F15000 X51.97 Y67.59 Z0.24
;TYPE:SUPPORT-INTERFACE
G1 F2700 E0
G1 F2250 X52.466 Y67.283 E0.04656
G1 X52.695 Y67.156 E0.06747
G1 X53.104 Y66.961 E0.10363
G1 X53.632 Y66.741 E0.14929
G1 X53.714 Y66.729 E0.15591
G1 X54.008 Y66.641 E0.18041
G1 X54.541 Y66.512 E0.22418
G1 X55.016 Y66.438 E0.26256
G1 X55.027 Y66.447 E0.26369
G1 X55.351 Y66.415 E0.28968
G1 X55.781 Y66.4 E0.32402
G1 X63.559 Y66.4 E0.9449
G1 X64.218 Y66.356 E0.99762
G1 X64.868 Y66.232 E1.05044
G1 X65.535 Y66.014 E1.10646
G1 X66.149 Y65.722 E1.16073
G1 X66.72 Y65.357 E1.21482
G1 X67.248 Y64.915 E1.26979
G1 X67.712 Y64.415 E1.32424
G1 X68.111 Y63.858 E1.37893
G1 X68.429 Y63.266 E1.43257
G1 X68.687 Y62.598 E1.48974
G1 X68.837 Y61.992 E1.53957
G1 X68.917 Y61.311 E1.5943
G1 X68.957 Y60.834 E1.63251
G1 X69.056 Y60.227 E1.68161
G1 X69.243 Y59.557 E1.73713
G1 X69.493 Y58.915 E1.79213
G1 X69.82 Y58.292 E1.84829
G1 X70.196 Y57.726 E1.90254
G1 X70.668 Y57.158 E1.96149
G1 X71.162 Y56.676 E2.01658
G1 X71.72 Y56.24 E2.07311
G1 X72.216 Y55.933 E2.11967
G1 X72.445 Y55.806 E2.14057
G1 X72.854 Y55.611 E2.17674
G1 X73.382 Y55.391 E2.2224
G1 X73.464 Y55.379 E2.22902
G1 X73.758 Y55.291 E2.25351
G1 X74.291 Y55.162 E2.29729
G1 X74.766 Y55.088 E2.33566
G1 X74.777 Y55.097 E2.3368
G1 X75.101 Y55.065 E2.36279
G1 X75.531 Y55.051 E2.39713
G1 X159.537 Y55.053 E9.10285
G1 X160.211 Y55.09 E9.15673
G1 X160.775 Y55.182 E9.20235
G1 X161.02 Y55.233 E9.22233
G1 X161.595 Y55.393 E9.26997
G1 X162.239 Y55.646 E9.3252
G1 X162.88 Y55.982 E9.38297
G1 X163.442 Y56.359 E9.43699
G1 X163.992 Y56.818 E9.49417
G1 X164.474 Y57.313 E9.54933
G1 X164.909 Y57.869 E9.60568
G1 X165.282 Y58.469 E9.66207
G1 X165.539 Y59.005 E9.70952
G1 X165.759 Y59.532 E9.75511
G1 X165.771 Y59.614 E9.76172
G1 X165.859 Y59.908 E9.78622
G1 X165.988 Y60.443 E9.83015
G1 X166.06 Y60.902 E9.86724
G1 X166.051 Y60.913 E9.86837
G1 X166.085 Y61.251 E9.89549
G1 X166.1 Y61.652 E9.92752
G1 X166.1 Y62.036 E9.95817
G1 X166.14 Y62.656 E10.00777
G1 X166.27 Y63.349 E10.06405
G1 X166.486 Y64.007 E10.11933
G1 X166.779 Y64.624 E10.17386
G1 X167.138 Y65.185 E10.22702
G1 X167.585 Y65.72 E10.28267
G1 X168.084 Y66.184 E10.33706
G1 X168.627 Y66.574 E10.39043
G1 X169.245 Y66.906 E10.44643
G1 X169.877 Y67.152 E10.50057
G1 X170.537 Y67.314 E10.55481
G1 X171.469 Y67.399 E10.62952
G1 X178.981 Y67.401 E11.22916
G1 X179.758 Y67.439 E11.29126
G1 X180.325 Y67.532 E11.33712
G1 X180.57 Y67.583 E11.3571
G1 X181.145 Y67.743 E11.40474
G1 X181.789 Y67.996 E11.45997
G1 X182.43 Y68.332 E11.51774
G1 X182.992 Y68.709 E11.57176
G1 X183.542 Y69.168 E11.62895
G1 X184.03 Y69.669 E11.68477
G1 X184.46 Y70.221 E11.74063
G1 X184.832 Y70.819 E11.79685
G1 X185.089 Y71.355 E11.8443
G1 X185.309 Y71.882 E11.88988
G1 X185.321 Y71.964 E11.8965
G1 X185.409 Y72.258 E11.92099
G1 X185.537 Y72.789 E11.9646
G1 X185.605 Y73.26 E12.00258
G1 X185.595 Y73.272 E12.00383
G1 X185.635 Y73.606 E12.03068
G1 X185.649 Y74.002 E12.06231
G1 X185.648 Y161.014 E19.00799
G1 X185.61 Y161.709 E19.06355
G1 X185.494 Y162.422 E19.12121
G1 X185.307 Y163.093 E19.17681
G1 X185.057 Y163.735 E19.23181
G1 X184.73 Y164.358 E19.28797
G1 X184.35 Y164.93 E19.34279
G1 X183.882 Y165.492 E19.40117
G1 X183.387 Y165.974 E19.45632
G1 X182.829 Y166.41 E19.51285
G1 X182.334 Y166.717 E19.55934
G1 X182.107 Y166.843 E19.58007
G1 X181.697 Y167.038 E19.61631
G1 X181.168 Y167.259 E19.66207
G1 X181.086 Y167.271 E19.66869
G1 X180.792 Y167.359 E19.69318
G1 X180.259 Y167.488 E19.73696
G1 X179.784 Y167.563 E19.77534
G1 X179.773 Y167.553 E19.77653
G1 X179.449 Y167.585 E19.80252
G1 X179.019 Y167.599 E19.83686
G1 X169.219 Y167.6 E20.61914
G1 X168.448 Y167.561 E20.68076
G1 X167.222 Y167.372 E20.77979
G1 X166.756 Y167.35 E20.81702
G1 X164.019 Y167.35 E21.0355
G1 X163.381 Y167.391 E21.08654
G1 X162.706 Y167.519 E21.14138
G1 X162.043 Y167.736 E21.19706
G1 X161.439 Y168.022 E21.25041
G1 X160.867 Y168.387 E21.30457
G1 X160.354 Y168.814 E21.35785
G1 X159.853 Y169.351 E21.41648
G1 X159.469 Y169.888 E21.46918
G1 X159.142 Y170.498 E21.52442
G1 X158.902 Y171.116 E21.57734
G1 X158.734 Y171.8 E21.63357
G1 X158.651 Y172.719 E21.70722
G1 X158.65 Y189.431 E23.04125
G1 X158.611 Y190.204 E23.10303
G1 X158.494 Y190.923 E23.16118
G1 X158.307 Y191.593 E23.21671
G1 X158.057 Y192.235 E23.2717
G1 X157.73 Y192.858 E23.32787
G1 X157.35 Y193.43 E23.38268
G1 X156.882 Y193.992 E23.44106
G1 X156.387 Y194.474 E23.49621
G1 X155.829 Y194.91 E23.55274
G1 X155.334 Y195.217 E23.59924
G1 X155.107 Y195.343 E23.61996
G1 X154.697 Y195.538 E23.6562
G1 X154.168 Y195.759 E23.70196
G1 X154.086 Y195.771 E23.70858
G1 X153.792 Y195.859 E23.73308
G1 X153.259 Y195.988 E23.77685
G1 X152.784 Y196.063 E23.81524
G1 X152.773 Y196.053 E23.81642
G1 X152.449 Y196.085 E23.84241
G1 X152.019 Y196.099 E23.87676
G1 X142.219 Y196.1 E24.65903
G1 X141.442 Y196.061 E24.72114
G1 X140.875 Y195.968 E24.767
G1 X140.63 Y195.917 E24.78698
G1 X140.054 Y195.757 E24.8347
G1 X139.409 Y195.503 E24.89003
G1 X138.777 Y195.171 E24.94702
G1 X138.209 Y194.791 E25.00157
G1 X137.657 Y194.332 E25.05888
G1 X137.174 Y193.836 E25.11414
G1 X136.74 Y193.28 E25.17044
G1 X136.433 Y192.784 E25.21701
G1 X136.306 Y192.555 E25.23791
G1 X136.111 Y192.146 E25.27408
G1 X135.891 Y191.618 E25.31974
G1 X135.879 Y191.536 E25.32635
G1 X135.791 Y191.242 E25.35085
G1 X135.662 Y190.709 E25.39462
G1 X135.588 Y190.234 E25.433
G1 X135.597 Y190.223 E25.43413
G1 X135.565 Y189.899 E25.46012
G1 X135.551 Y189.498 E25.49215
G1 X135.55 Y184.314 E25.90596
G1 X135.505 Y183.65 E25.95908
G1 X135.38 Y183.002 E26.01176
G1 X135.164 Y182.344 E26.06705
G1 X134.875 Y181.735 E26.12086
G1 X134.508 Y181.16 E26.17531
G1 X134.065 Y180.63 E26.23045
G1 X133.552 Y180.155 E26.28625
G1 X133.024 Y179.777 E26.33809
G1 X132.403 Y179.443 E26.39438
G1 X131.776 Y179.199 E26.44808
G1 X131.126 Y179.039 E26.50152
G1 X130.181 Y178.951 E26.57728
G1 X94.319 Y178.95 E29.43994
G1 X93.542 Y178.911 E29.50204
G1 X92.975 Y178.818 E29.5479
G1 X92.73 Y178.767 E29.56788
G1 X92.154 Y178.607 E29.6156
G1 X91.509 Y178.353 E29.67093
G1 X90.877 Y178.021 E29.72792
G1 X90.309 Y177.641 E29.78247
G1 X89.757 Y177.182 E29.83978
G1 X89.274 Y176.686 E29.89504
G1 X88.84 Y176.13 E29.95134
G1 X88.533 Y175.634 E29.99791
G1 X88.406 Y175.405 E30.01881
G1 X88.211 Y174.996 E30.05498
G1 X87.991 Y174.468 E30.10064
G1 X87.979 Y174.386 E30.10725
G1 X87.891 Y174.092 E30.13175
G1 X87.762 Y173.559 E30.17553
G1 X87.688 Y173.084 E30.2139
G1 X87.697 Y173.073 E30.21503
G1 X87.665 Y172.749 E30.24102
G1 X87.651 Y172.348 E30.27305
G1 X87.65 Y170.239 E30.4414
G1 X87.607 Y169.593 E30.49308
G1 X87.48 Y168.926 E30.54728
G1 X87.267 Y168.276 E30.60188
G1 X86.969 Y167.648 E30.65737
G1 X86.595 Y167.068 E30.71246
G1 X86.185 Y166.578 E30.76346
G1 X85.708 Y166.126 E30.81591
G1 X85.356 Y165.833 E30.85247
G1 X84.872 Y165.334 E30.90796
G1 X84.44 Y164.78 E30.96404
G1 X84.068 Y164.181 E31.02033
G1 X83.812 Y163.655 E31.06702
G1 X83.496 Y163.087 E31.11891
G1 X83.081 Y162.523 E31.1748
G1 X82.59 Y162.01 E31.23149
G1 X82.092 Y161.608 E31.28258
G1 X81.483 Y161.23 E31.33979
G1 X80.876 Y160.953 E31.39305
G1 X80.21 Y160.748 E31.44868
G1 X79.573 Y160.636 E31.5003
G1 X78.961 Y160.6 E31.54924
G1 X78.519 Y160.6 E31.58452
G1 X78.098 Y160.58 E31.61817
G1 X77.593 Y160.595 E31.6585
G1 X77.579 Y160.581 E31.66008
G1 X77.018 Y160.6 E31.70488
G1 X76.52 Y160.6 E31.74464
G1 X75.858 Y160.644 E31.7976
G1 X75.196 Y160.772 E31.85142
G1 X74.538 Y160.989 E31.90673
G1 X73.944 Y161.27 E31.95918
G1 X73.357 Y161.645 E32.01478
G1 X72.836 Y162.08 E32.06896
G1 X72.36 Y162.594 E32.12488
G1 X71.961 Y163.156 E32.1799
G1 X71.642 Y163.748 E32.23358
G1 X71.335 Y164.352 E32.28766
G1 X70.949 Y164.932 E32.34328
G1 X70.482 Y165.492 E32.40148
G1 X69.987 Y165.974 E32.45663
G1 X69.429 Y166.41 E32.51316
G1 X68.934 Y166.717 E32.55966
G1 X68.707 Y166.843 E32.58038
G1 X68.297 Y167.038 E32.61662
G1 X67.768 Y167.259 E32.66239
G1 X67.686 Y167.271 E32.669
G1 X67.392 Y167.359 E32.6935
G1 X66.859 Y167.488 E32.73727
G1 X66.384 Y167.563 E32.77566
G1 X66.373 Y167.553 E32.77685
G1 X66.049 Y167.585 E32.80284
G1 X65.619 Y167.599 E32.83718
G1 X55.819 Y167.6 E33.61946
G1 X55.042 Y167.561 E33.68156
G1 X54.475 Y167.468 E33.72742
G1 X54.23 Y167.417 E33.7474
G1 X53.654 Y167.257 E33.79512
G1 X53.009 Y167.003 E33.85045
G1 X52.377 Y166.671 E33.90744
G1 X51.809 Y166.291 E33.96199
G1 X51.257 Y165.832 E34.0193
G1 X50.774 Y165.336 E34.07456
G1 X50.34 Y164.78 E34.13086
G1 X50.033 Y164.284 E34.17743
G1 X49.906 Y164.055 E34.19833
G1 X49.711 Y163.646 E34.2345
G1 X49.491 Y163.118 E34.28016
G1 X49.479 Y163.036 E34.28677
G1 X49.389 Y162.735 E34.31185
G1 X49.262 Y162.208 E34.35512
G1 X49.188 Y161.733 E34.3935
G1 X49.197 Y161.722 E34.39463
G1 X49.165 Y161.399 E34.42054
G1 X49.151 Y160.998 E34.45257
G1 X49.153 Y72.963 E41.47991
G1 X49.19 Y72.292 E41.53355
G1 X49.305 Y71.579 E41.5912
G1 X49.494 Y70.9 E41.64746
G1 X49.748 Y70.256 E41.70272
G1 X50.07 Y69.642 E41.75806
G1 X50.446 Y69.076 E41.81231
G1 X50.918 Y68.508 E41.87126
G1 X51.412 Y68.026 E41.92635
G1 X51.97 Y67.59 E41.98288
G0 F15000 X52.132 Y67.971
G1 F2250 X158.249 Y174.088 E53.96228
G1 F2700 E48.96228
G1 F300 Z0.44
G0 F15000 X158.324 Y171.901 Z0.44
G1 F300 Z0.24
G1 F2700 E53.96228
G1 F2250 X53.607 Y67.184 E65.78364
G1 F2700 E60.78364
G1 F300 Z0.44
G0 F15000 X55.495 Y66.809 Z0.44
G1 F300 Z0.24
G1 F2700 E65.78364
G1 F2250 X158.862 Y170.176 E77.4526
G1 F2700 E72.4526
G1 F300 Z0.44
G0 F15000 X159.787 Y168.838 Z0.44
G1 F300 Z0.24
G1 F2700 E77.4526
G1 F2250 X57.747 Y66.798 E88.97176
G1 F2700 E83.97176
G1 F300 Z0.44
G0 F15000 X60.01 Y66.798 Z0.44
G1 F300 Z0.24
G1 F2700 E88.97176
G1 F2250 X161.023 Y167.811 E100.37498
G1 F2700 E95.37498
G1 F300 Z0.44
G0 F15000 X162.606 Y167.131 Z0.44
G1 F300 Z0.24
G1 F2700 E100.37498
G1 F2250 X62.273 Y66.798 E111.70144
G1 F2700 E106.70144
G1 F300 Z0.44
G0 F15000 X64.454 Y66.717 Z0.44
G1 F300 Z0.24
G1 F2700 E111.70144
G1 F2250 X164.686 Y166.949 E123.01649
G1 F2700 E118.01649
G1 F300 Z0.44
G0 F15000 X166.958 Y166.958 Z0.44
G1 F300 Z0.24
G1 F2700 E123.01649
G1 F2250 X66.158 Y66.158 E134.39566
G1 F2700 E129.39566
G1 F300 Z0.44
G0 F15000 X67.492 Y65.229 Z0.44
G1 F300 Z0.24
G1 F2700 E134.39566
G1 F2250 X169.462 Y167.199 E145.90692
G1 F2700 E140.90692
G1 F300 Z0.44
G0 F15000 X171.725 Y167.199 Z0.44
G1 F300 Z0.24
G1 F2700 E145.90692
G1 F2250 X68.5 Y63.975 E157.55979
G1 F2700 E152.55979
G1 F300 Z0.44
G0 F15000 X69.155 Y62.366 Z0.44
G1 F300 Z0.24
G1 F2700 E157.55979
G1 F2250 X173.987 Y167.199 E169.39419
G1 F2700 E164.39419
G1 F300 Z0.44
G0 F15000 X176.249 Y167.198 Z0.44
G1 F300 Z0.24
G1 F2700 E169.39419
G1 F2250 X69.435 Y60.384 E181.45228
G1 F2700 E176.45228
G1 F300 Z0.44
G0 F15000 X70.041 Y58.728 Z0.44
G1 F300 Z0.24
G1 F2700 E181.45228
G1 F2250 X178.512 Y167.198 E193.69737
G1 F2700 E188.69737
G1 F300 Z0.44
G0 F15000 X180.575 Y166.999 Z0.44
G1 F300 Z0.24
G1 F2700 E193.69737
G1 F2250 X70.984 Y57.407 E206.069
G1 F2700 E201.069
G1 F300 Z0.44
G0 F15000 X72.232 Y56.393 Z0.44
G1 F300 Z0.24
G1 F2700 E206.069
G1 F2250 X182.18 Y166.341 E218.48088
G1 F2700 E213.48088
G1 F300 Z0.44
G0 F15000 X183.452 Y165.35 Z0.44
G1 F300 Z0.24
G1 F2700 E218.48088
G1 F2250 X73.797 Y55.695 E230.85969
G1 F2700 E225.85969
G1 F300 Z0.44
G0 F15000 X75.816 Y55.452 Z0.44
G1 F300 Z0.24
G1 F2700 E230.85969
G1 F2250 X184.43 Y164.065 E243.12092
G1 F2700 E238.12092
G1 F300 Z0.44
G0 F15000 X185.071 Y162.444 Z0.44
G1 F300 Z0.24
G1 F2700 E243.12092
G1 F2250 X78.079 Y55.452 E255.1991
G1 F2700 E250.1991
G1 F300 Z0.44
G0 F15000 X80.342 Y55.452 Z0.44
G1 F300 Z0.24
G1 F2700 E255.1991
G1 F2250 X185.247 Y160.357 E267.04168
G1 F2700 E262.04168
G1 F300 Z0.44
G0 F15000 X185.247 Y158.094 Z0.44
G1 F300 Z0.24
G1 F2700 E267.04168
G1 F2250 X82.604 Y55.452 E278.62885
G1 F2700 E273.62885
G1 F300 Z0.44
G0 F15000 X84.867 Y55.452 Z0.44
G1 F300 Z0.24
G1 F2700 E278.62885
G1 F2250 X185.247 Y155.832 E289.96062
G1 F2700 E284.96062
G1 F300 Z0.44
G0 F15000 X185.247 Y153.569 Z0.44
G1 F300 Z0.24
G1 F2700 E289.96062
G1 F2250 X87.13 Y55.452 E301.03691
G1 F2700 E296.03691
G1 F300 Z0.44
G0 F15000 X89.393 Y55.452 Z0.44
G1 F300 Z0.24
G1 F2700 E301.03691
G1 F2250 X185.247 Y151.306 E311.85774
G1 F2700 E306.85774
G1 F300 Z0.44
G0 F15000 X185.247 Y149.043 Z0.44
G1 F300 Z0.24
G1 F2700 E311.85774
G1 F2250 X91.655 Y55.452 E322.42316
G1 F2700 E317.42316
G1 F300 Z0.44
G0 F15000 X93.918 Y55.452 Z0.44
G1 F300 Z0.24
G1 F2700 E322.42316
G1 F2250 X185.247 Y146.781 E332.73316
G1 F2700 E327.73316
G1 F300 Z0.44
G0 F15000 X185.247 Y144.518 Z0.44
G1 F300 Z0.24
G1 F2700 E332.73316
G1 F2250 X96.181 Y55.452 E342.7877
G1 F2700 E337.7877
G1 F300 Z0.44
G0 F15000 X98.444 Y55.452 Z0.44
G1 F300 Z0.24
G1 F2700 E342.7877
G1 F2250 X185.247 Y142.255 E352.58678
G1 F2700 E347.58678
G1 F300 Z0.44
G0 F15000 X185.247 Y139.993 Z0.44
G1 F300 Z0.24
G1 F2700 E352.58678
G1 F2250 X100.706 Y55.452 E362.13049
G1 F2700 E357.13049
G1 F300 Z0.44
G0 F15000 X102.969 Y55.452 Z0.44
G1 F300 Z0.24
G1 F2700 E362.13049
G1 F2250 X185.247 Y137.73 E371.41875
G1 F2700 E366.41875
G1 F300 Z0.44
G0 F15000 X185.247 Y135.467 Z0.44
G1 F300 Z0.24
G1 F2700 E371.41875
G1 F2250 X105.233 Y55.452 E380.45147
G1 F2700 E375.45147
G1 F300 Z0.44
G0 F15000 X107.495 Y55.452 Z0.44
G1 F300 Z0.24
G1 F2700 E380.45147
G1 F2250 X185.247 Y133.204 E389.22879
G1 F2700 E384.22879
G1 F300 Z0.44
G0 F15000 X185.247 Y130.942 Z0.44
G1 F300 Z0.24
G1 F2700 E389.22879
G1 F2250 X109.758 Y55.452 E397.7507
G1 F2700 E392.7507
G1 F300 Z0.44
G0 F15000 X112.021 Y55.452 Z0.44
G1 F300 Z0.24
G1 F2700 E397.7507
G1 F2250 X185.247 Y128.679 E406.01714
G1 F2700 E401.01714
G1 F300 Z0.44
G0 F15000 X185.247 Y126.416 Z0.44
G1 F300 Z0.24
G1 F2700 E406.01714
G1 F2250 X114.284 Y55.452 E414.02811
G1 F2700 E409.02811
G1 F300 Z0.44
G0 F15000 X116.546 Y55.452 Z0.44
G1 F300 Z0.24
G1 F2700 E414.02811
G1 F2250 X185.247 Y124.153 E421.78367
G1 F2700 E416.78367
G1 F300 Z0.44
G0 F15000 X185.247 Y121.891 Z0.44
G1 F300 Z0.24
G1 F2700 E421.78367
G1 F2250 X118.809 Y55.452 E429.28383
G1 F2700 E424.28383
G1 F300 Z0.44
G0 F15000 X121.072 Y55.452 Z0.44
G1 F300 Z0.24
G1 F2700 E429.28383
G1 F2250 X185.247 Y119.628 E436.52851
G1 F2700 E431.52851
G1 F300 Z0.44
G0 F15000 X185.248 Y117.366 Z0.44
G1 F300 Z0.24
G1 F2700 E436.52851
G1 F2250 X123.334 Y55.452 E443.5179
G1 F2700 E438.5179
G1 F300 Z0.44
G0 F15000 X125.597 Y55.452 Z0.44
G1 F300 Z0.24
G1 F2700 E443.5179
G1 F2250 X185.248 Y115.103 E450.25182
G1 F2700 E445.25182
G1 F300 Z0.44
G0 F15000 X185.248 Y112.84 Z0.44
G1 F300 Z0.24
G1 F2700 E450.25182
G1 F2250 X127.86 Y55.452 E456.73027
G1 F2700 E451.73027
G1 F300 Z0.44
G0 F15000 X130.123 Y55.452 Z0.44
G1 F300 Z0.24
G1 F2700 E456.73027
G1 F2250 X185.248 Y110.578 E462.95332
G1 F2700 E457.95332
G1 F300 Z0.44
G0 F15000 X185.248 Y108.315 Z0.44
G1 F300 Z0.24
G1 F2700 E462.95332
G1 F2250 X132.386 Y55.453 E468.92083
G1 F2700 E463.92083
G1 F300 Z0.44
G0 F15000 X134.649 Y55.453 Z0.44
G1 F300 Z0.24
G1 F2700 E468.92083
G1 F2250 X185.248 Y106.052 E474.63289
G1 F2700 E469.63289
G1 F300 Z0.44
G0 F15000 X185.248 Y103.789 Z0.44
G1 F300 Z0.24
G1 F2700 E474.63289
G1 F2250 X136.912 Y55.453 E480.08947
G1 F2700 E475.08947
G1 F300 Z0.44
G0 F15000 X139.174 Y55.453 Z0.44
G1 F300 Z0.24
G1 F2700 E480.08947
G1 F2250 X185.248 Y101.527 E485.2907
G1 F2700 E480.2907
G1 F300 Z0.44
G0 F15000 X185.248 Y99.264 Z0.44
G1 F300 Z0.24
G1 F2700 E485.2907
G1 F2250 X141.437 Y55.453 E490.23647
