;FLAVOR:Marlin
;TIME:9398
;Filament used: 20.7481m
;Layer height: 0.4
;MINX:45.4
;MINY:80.401
;MINZ:0.24
;MAXX:189.599
;MAXY:154.6
;MAXZ:11.39
;Generated with Cura_SteamEngine 5.3.1
M140 S60
M105
M190 S60
M104 S200
M105
M109 S200
M82 ;absolute extrusion mode
; Ender 3 Custom Start G-code
G92 E0 ; Reset Extruder
G28 ; Home all axes
G1 Z2.0 F3000 ; Move Z Axis up little to prevent scratching of Heat Bed
G1 X0.1 Y20 Z0.3 F5000.0 ; Move to start position
G1 X0.1 Y200.0 Z0.3 F1500.0 E15 ; Draw the first line
G1 X0.4 Y200.0 Z0.3 F5000.0 ; Move to side a little
G1 X0.4 Y20 Z0.3 F1500.0 E30 ; Draw the second line
G92 E0 ; Reset Extruder
G1 Z2.0 F3000 ; Move Z Axis up little to prevent scratching of Heat Bed
G1 X5 Y20 Z0.3 F5000.0 ; Move over to prevent blob squish
G92 E0
G92 E0
G1 F2700 E-5
;LAYER_COUNT:26
;LAYER:-5
M107
G0 F15000 X47.801 Y80.963 Z0.24
;TYPE:SUPPORT-INTERFACE
G1 F2700 E0
G1 F2250 X48.216 Y80.77 E0.03653
G1 X48.487 Y80.665 E0.05973
G1 X48.865 Y80.545 E0.09139
G1 X49.369 Y80.459 E0.1322
G1 X50.024 Y80.401 E0.18469
G1 X115.043 Y80.404 E5.37479
G1 X115.432 Y80.43 E5.40591
G1 X115.735 Y80.468 E5.43029
G1 X116 Y80.519 E5.45183
G1 X116.137 Y80.555 E5.46314
G1 X116.825 Y80.687 E5.51906
G1 X117.466 Y80.728 E5.57033
G1 X118.159 Y80.688 E5.62574
G1 X118.776 Y80.575 E5.67581
G1 X118.997 Y80.522 E5.69395
G1 X119.369 Y80.459 E5.72407
G1 X120.024 Y80.401 E5.77656
G1 X185.043 Y80.404 E10.96666
G1 X185.432 Y80.43 E10.99778
G1 X185.735 Y80.468 E11.02215
G1 X185.996 Y80.518 E11.04337
G1 X186.3 Y80.597 E11.06844
G1 X186.57 Y80.686 E11.09113
G1 X186.825 Y80.787 E11.11303
G1 X187.115 Y80.924 E11.13863
G1 X187.338 Y81.047 E11.15896
G1 X187.583 Y81.204 E11.18219
G1 X187.844 Y81.395 E11.208
G1 X188.042 Y81.561 E11.22863
G1 X188.256 Y81.762 E11.25206
G1 X188.456 Y81.977 E11.2755
G1 X188.651 Y82.215 E11.30006
G1 X188.805 Y82.43 E11.32118
G1 X189.037 Y82.801 E11.3561
G1 X189.23 Y83.216 E11.39264
G1 X189.335 Y83.488 E11.41591
G1 X189.455 Y83.865 E11.44749
G1 X189.541 Y84.369 E11.48831
G1 X189.599 Y85.023 E11.54072
G1 X189.596 Y150.045 E16.73105
G1 X189.572 Y150.419 E16.76097
G1 X189.532 Y150.735 E16.78639
G1 X189.482 Y150.996 E16.80761
G1 X189.405 Y151.295 E16.83225
G1 X189.314 Y151.57 E16.85538
G1 X189.213 Y151.825 E16.87727
G1 X189.076 Y152.115 E16.90287
G1 X188.953 Y152.337 E16.92313
G1 X188.79 Y152.592 E16.94729
G1 X188.617 Y152.829 E16.97071
G1 X188.437 Y153.044 E16.9931
G1 X188.238 Y153.256 E17.01631
G1 X188.022 Y153.456 E17.0398
G1 X187.787 Y153.649 E17.06408
G1 X187.564 Y153.808 E17.08594
G1 X187.301 Y153.973 E17.11072
G1 X187.068 Y154.098 E17.13183
G1 X186.786 Y154.229 E17.15665
G1 X186.512 Y154.335 E17.1801
G1 X186.136 Y154.455 E17.21161
G1 X185.631 Y154.541 E17.2525
G1 X184.976 Y154.6 E17.305
G1 X119.957 Y154.596 E22.49509
G1 X119.568 Y154.57 E22.52621
G1 X119.265 Y154.532 E22.55059
G1 X119 Y154.481 E22.57213
G1 X118.863 Y154.445 E22.58344
G1 X118.175 Y154.313 E22.63936
G1 X117.534 Y154.272 E22.69063
G1 X116.841 Y154.312 E22.74604
G1 X116.224 Y154.425 E22.79611
G1 X116.003 Y154.479 E22.81427
G1 X115.631 Y154.541 E22.84438
G1 X114.976 Y154.6 E22.89687
G1 X49.957 Y154.596 E28.08697
G1 X49.568 Y154.57 E28.11809
G1 X49.265 Y154.532 E28.14247
G1 X49.004 Y154.482 E28.16368
G1 X48.7 Y154.403 E28.18876
G1 X48.43 Y154.314 E28.21145
G1 X48.175 Y154.213 E28.23334
G1 X47.885 Y154.076 E28.25894
G1 X47.662 Y153.953 E28.27927
G1 X47.411 Y153.792 E28.30308
G1 X47.156 Y153.605 E28.32832
G1 X46.958 Y153.438 E28.349
G1 X46.735 Y153.226 E28.37356
G1 X46.53 Y153.006 E28.39756
G1 X46.35 Y152.786 E28.42025
G1 X46.183 Y152.552 E28.4432
G1 X45.962 Y152.197 E28.47658
G1 X45.769 Y151.782 E28.51311
G1 X45.665 Y151.514 E28.53606
G1 X45.545 Y151.135 E28.56779
G1 X45.459 Y150.631 E28.60861
G1 X45.4 Y149.977 E28.66102
G1 X45.405 Y84.955 E33.85136
G1 X45.428 Y84.581 E33.88127
G1 X45.468 Y84.263 E33.90686
G1 X45.518 Y84.004 E33.92791
G1 X45.595 Y83.705 E33.95256
G1 X45.686 Y83.43 E33.97568
G1 X45.787 Y83.175 E33.99757
G1 X45.924 Y82.885 E34.02318
G1 X46.047 Y82.662 E34.04351
G1 X46.204 Y82.417 E34.06673
G1 X46.395 Y82.156 E34.09255
G1 X46.561 Y81.958 E34.11318
G1 X46.762 Y81.744 E34.13661
G1 X46.977 Y81.544 E34.16005
G1 X47.215 Y81.349 E34.18461
G1 X47.435 Y81.192 E34.20619
G1 X47.801 Y80.963 E34.24065
G0 F15000 X47.612 Y81.553
G1 F2250 X120.254 Y154.195 E42.44111
G1 F2700 E37.44111
G1 F300 Z0.44
G0 F15000 X122.516 Y154.195 Z0.44
G1 F300 Z0.24
G1 F2700 E42.44111
G1 F2250 X49.212 Y80.89 E50.71635
G1 F2700 E45.71635
G1 F300 Z0.44
G0 F15000 X51.384 Y80.8 Z0.44
G1 F300 Z0.24
G1 F2700 E50.71635
G1 F2250 X124.779 Y154.195 E59.00181
G1 F2700 E54.00181
G1 F300 Z0.44
G0 F15000 X127.042 Y154.195 Z0.44
G1 F300 Z0.24
G1 F2700 E59.00181
G1 F2250 X53.647 Y80.8 E67.28727
G1 F2700 E62.28727
G1 F300 Z0.44
G0 F15000 X55.91 Y80.8 Z0.44
G1 F300 Z0.24
G1 F2700 E67.28727
G1 F2250 X129.305 Y154.195 E75.57274
G1 F2700 E70.57274
G1 F300 Z0.44
G0 F15000 X131.568 Y154.195 Z0.44
G1 F300 Z0.24
G1 F2700 E75.57274
G1 F2250 X58.172 Y80.8 E83.85826
G1 F2700 E78.85826
G1 F300 Z0.44
G0 F15000 X60.435 Y80.8 Z0.44
G1 F300 Z0.24
G1 F2700 E83.85826
G1 F2250 X133.831 Y154.195 E92.14377
G1 F2700 E87.14377
G1 F300 Z0.44
G0 F15000 X136.094 Y154.195 Z0.44
G1 F300 Z0.24
G1 F2700 E92.14377
G1 F2250 X62.699 Y80.801 E100.42918
G1 F2700 E95.42918
G1 F300 Z0.44
G0 F15000 X64.961 Y80.801 Z0.44
G1 F300 Z0.24
G1 F2700 E100.42918
G1 F2250 X138.356 Y154.195 E108.71458
G1 F2700 E103.71458
G1 F300 Z0.44
G0 F15000 X140.619 Y154.195 Z0.44
G1 F300 Z0.24
G1 F2700 E108.71458
G1 F2250 X67.224 Y80.801 E116.99999
G1 F2700 E111.99999
G1 F300 Z0.44
G0 F15000 X69.487 Y80.801 Z0.44
G1 F300 Z0.24
G1 F2700 E116.99999
G1 F2250 X142.882 Y154.196 E125.28545
G1 F2700 E120.28545
G1 F300 Z0.44
G0 F15000 X145.145 Y154.196 Z0.44
G1 F300 Z0.24
G1 F2700 E125.28545
G1 F2250 X71.75 Y80.801 E133.57091
G1 F2700 E128.57091
G1 F300 Z0.44
G0 F15000 X74.013 Y80.801 Z0.44
G1 F300 Z0.24
G1 F2700 E133.57091
G1 F2250 X147.408 Y154.196 E141.85638
G1 F2700 E136.85638
G1 F300 Z0.44
G0 F15000 X149.671 Y154.196 Z0.44
G1 F300 Z0.24
G1 F2700 E141.85638
G1 F2250 X76.276 Y80.801 E150.14184
G1 F2700 E145.14184
G1 F300 Z0.44
G0 F15000 X78.539 Y80.801 Z0.44
G1 F300 Z0.24
G1 F2700 E150.14184
G1 F2250 X151.933 Y154.196 E158.42724
G1 F2700 E153.42724
G1 F300 Z0.44
G0 F15000 X154.197 Y154.197 Z0.44
G1 F300 Z0.24
G1 F2700 E158.42724
G1 F2250 X80.801 Y80.801 E166.71282
G1 F2700 E161.71282
G1 F300 Z0.44
G0 F15000 X83.065 Y80.802 Z0.44
G1 F300 Z0.24
G1 F2700 E166.71282
G1 F2250 X156.46 Y154.197 E174.99828
G1 F2700 E169.99828
G1 F300 Z0.44
G0 F15000 X158.722 Y154.197 Z0.44
G1 F300 Z0.24
G1 F2700 E174.99828
G1 F2250 X85.327 Y80.802 E183.28374
G1 F2700 E178.28374
G1 F300 Z0.44
G0 F15000 X87.59 Y80.802 Z0.44
G1 F300 Z0.24
G1 F2700 E183.28374
G1 F2250 X160.985 Y154.197 E191.5692
G1 F2700 E186.5692
G1 F300 Z0.44
G0 F15000 X163.248 Y154.197 Z0.44
G1 F300 Z0.24
G1 F2700 E191.5692
G1 F2250 X89.853 Y80.802 E199.85466
G1 F2700 E194.85466
G1 F300 Z0.44
G0 F15000 X92.116 Y80.802 Z0.44
G1 F300 Z0.24
G1 F2700 E199.85466
G1 F2250 X165.511 Y154.198 E208.14018
G1 F2700 E203.14018
G1 F300 Z0.44
G0 F15000 X167.774 Y154.198 Z0.44
G1 F300 Z0.24
G1 F2700 E208.14018
G1 F2250 X94.379 Y80.803 E216.42564
G1 F2700 E211.42564
G1 F300 Z0.44
G0 F15000 X96.642 Y80.803 Z0.44
G1 F300 Z0.24
G1 F2700 E216.42564
G1 F2250 X170.037 Y154.198 E224.71111
G1 F2700 E219.71111
G1 F300 Z0.44
G0 F15000 X172.3 Y154.198 Z0.44
G1 F300 Z0.24
G1 F2700 E224.71111
G1 F2250 X98.905 Y80.803 E232.99657
G1 F2700 E227.99657
G1 F300 Z0.44
G0 F15000 X101.167 Y80.803 Z0.44
G1 F300 Z0.24
G1 F2700 E232.99657
G1 F2250 X174.563 Y154.198 E241.28209
G1 F2700 E236.28209
G1 F300 Z0.44
G0 F15000 X176.826 Y154.198 Z0.44
G1 F300 Z0.24
G1 F2700 E241.28209
G1 F2250 X103.43 Y80.803 E249.56761
G1 F2700 E244.56761
G1 F300 Z0.44
G0 F15000 X105.694 Y80.803 Z0.44
G1 F300 Z0.24
G1 F2700 E249.56761
G1 F2250 X179.088 Y154.198 E257.85301
G1 F2700 E252.85301
G1 F300 Z0.44
G0 F15000 X181.351 Y154.198 Z0.44
G1 F300 Z0.24
G1 F2700 E257.85301
G1 F2250 X107.956 Y80.803 E266.13847
G1 F2700 E261.13847
G1 F300 Z0.44
G0 F15000 X110.219 Y80.803 Z0.44
G1 F300 Z0.24
G1 F2700 E266.13847
G1 F2250 X183.614 Y154.198 E274.42393
G1 F2700 E269.42393
G1 F300 Z0.44
G0 F15000 X185.787 Y154.108 Z0.44
G1 F300 Z0.24
G1 F2700 E274.42393
G1 F2250 X112.482 Y80.803 E282.69924
G1 F2700 E277.69924
G1 F300 Z0.44
G0 F15000 X114.745 Y80.803 Z0.44
G1 F300 Z0.24
G1 F2700 E282.69924
G1 F2250 X187.387 Y153.446 E290.89975
G1 F2700 E285.89975
G1 F300 Z0.44
G0 F15000 X188.501 Y152.298 Z0.44
G1 F300 Z0.24
G1 F2700 E290.89975
G1 F2250 X117.319 Y81.115 E298.93545
G1 F2700 E293.93545
G1 F300 Z0.44
G0 F15000 X119.336 Y80.87 Z0.44
G1 F300 Z0.24
G1 F2700 E298.93545
G1 F2250 X189.136 Y150.67 E306.81507
G1 F2700 E301.81507
G1 F300 Z0.44
G0 F15000 X189.196 Y148.466 Z0.44
G1 F300 Z0.24
G1 F2700 E306.81507
G1 F2250 X121.531 Y80.801 E314.45368
G1 F2700 E309.45368
G1 F300 Z0.44
G0 F15000 X123.793 Y80.801 Z0.44
G1 F300 Z0.24
G1 F2700 E314.45368
G1 F2250 X189.196 Y146.204 E321.83694
G1 F2700 E316.83694
G1 F300 Z0.44
G0 F15000 X189.196 Y143.941 Z0.44
G1 F300 Z0.24
G1 F2700 E321.83694
G1 F2250 X126.056 Y80.801 E328.96473
G1 F2700 E323.96473
G1 F300 Z0.44
G0 F15000 X128.319 Y80.801 Z0.44
G1 F300 Z0.24
G1 F2700 E328.96473
G1 F2250 X189.196 Y141.678 E335.83705
G1 F2700 E330.83705
G1 F300 Z0.44
G0 F15000 X189.196 Y139.416 Z0.44
G1 F300 Z0.24
G1 F2700 E335.83705
G1 F2250 X130.582 Y80.801 E342.45396
G1 F2700 E337.45396
G1 F300 Z0.44
G0 F15000 X132.844 Y80.801 Z0.44
G1 F300 Z0.24
G1 F2700 E342.45396
G1 F2250 X189.196 Y137.153 E348.81546
G1 F2700 E343.81546
G1 F300 Z0.44
G0 F15000 X189.196 Y134.89 Z0.44
G1 F300 Z0.24
G1 F2700 E348.81546
G1 F2250 X135.108 Y80.802 E354.92138
G1 F2700 E349.92138
G1 F300 Z0.44
G0 F15000 X137.371 Y80.802 Z0.44
G1 F300 Z0.24
G1 F2700 E354.92138
G1 F2250 X189.196 Y132.627 E360.77184
G1 F2700 E355.77184
G1 F300 Z0.44
G0 F15000 X189.196 Y130.365 Z0.44
G1 F300 Z0.24
G1 F2700 E360.77184
G1 F2250 X139.633 Y80.802 E366.36694
G1 F2700 E361.36694
G1 F300 Z0.44
G0 F15000 X141.896 Y80.802 Z0.44
G1 F300 Z0.24
G1 F2700 E366.36694
G1 F2250 X189.197 Y128.103 E371.70668
G1 F2700 E366.70668
G1 F300 Z0.44
G0 F15000 X189.197 Y125.84 Z0.44
G1 F300 Z0.24
G1 F2700 E371.70668
G1 F2250 X144.159 Y80.802 E376.79096
G1 F2700 E371.79096
G1 F300 Z0.44
G0 F15000 X146.422 Y80.803 Z0.44
G1 F300 Z0.24
G1 F2700 E376.79096
G1 F2250 X189.197 Y123.577 E381.61971
G1 F2700 E376.61971
G1 F300 Z0.44
G0 F15000 X189.197 Y121.314 Z0.44
G1 F300 Z0.24
G1 F2700 E381.61971
G1 F2250 X148.685 Y80.803 E386.193
G1 F2700 E381.193
G1 F300 Z0.44
G0 F15000 X150.948 Y80.803 Z0.44
G1 F300 Z0.24
G1 F2700 E386.193
G1 F2250 X189.197 Y119.052 E390.51088
G1 F2700 E385.51088
G1 F300 Z0.44
G0 F15000 X189.197 Y116.789 Z0.44
G1 F300 Z0.24
G1 F2700 E390.51088
G1 F2250 X153.21 Y80.803 E394.57335
G1 F2700 E389.57335
G1 F300 Z0.44
G0 F15000 X155.473 Y80.803 Z0.44
G1 F300 Z0.24
G1 F2700 E394.57335
G1 F2250 X189.197 Y114.526 E398.38035
G1 F2700 E393.38035
G1 F300 Z0.44
G0 F15000 X189.197 Y112.263 Z0.44
G1 F300 Z0.24
G1 F2700 E398.38035
G1 F2250 X157.736 Y80.803 E401.93188
G1 F2700 E396.93188
G1 F300 Z0.44
G0 F15000 X159.999 Y80.803 Z0.44
G1 F300 Z0.24
G1 F2700 E401.93188
G1 F2250 X189.197 Y110.001 E405.228
G1 F2700 E400.228
G1 F300 Z0.44
G0 F15000 X189.197 Y107.738 Z0.44
G1 F300 Z0.24
G1 F2700 E405.228
G1 F2250 X162.262 Y80.803 E408.26866
G1 F2700 E403.26866
G1 F300 Z0.44
G0 F15000 X164.525 Y80.803 Z0.44
G1 F300 Z0.24
G1 F2700 E408.26866
G1 F2250 X189.197 Y105.476 E411.0539
G1 F2700 E406.0539
G1 F300 Z0.44
G0 F15000 X189.197 Y103.213 Z0.44
G1 F300 Z0.24
G1 F2700 E411.0539
G1 F2250 X166.788 Y80.803 E413.58368
G1 F2700 E408.58368
G1 F300 Z0.44
G0 F15000 X169.05 Y80.803 Z0.44
G1 F300 Z0.24
G1 F2700 E413.58368
G1 F2250 X189.197 Y100.95 E415.85805
G1 F2700 E410.85805
G1 F300 Z0.44
G0 F15000 X189.197 Y98.688 Z0.44
G1 F300 Z0.24
G1 F2700 E415.85805
G1 F2250 X171.313 Y80.803 E417.87701
G1 F2700 E412.87701
G1 F300 Z0.44
G0 F15000 X173.577 Y80.804 Z0.44
G1 F300 Z0.24
G1 F2700 E417.87701
G1 F2250 X189.197 Y96.425 E419.64038
G1 F2700 E414.64038
G1 F300 Z0.44
G0 F15000 X189.197 Y94.162 Z0.44
G1 F300 Z0.24
G1 F2700 E419.64038
G1 F2250 X175.839 Y80.804 E421.14835
G1 F2700 E416.14835
G1 F300 Z0.44
G0 F15000 X178.102 Y80.804 Z0.44
G1 F300 Z0.24
G1 F2700 E421.14835
G1 F2250 X189.197 Y91.899 E422.40085
G1 F2700 E417.40085
G1 F300 Z0.44
G0 F15000 X189.197 Y89.637 Z0.44
G1 F300 Z0.24
G1 F2700 E422.40085
G1 F2250 X180.365 Y80.804 E423.39794
G1 F2700 E418.39794
G1 F300 Z0.44
G0 F15000 X182.628 Y80.804 Z0.44
G1 F300 Z0.24
G1 F2700 E423.39794
G1 F2250 X189.197 Y87.374 E424.13956
G1 F2700 E419.13956
G1 F300 Z0.44
G0 F15000 X189.197 Y85.111 Z0.44
G1 F300 Z0.24
G1 F2700 E424.13956
G1 F2250 X184.89 Y80.804 E424.62577
G1 F2700 E419.62577
G1 F300 Z0.44
G0 F15000 X117.679 Y153.883 Z0.44
G1 F300 Z0.24
G1 F2700 E424.62577
G1 F2250 X46.496 Y82.7 E432.66152
G1 F2700 E427.66152
G1 F300 Z0.44
G0 F15000 X45.862 Y84.328 Z0.44
G1 F300 Z0.24
G1 F2700 E432.66152
G1 F2250 X115.662 Y154.128 E440.54115
G1 F2700 E435.54115
G1 F300 Z0.44
G0 F15000 X113.469 Y154.198 Z0.44
G1 F300 Z0.24
G1 F2700 E440.54115
G1 F2250 X45.804 Y86.533 E448.17976
G1 F2700 E443.17976
G1 F300 Z0.44
G0 F15000 X45.804 Y88.796 Z0.44
G1 F300 Z0.24
G1 F2700 E448.17976
G1 F2250 X111.206 Y154.198 E455.5629
G1 F2700 E450.5629
G1 F300 Z0.44
G0 F15000 X108.943 Y154.198 Z0.44
G1 F300 Z0.24
G1 F2700 E455.5629
G1 F2250 X45.804 Y91.059 E462.69058
G1 F2700 E457.69058
G1 F300 Z0.44
G0 F15000 X45.804 Y93.321 Z0.44
G1 F300 Z0.24
G1 F2700 E462.69058
G1 F2250 X106.681 Y154.198 E469.5629
G1 F2700 E464.5629
G1 F300 Z0.44
G0 F15000 X104.418 Y154.198 Z0.44
G1 F300 Z0.24
G1 F2700 E469.5629
G1 F2250 X45.803 Y95.583 E476.17987
G1 F2700 E471.17987
G1 F300 Z0.44
G0 F15000 X45.803 Y97.846 Z0.44
G1 F300 Z0.24
G1 F2700 E476.17987
G1 F2250 X102.155 Y154.198 E482.54137
G1 F2700 E477.54137
G1 F300 Z0.44
G0 F15000 X99.892 Y154.198 Z0.44
G1 F300 Z0.24
G1 F2700 E482.54137
G1 F2250 X45.803 Y100.109 E488.6474
G1 F2700 E483.6474
G1 F300 Z0.44
G0 F15000 X45.803 Y102.372 Z0.44
G1 F300 Z0.24
G1 F2700 E488.6474
G1 F2250 X97.629 Y154.198 E494.49797
G1 F2700 E489.49797
G1 F300 Z0.44
G0 F15000 X95.366 Y154.198 Z0.44
G1 F300 Z0.24
G1 F2700 E494.49797
G1 F2250 X45.802 Y104.634 E500.09318
G1 F2700 E495.09318
G1 F300 Z0.44
G0 F15000 X45.802 Y106.896 Z0.44
G1 F300 Z0.24
G1 F2700 E500.09318
G1 F2250 X93.103 Y154.197 E505.43293
G1 F2700 E500.43293
G1 F300 Z0.44
G0 F15000 X90.84 Y154.197 Z0.44
G1 F300 Z0.24
G1 F2700 E505.43293
G1 F2250 X45.802 Y109.159 E510.51721
G1 F2700 E505.51721
G1 F300 Z0.44
G0 F15000 X45.802 Y111.422 Z0.44
G1 F300 Z0.24
G1 F2700 E510.51721
G1 F2250 X88.577 Y154.197 E515.34602
G1 F2700 E510.34602
G1 F300 Z0.44
G0 F15000 X86.315 Y154.197 Z0.44
G1 F300 Z0.24
G1 F2700 E515.34602
G1 F2250 X45.802 Y113.684 E519.91948
G1 F2700 E514.91948
G1 F300 Z0.44
G0 F15000 X45.802 Y115.947 Z0.44
G1 F300 Z0.24
G1 F2700 E519.91948
G1 F2250 X84.052 Y154.197 E524.23747
G1 F2700 E519.23747
G1 F300 Z0.44
G0 F15000 X81.788 Y154.196 Z0.44
G1 F300 Z0.24
G1 F2700 E524.23747
G1 F2250 X45.802 Y118.209 E528.29993
G1 F2700 E523.29993
G1 F300 Z0.44
G0 F15000 X45.802 Y120.472 Z0.44
G1 F300 Z0.24
G1 F2700 E528.29993
G1 F2250 X79.526 Y154.196 E532.10699
G1 F2700 E527.10699
G1 F300 Z0.44
G0 F15000 X77.263 Y154.196 Z0.44
G1 F300 Z0.24
G1 F2700 E532.10699
G1 F2250 X45.801 Y122.734 E535.65869
G1 F2700 E530.65869
G1 F300 Z0.44
G0 F15000 X45.801 Y124.997 Z0.44
G1 F300 Z0.24
G1 F2700 E535.65869
G1 F2250 X75 Y154.196 E538.95493
G1 F2700 E533.95493
G1 F300 Z0.44
G0 F15000 X72.737 Y154.196 Z0.44
G1 F300 Z0.24
G1 F2700 E538.95493
G1 F2250 X45.801 Y127.26 E541.9957
G1 F2700 E536.9957
G1 F300 Z0.44
G0 F15000 X45.801 Y129.522 Z0.44
G1 F300 Z0.24
G1 F2700 E541.9957
G1 F2250 X70.474 Y154.195 E544.781
G1 F2700 E539.781
G1 F300 Z0.44
G0 F15000 X68.211 Y154.195 Z0.44
G1 F300 Z0.24
G1 F2700 E544.781
G1 F2250 X45.8 Y131.784 E547.31095
G1 F2700 E542.31095
G1 F300 Z0.44
G0 F15000 X45.8 Y134.047 Z0.44
G1 F300 Z0.24
G1 F2700 E547.31095
G1 F2250 X65.949 Y154.195 E549.58548
G1 F2700 E544.58548
