;FLAVOR:Marlin
;TIME:2951
;Filament used: 5.60681m
;Layer height: 0.4
;MINX:76.052
;MINY:96.052
;MINZ:0.24
;MAXX:158.948
;MAXY:138.948
;MAXZ:26.59
;Generated with Cura_SteamEngine 5.3.1
M140 S60
M105
M190 S60
M104 S200
M105
M109 S200
M82 ;absolute extrusion mode
; Ender 3 Custom Start G-code
G92 E0 ; Reset Extruder
G28 ; Home all axes
G1 Z2.0 F3000 ; Move Z Axis up little to prevent scratching of Heat Bed
G1 X0.1 Y20 Z0.3 F5000.0 ; Move to start position
G1 X0.1 Y200.0 Z0.3 F1500.0 E15 ; Draw the first line
G1 X0.4 Y200.0 Z0.3 F5000.0 ; Move to side a little
G1 X0.4 Y20 Z0.3 F1500.0 E30 ; Draw the second line
G92 E0 ; Reset Extruder
G1 Z2.0 F3000 ; Move Z Axis up little to prevent scratching of Heat Bed
G1 X5 Y20 Z0.3 F5000.0 ; Move over to prevent blob squish
G92 E0
G92 E0
G1 F2700 E-5
;LAYER_COUNT:63
;LAYER:-5
M107
G0 F15000 X127.881 Y115.921 Z0.24
;TYPE:SUPPORT-INTERFACE
G1 F2700 E0
G1 F2250 X127.812 Y116.442 E0.04195
G1 X127.769 Y116.955 E0.08305
G1 X127.752 Y117.531 E0.12904
G1 X127.758 Y117.889 E0.15763
G1 X127.797 Y118.432 E0.20108
G1 X127.831 Y118.742 E0.22598
G1 X127.888 Y119.126 E0.25696
G1 X128.032 Y119.85 E0.31589
G1 X128.273 Y120.665 E0.38373
G1 X128.424 Y121.056 E0.41719
G1 X128.618 Y121.514 E0.45689
G1 X128.833 Y121.966 E0.49685
G1 X129.093 Y122.439 E0.53993
G1 X129.427 Y122.964 E0.5896
G1 X129.585 Y123.192 E0.61174
G1 X129.96 Y123.679 E0.66081
G1 X130.299 Y124.07 E0.70212
G1 X130.533 Y124.32 E0.72945
G1 X130.794 Y124.574 E0.75852
G1 X131.125 Y124.874 E0.79418
G1 X131.407 Y125.108 E0.82343
G1 X131.816 Y125.419 E0.86445
G1 X132.079 Y125.603 E0.89007
G1 X132.418 Y125.819 E0.92216
G1 X132.713 Y125.994 E0.94954
G1 X133.152 Y126.228 E0.98925
G1 X133.459 Y126.372 E1.01631
G1 X133.853 Y126.543 E1.0506
G1 X134.411 Y126.746 E1.098
G1 X134.72 Y126.842 E1.12383
G1 X135.27 Y126.99 E1.16929
G1 X135.549 Y127.052 E1.1921
G1 X136.154 Y127.154 E1.24108
G1 X136.443 Y127.188 E1.26431
G1 X136.955 Y127.231 E1.30532
G1 X137.524 Y127.248 E1.35076
G1 X137.906 Y127.243 E1.38126
G1 X138.221 Y127.224 E1.40645
G1 X138.759 Y127.167 E1.44963
G1 X139.116 Y127.117 E1.47841
G1 X139.703 Y126.989 E1.52637
G1 X139.716 Y126.998 E1.52763
G1 X140.218 Y126.862 E1.56915
G1 X140.616 Y126.737 E1.60245
G1 X141.047 Y126.58 E1.63906
G1 X141.537 Y126.372 E1.68155
G1 X141.811 Y126.244 E1.7057
G1 X142.154 Y126.067 E1.73651
G1 X142.45 Y125.9 E1.76363
G1 X142.884 Y125.63 E1.80444
G1 X143.197 Y125.41 E1.83497
G1 X143.747 Y124.988 E1.89031
G1 X144.254 Y124.535 E1.94458
G1 X144.725 Y124.047 E1.99872
G1 X145.101 Y123.602 E2.04523
G1 X145.429 Y123.172 E2.0884
G1 X145.715 Y122.748 E2.12922
G1 X146.024 Y122.236 E2.17696
G1 X146.286 Y121.727 E2.22266
G1 X146.521 Y121.198 E2.26886
G1 X146.747 Y120.585 E2.32101
G1 X146.853 Y120.246 E2.34937
G1 X146.988 Y119.737 E2.3914
G1 X147.052 Y119.45 E2.41487
G1 X147.157 Y118.829 E2.46515
G1 X147.189 Y118.552 E2.48741
G1 X147.231 Y118.045 E2.52802
G1 X147.249 Y117.463 E2.5745
G1 X147.242 Y117.09 E2.60428
G1 X147.189 Y116.49 E2.65236
G1 X147.2 Y116.477 E2.65372
G1 X147.12 Y115.903 E2.69998
G1 X146.989 Y115.297 E2.74947
G1 X146.998 Y115.284 E2.75073
G1 X146.862 Y114.782 E2.79225
G1 X146.735 Y114.376 E2.82621
G1 X146.583 Y113.962 E2.86141
G1 X146.372 Y113.463 E2.90466
G1 X146.156 Y113.013 E2.9445
G1 X145.95 Y112.637 E2.97873
G1 X145.639 Y112.132 E3.02607
G1 X145.409 Y111.799 E3.05837
G1 X145.113 Y111.413 E3.0972
G1 X144.894 Y111.149 E3.12458
G1 X144.434 Y110.646 E3.17899
G1 X144.205 Y110.437 E3.20374
G1 X144.205 Y110.426 E3.20462
G1 X143.868 Y110.12 E3.24096
G1 X143.59 Y109.889 E3.26981
G1 X143.183 Y109.58 E3.3106
G1 X142.942 Y109.412 E3.33405
G1 X142.584 Y109.182 E3.36802
G1 X142.292 Y109.009 E3.39511
G1 X141.848 Y108.772 E3.43528
G1 X141.379 Y108.555 E3.47653
G1 X140.919 Y108.381 E3.51579
G1 X140.916 Y108.37 E3.5167
G1 X140.591 Y108.255 E3.54422
G1 X140.28 Y108.158 E3.57023
G1 X139.731 Y108.01 E3.61561
G1 X139.451 Y107.948 E3.63851
G1 X138.846 Y107.846 E3.68748
G1 X138.557 Y107.812 E3.71071
G1 X138.045 Y107.769 E3.75172
G1 X137.547 Y107.752 E3.7915
G1 X137.094 Y107.757 E3.82766
G1 X136.779 Y107.776 E3.85285
G1 X136.241 Y107.833 E3.89604
G1 X135.884 Y107.883 E3.92481
G1 X135.297 Y108.012 E3.97279
G1 X135.284 Y108.002 E3.9741
G1 X134.782 Y108.138 E4.01561
G1 X134.376 Y108.265 E4.04957
G1 X134.097 Y108.365 E4.07323
G1 X133.473 Y108.623 E4.12713
G1 X133.162 Y108.77 E4.15459
G1 X132.839 Y108.937 E4.18361
G1 X132.55 Y109.1 E4.2101
G1 X132.112 Y109.372 E4.25126
G1 X131.803 Y109.59 E4.28144
G1 X131.255 Y110.009 E4.33651
G1 X130.842 Y110.389 E4.38131
G1 X130.826 Y110.389 E4.38258
G1 X130.354 Y110.872 E4.43649
G1 X130.119 Y111.134 E4.46459
G1 X129.899 Y111.398 E4.49202
G1 X129.586 Y111.808 E4.53319
G1 X129.378 Y112.109 E4.5624
G1 X129.056 Y112.62 E4.61061
G1 X128.825 Y113.072 E4.65113
G1 X128.814 Y113.075 E4.65204
G1 X128.688 Y113.323 E4.67425
G1 X128.488 Y113.779 E4.71399
G1 X128.26 Y114.398 E4.76665
G1 X128.157 Y114.727 E4.79417
G1 X128.01 Y115.256 E4.838
G1 X127.881 Y115.921 E4.89207
G1 F2700 E-0.10793
G1 F300 Z0.44
G0 F15000 X91.255 Y110.009 Z0.44
G1 F300 Z0.24
G1 F2700 E4.89207
G1 F2250 X90.842 Y110.389 E4.93687
G1 X90.826 Y110.389 E4.93815
G1 X90.354 Y110.872 E4.99205
G1 X90.12 Y111.132 E5.01998
G1 X89.899 Y111.398 E5.04758
G1 X89.586 Y111.808 E5.08876
G1 X89.369 Y112.121 E5.11916
G1 X89.066 Y112.605 E5.16474
G1 X88.826 Y113.072 E5.20665
G1 X88.815 Y113.074 E5.20754
G1 X88.688 Y113.323 E5.22986
G1 X88.488 Y113.779 E5.2696
G1 X88.26 Y114.398 E5.32226
G1 X88.157 Y114.727 E5.34978
G1 X88.014 Y115.241 E5.39237
G1 X87.885 Y115.897 E5.44573
G1 X87.812 Y116.442 E5.48963
G1 X87.769 Y116.955 E5.53072
G1 X87.752 Y117.531 E5.57672
G1 X87.758 Y117.889 E5.6053
G1 X87.797 Y118.432 E5.64876
G1 X87.831 Y118.742 E5.67365
G1 X87.888 Y119.126 E5.70464
G1 X88.027 Y119.827 E5.76169
G1 X88.198 Y120.415 E5.81057
G1 X88.281 Y120.652 E5.83061
G1 X88.273 Y120.665 E5.83183
G1 X88.424 Y121.056 E5.86529
G1 X88.625 Y121.53 E5.90639
G1 X88.833 Y121.966 E5.94495
G1 X89.093 Y122.439 E5.98803
G1 X89.427 Y122.964 E6.0377
G1 X89.585 Y123.192 E6.05985
G1 X89.946 Y123.661 E6.10709
G1 X90.299 Y124.07 E6.15022
G1 X90.533 Y124.32 E6.17755
G1 X90.794 Y124.574 E6.20662
G1 X91.125 Y124.874 E6.24228
G1 X91.407 Y125.108 E6.27153
G1 X91.816 Y125.419 E6.31255
G1 X92.079 Y125.603 E6.33817
G1 X92.418 Y125.819 E6.37025
G1 X92.713 Y125.994 E6.39763
G1 X93.152 Y126.228 E6.43734
G1 X93.459 Y126.372 E6.46441
G1 X93.853 Y126.543 E6.4987
G1 X94.411 Y126.746 E6.5461
G1 X94.72 Y126.842 E6.57192
G1 X95.27 Y126.99 E6.61739
G1 X95.549 Y127.052 E6.6402
G1 X96.154 Y127.154 E6.68918
G1 X96.443 Y127.188 E6.71241
G1 X96.955 Y127.231 E6.75342
G1 X97.524 Y127.248 E6.79886
G1 X97.906 Y127.243 E6.82936
G1 X98.221 Y127.224 E6.85455
G1 X98.759 Y127.167 E6.89773
G1 X99.116 Y127.117 E6.92651
G1 X99.703 Y126.989 E6.97447
G1 X99.716 Y126.998 E6.97573
G1 X100.218 Y126.862 E7.01725
G1 X100.616 Y126.737 E7.05055
G1 X101.047 Y126.58 E7.08716
G1 X101.537 Y126.372 E7.12965
G1 X101.811 Y126.244 E7.15379
G1 X102.154 Y126.067 E7.1846
G1 X102.45 Y125.9 E7.21173
G1 X102.884 Y125.63 E7.25253
G1 X103.197 Y125.41 E7.28307
G1 X103.747 Y124.988 E7.33841
G1 X104.254 Y124.535 E7.39268
G1 X104.725 Y124.046 E7.44688
G1 X105.109 Y123.593 E7.49428
G1 X105.425 Y123.176 E7.53605
G1 X105.717 Y122.745 E7.5776
G1 X106.015 Y122.251 E7.62366
G1 X106.286 Y121.727 E7.67075
G1 X106.531 Y121.173 E7.7191
G1 X106.742 Y120.597 E7.76807
G1 X106.85 Y120.253 E7.79685
G1 X106.988 Y119.738 E7.83941
G1 X107.05 Y119.46 E7.86215
G1 X107.154 Y118.846 E7.91186
G1 X107.189 Y118.552 E7.93549
G1 X107.231 Y118.045 E7.9761
G1 X107.248 Y117.466 E8.02234
G1 X107.242 Y117.085 E8.05275
G1 X107.189 Y116.484 E8.10092
G1 X107.2 Y116.471 E8.10227
G1 X107.118 Y115.889 E8.14919
G1 X106.988 Y115.293 E8.19789
G1 X106.997 Y115.279 E8.19921
G1 X106.862 Y114.782 E8.24032
G1 X106.735 Y114.376 E8.27428
G1 X106.583 Y113.962 E8.30949
G1 X106.372 Y113.463 E8.35273
G1 X106.156 Y113.013 E8.39258
G1 X105.95 Y112.637 E8.4268
G1 X105.639 Y112.132 E8.47414
G1 X105.413 Y111.806 E8.50581
G1 X105.113 Y111.413 E8.54527
G1 X104.894 Y111.149 E8.57265
G1 X104.45 Y110.662 E8.62526
G1 X104.205 Y110.437 E8.65181
G1 X104.205 Y110.426 E8.65269
G1 X103.868 Y110.12 E8.68903
G1 X103.59 Y109.889 E8.71788
G1 X103.183 Y109.58 E8.75867
G1 X102.942 Y109.412 E8.78212
G1 X102.584 Y109.182 E8.81609
G1 X102.292 Y109.009 E8.84318
G1 X101.848 Y108.772 E8.88335
G1 X101.379 Y108.555 E8.92461
G1 X100.919 Y108.381 E8.96386
G1 X100.916 Y108.37 E8.96477
G1 X100.591 Y108.255 E8.99229
G1 X100.28 Y108.158 E9.0183
G1 X99.731 Y108.01 E9.06369
G1 X99.451 Y107.948 E9.08658
G1 X98.846 Y107.846 E9.13555
G1 X98.557 Y107.812 E9.15878
G1 X98.045 Y107.769 E9.1998
G1 X97.547 Y107.752 E9.23957
G1 X97.094 Y107.757 E9.27573
G1 X96.779 Y107.776 E9.30092
G1 X96.241 Y107.833 E9.34411
G1 X95.884 Y107.883 E9.37289
G1 X95.297 Y108.012 E9.42086
G1 X95.284 Y108.002 E9.42217
G1 X94.782 Y108.138 E9.46369
G1 X94.376 Y108.265 E9.49764
G1 X94.097 Y108.365 E9.5213
G1 X93.473 Y108.623 E9.5752
G1 X93.162 Y108.77 E9.60266
G1 X92.839 Y108.937 E9.63169
G1 X92.55 Y109.1 E9.65817
G1 X92.112 Y109.372 E9.69933
G1 X91.803 Y109.59 E9.72951
G1 X91.255 Y110.009 E9.78458
G1 F2700 E4.78458
G1 F300 Z0.44
G0 F15000 X83.974 Y100.853 Z0.44
G1 F300 Z0.24
G1 F2700 E9.78458
G1 F2250 X84.525 Y100.421 E9.84047
G1 X85.171 Y99.95 E9.90429
G1 X85.855 Y99.487 E9.97022
G1 X86.774 Y98.923 E10.05629
G1 X87.432 Y98.561 E10.11624
G1 X88.095 Y98.222 E10.17568
G1 X89.215 Y97.715 E10.27382
G1 X89.894 Y97.446 E10.33212
G1 X90.714 Y97.154 E10.4016
G1 X91.145 Y97.013 E10.4378
G1 X92.001 Y96.766 E10.50891
G1 X93.252 Y96.465 E10.61162
G1 X93.264 Y96.475 E10.61287
G1 X93.771 Y96.376 E10.65411
G1 X94.785 Y96.227 E10.73592
G1 X95.38 Y96.157 E10.78374
G1 X96.114 Y96.097 E10.84253
G1 X96.707 Y96.066 E10.88993
G1 X97.527 Y96.052 E10.95539
G1 X98.302 Y96.066 E11.01727
G1 X98.894 Y96.092 E11.06457
G1 X99.826 Y96.177 E11.13927
G1 X100.513 Y96.265 E11.19456
G1 X101.71 Y96.457 E11.29133
G1 X101.721 Y96.473 E11.29288
G1 X103.009 Y96.771 E11.39841
G1 X103.854 Y97.014 E11.4686
G1 X104.402 Y97.192 E11.51459
G1 X105.16 Y97.465 E11.5789
G1 X106.023 Y97.818 E11.65333
G1 X106.913 Y98.224 E11.73142
G1 X107.654 Y98.606 E11.79796
G1 X108.154 Y98.882 E11.84355
G1 X108.905 Y99.333 E11.91348
G1 X109.255 Y99.558 E11.94669
G1 X109.776 Y99.911 E11.99693
G1 X110.479 Y100.424 E12.0664
G1 X111.067 Y100.887 E12.12614
G1 X111.64 Y101.372 E12.18606
G1 X112.067 Y101.757 E12.23196
G1 X112.604 Y102.272 E12.29135
G1 X113.131 Y102.814 E12.3517
G1 X113.484 Y103.198 E12.39333
G1 X113.968 Y103.674 E12.44752
G1 X114.529 Y104.098 E12.50365
G1 X115.121 Y104.436 E12.55807
G1 X115.763 Y104.7 E12.61348
G1 X116.387 Y104.872 E12.66515
G1 X117.076 Y104.972 E12.72072
G1 X117.764 Y104.982 E12.77565
G1 X118.429 Y104.909 E12.82905
G1 X119.097 Y104.748 E12.8839
G1 X119.757 Y104.494 E12.94035
G1 X120.343 Y104.181 E12.99338
G1 X120.915 Y103.772 E13.04951
G1 X121.5 Y103.216 E13.11394
G1 X121.756 Y102.932 E13.14446
G1 X122.4 Y102.268 E13.2183
G1 X123.018 Y101.661 E13.28744
G1 X123.039 Y101.661 E13.28912
G1 X123.364 Y101.369 E13.32399
G1 X123.974 Y100.853 E13.38777
G1 X124.525 Y100.421 E13.44366
G1 X125.171 Y99.95 E13.50748
G1 X125.855 Y99.487 E13.57341
G1 X126.774 Y98.923 E13.65948
G1 X127.432 Y98.561 E13.71943
G1 X128.095 Y98.222 E13.77887
G1 X129.215 Y97.715 E13.87701
G1 X129.894 Y97.446 E13.93531
G1 X130.714 Y97.154 E14.00479
G1 X131.145 Y97.013 E14.04099
G1 X132.001 Y96.766 E14.11211
G1 X133.252 Y96.465 E14.21482
G1 X133.264 Y96.475 E14.21606
G1 X133.771 Y96.376 E14.2573
G1 X134.785 Y96.227 E14.33911
G1 X135.38 Y96.157 E14.38693
G1 X136.114 Y96.097 E14.44572
G1 X136.707 Y96.066 E14.49312
G1 X137.527 Y96.052 E14.55859
G1 X138.302 Y96.066 E14.62046
G1 X138.894 Y96.092 E14.66776
G1 X139.826 Y96.177 E14.74247
G1 X140.513 Y96.265 E14.79775
G1 X141.71 Y96.457 E14.89452
G1 X141.721 Y96.473 E14.89607
G1 X143.009 Y96.771 E15.0016
G1 X143.854 Y97.014 E15.07179
G1 X144.402 Y97.192 E15.11778
G1 X145.16 Y97.465 E15.18209
G1 X146.023 Y97.818 E15.25652
G1 X146.913 Y98.224 E15.33461
G1 X147.654 Y98.606 E15.40116
G1 X148.154 Y98.882 E15.44675
G1 X148.905 Y99.333 E15.51667
G1 X149.255 Y99.558 E15.54989
G1 X149.776 Y99.911 E15.60012
G1 X150.479 Y100.424 E15.66959
G1 X151.067 Y100.887 E15.72933
G1 X151.64 Y101.372 E15.78926
G1 X152.066 Y101.757 E15.83509
G1 X152.73 Y102.399 E15.90882
G1 X153.244 Y102.934 E15.96804
G1 X153.749 Y103.499 E16.02853
G1 X154.226 Y104.071 E16.08798
G1 X154.578 Y104.524 E16.13378
G1 X155.148 Y105.311 E16.21134
G1 X155.513 Y105.855 E16.26364
G1 X156.077 Y106.773 E16.34964
G1 X156.458 Y107.469 E16.41298
G1 X156.787 Y108.092 E16.46922
G1 X156.781 Y108.114 E16.47104
G1 X157.247 Y109.118 E16.55939
G1 X157.554 Y109.894 E16.62601
G1 X157.808 Y110.601 E16.68598
G1 X157.987 Y111.145 E16.73169
G1 X158.233 Y111.999 E16.80263
G1 X158.528 Y113.279 E16.90749
G1 X158.624 Y113.772 E16.94758
G1 X158.775 Y114.786 E17.02941
G1 X158.833 Y115.278 E17.06896
G1 X158.908 Y116.191 E17.14208
G1 X158.934 Y116.703 E17.18301
G1 X158.948 Y117.527 E17.24879
G1 X158.932 Y118.355 E17.3149
G1 X158.907 Y118.909 E17.35917
G1 X158.822 Y119.83 E17.433
G1 X158.736 Y120.509 E17.48763
G1 X158.61 Y121.299 E17.55149
G1 X158.488 Y121.921 E17.60209
G1 X158.25 Y122.931 E17.68492
G1 X158.119 Y123.433 E17.72633
G1 X158.103 Y123.441 E17.72776
G1 X157.952 Y123.959 E17.77083
G1 X157.607 Y125 E17.85837
G1 X157.593 Y125.005 E17.85956
G1 X157.276 Y125.804 E17.92817
G1 X156.819 Y126.815 E18.01674
G1 X156.368 Y127.714 E18.09702
G1 X156.35 Y127.718 E18.09849
G1 X156.035 Y128.296 E18.15104
G1 X155.667 Y128.905 E18.20784
G1 X155.442 Y129.255 E18.24105
G1 X155.009 Y129.89 E18.3024
G1 X154.576 Y130.478 E18.36069
G1 X154.114 Y131.066 E18.42039
G1 X153.536 Y131.758 E18.49236
G1 X153.521 Y131.758 E18.49356
G1 X153.127 Y132.191 E18.54029
G1 X152.601 Y132.73 E18.6004
G1 X151.949 Y133.362 E18.67289
G1 X151.551 Y133.707 E18.71493
G1 X150.924 Y134.23 E18.78011
G1 X150.473 Y134.581 E18.82573
G1 X149.867 Y135.023 E18.8856
G1 X149.143 Y135.515 E18.95548
G1 X148.222 Y136.079 E19.04168
G1 X147.654 Y136.394 E19.09353
G1 X146.999 Y136.731 E19.15233
G1 X145.883 Y137.247 E19.25047
G1 X145.106 Y137.554 E19.31716
G1 X144.541 Y137.76 E19.36517
G1 X143.854 Y137.987 E19.42292
G1 X142.999 Y138.234 E19.49396
G1 X141.748 Y138.536 E19.59669
G1 X141.736 Y138.525 E19.59799
G1 X141.229 Y138.624 E19.63923
G1 X140.215 Y138.773 E19.72104
G1 X139.62 Y138.843 E19.76886
G1 X138.886 Y138.903 E19.82765
G1 X138.293 Y138.934 E19.87505
G1 X137.473 Y138.948 E19.94051
G1 X136.698 Y138.934 E20.00239
G1 X136.106 Y138.908 E20.04969
G1 X135.174 Y138.823 E20.12439
G1 X134.486 Y138.735 E20.17976
G1 X133.842 Y138.636 E20.23177
G1 X133.267 Y138.529 E20.27846
G1 X132.869 Y138.442 E20.31098
G1 X131.905 Y138.205 E20.39022
G1 X131.113 Y137.975 E20.45605
G1 X130.397 Y137.739 E20.51623
G1 X129.84 Y137.535 E20.56358
G1 X129.197 Y137.277 E20.61889
G1 X128.086 Y136.774 E20.71624
G1 X127.347 Y136.395 E20.78253
G1 X126.77 Y136.075 E20.8352
G1 X125.847 Y135.509 E20.92163
G1 X125.106 Y135.007 E20.99307
G1 X124.517 Y134.573 E21.05148
G1 X124.032 Y134.192 E21.10071
G1 X123.473 Y133.728 E21.1587
G1 X122.908 Y133.221 E21.2193
G1 X122.255 Y132.588 E21.29189
G1 X121.842 Y132.159 E21.33943
G1 X121.517 Y131.803 E21.37791
G1 X121.007 Y131.305 E21.43481
G1 X120.469 Y130.901 E21.48851
G1 X119.876 Y130.563 E21.543
G1 X119.267 Y130.31 E21.59564
G1 X118.59 Y130.123 E21.6517
G1 X117.913 Y130.027 E21.70628
G1 X117.232 Y130.018 E21.76065
G1 X116.56 Y130.093 E21.81462
G1 X115.904 Y130.252 E21.8685
G1 X115.259 Y130.499 E21.92364
G1 X114.678 Y130.807 E21.97613
G1 X114.086 Y131.227 E22.03407
G1 X113.517 Y131.767 E22.09669
G1 X113.244 Y132.068 E22.12913
G1 X112.601 Y132.731 E22.20285
G1 X111.949 Y133.362 E22.27528
G1 X111.551 Y133.707 E22.31732
G1 X110.924 Y134.23 E22.3825
G1 X110.473 Y134.581 E22.42812
G1 X109.867 Y135.023 E22.48799
G1 X109.143 Y135.515 E22.55787
G1 X108.222 Y136.079 E22.64407
G1 X107.654 Y136.394 E22.69592
G1 X106.999 Y136.731 E22.75472
G1 X105.883 Y137.247 E22.85286
G1 X105.106 Y137.554 E22.91955
G1 X104.541 Y137.76 E22.96756
