;FLAVOR:Marlin
;TIME:4424
;Filament used: 9.86579m
;Layer height: 0.4
;MINX:82.387
;MINY:82.4
;MINZ:0.24
;MAXX:152.6
;MAXY:152.6
;MAXZ:11.39
;Generated with Cura_SteamEngine 5.3.1
M140 S60
M105
M190 S60
M104 S230
M105
M109 S230
M82 ;absolute extrusion mode
; Ender 3 Custom Start G-code
G92 E0 ; Reset Extruder
G28 ; Home all axes
G1 Z2.0 F3000 ; Move Z Axis up little to prevent scratching of Heat Bed
G1 X0.1 Y20 Z0.3 F5000.0 ; Move to start position
G1 X0.1 Y200.0 Z0.3 F1500.0 E15 ; Draw the first line
G1 X0.4 Y200.0 Z0.3 F5000.0 ; Move to side a little
G1 X0.4 Y20 Z0.3 F1500.0 E30 ; Draw the second line
G92 E0 ; Reset Extruder
G1 Z2.0 F3000 ; Move Z Axis up little to prevent scratching of Heat Bed
G1 X5 Y20 Z0.3 F5000.0 ; Move over to prevent blob squish
G92 E0
G92 E0
G1 F2700 E-5
;LAYER_COUNT:26
;LAYER:-5
M107
G0 F15000 X83.056 Y83.29 Z0.24
;TYPE:SUPPORT-INTERFACE
G1 F2700 E0
G1 F2250 X83.381 Y82.976 E0.03607
G1 X83.714 Y82.754 E0.06802
G1 X84.122 Y82.561 E0.10405
G1 X84.499 Y82.459 E0.13522
G1 X84.951 Y82.4 E0.17161
G1 X149.869 Y82.4 E5.35365
G1 X150.237 Y82.422 E5.38307
G1 X150.6 Y82.481 E5.41243
G1 X150.989 Y82.608 E5.4451
G1 X151.409 Y82.825 E5.48283
G1 X151.738 Y83.078 E5.51596
G1 X152.024 Y83.381 E5.54922
G1 X152.246 Y83.711 E5.58097
G1 X152.441 Y84.124 E5.61743
G1 X152.54 Y84.495 E5.64808
G1 X152.6 Y84.948 E5.68455
G1 X152.6 Y149.86 E10.86611
G1 X152.578 Y150.238 E10.89634
G1 X152.519 Y150.6 E10.92561
G1 X152.385 Y151.015 E10.96042
G1 X152.175 Y151.41 E10.99613
G1 X151.928 Y151.732 E11.02853
G1 X151.643 Y152.001 E11.05981
G1 X151.262 Y152.263 E11.09672
G1 X150.91 Y152.424 E11.12762
G1 X150.499 Y152.542 E11.16175
G1 X150.049 Y152.599 E11.19796
G1 X85.131 Y152.6 E16.38
G1 X84.763 Y152.578 E16.40942
G1 X84.4 Y152.519 E16.43878
G1 X83.982 Y152.384 E16.47384
G1 X83.589 Y152.174 E16.50941
G1 X83.266 Y151.926 E16.54192
G1 X82.997 Y151.641 E16.5732
G1 X82.749 Y151.278 E16.6083
G1 X82.561 Y150.88 E16.64343
G1 X82.46 Y150.504 E16.67451
G1 X82.401 Y150.049 E16.71113
G1 X82.387 Y85.095 E21.89604
G1 X82.4 Y85.083 E21.89745
G1 X82.419 Y84.773 E21.92225
G1 X82.489 Y84.36 E21.95568
G1 X82.617 Y83.98 E21.98769
G1 X82.826 Y83.59 E22.02301
G1 X83.056 Y83.29 E22.05319
G0 F15000 X83.457 Y83.457
G1 F2250 X151.543 Y151.543 E29.73932
G1 F2700 E24.73932
G1 F300 Z0.44
G0 F15000 X149.935 Y152.198 Z0.44
G1 F300 Z0.24
G1 F2700 E29.73932
G1 F2250 X82.8 Y85.063 E37.3181
G1 F2700 E32.3181
G1 F300 Z0.44
G0 F15000 X82.786 Y87.312 Z0.44
G1 F300 Z0.24
G1 F2700 E37.3181
G1 F2250 X147.672 Y152.198 E44.643
G1 F2700 E39.643
G1 F300 Z0.44
G0 F15000 X145.41 Y152.198 Z0.44
G1 F300 Z0.24
G1 F2700 E44.643
G1 F2250 X82.787 Y89.575 E51.71242
G1 F2700 E46.71242
G1 F300 Z0.44
G0 F15000 X82.788 Y91.839 Z0.44
G1 F300 Z0.24
G1 F2700 E51.71242
G1 F2250 X143.147 Y152.198 E58.52627
G1 F2700 E53.52627
G1 F300 Z0.44
G0 F15000 X140.884 Y152.198 Z0.44
G1 F300 Z0.24
G1 F2700 E58.52627
G1 F2250 X82.788 Y94.101 E65.0847
G1 F2700 E60.0847
G1 F300 Z0.44
G0 F15000 X82.788 Y96.365 Z0.44
G1 F300 Z0.24
G1 F2700 E65.0847
G1 F2250 X138.621 Y152.198 E71.38761
G1 F2700 E66.38761
G1 F300 Z0.44
G0 F15000 X136.359 Y152.198 Z0.44
G1 F300 Z0.24
G1 F2700 E71.38761
G1 F2250 X82.789 Y98.628 E77.43506
G1 F2700 E72.43506
G1 F300 Z0.44
G0 F15000 X82.789 Y100.891 Z0.44
G1 F300 Z0.24
G1 F2700 E77.43506
G1 F2250 X134.096 Y152.198 E83.22703
G1 F2700 E78.22703
G1 F300 Z0.44
G0 F15000 X131.833 Y152.198 Z0.44
G1 F300 Z0.24
G1 F2700 E83.22703
G1 F2250 X82.79 Y103.154 E88.76349
G1 F2700 E83.76349
G1 F300 Z0.44
G0 F15000 X82.79 Y105.418 Z0.44
G1 F300 Z0.24
G1 F2700 E88.76349
G1 F2250 X129.57 Y152.198 E94.04442
G1 F2700 E89.04442
G1 F300 Z0.44
G0 F15000 X127.308 Y152.198 Z0.44
G1 F300 Z0.24
G1 F2700 E94.04442
G1 F2250 X82.79 Y107.681 E99.06994
G1 F2700 E94.06994
G1 F300 Z0.44
G0 F15000 X82.791 Y109.944 Z0.44
G1 F300 Z0.24
G1 F2700 E99.06994
G1 F2250 X125.045 Y152.198 E103.83994
G1 F2700 E98.83994
G1 F300 Z0.44
G0 F15000 X122.782 Y152.198 Z0.44
G1 F300 Z0.24
G1 F2700 E103.83994
G1 F2250 X82.792 Y112.207 E108.35441
G1 F2700 E103.35441
G1 F300 Z0.44
G0 F15000 X82.793 Y114.471 Z0.44
G1 F300 Z0.24
G1 F2700 E108.35441
G1 F2250 X120.519 Y152.198 E112.6133
G1 F2700 E107.6133
G1 F300 Z0.44
G0 F15000 X118.257 Y152.198 Z0.44
G1 F300 Z0.24
G1 F2700 E112.6133
G1 F2250 X82.793 Y116.734 E116.61679
G1 F2700 E111.61679
G1 F300 Z0.44
G0 F15000 X82.793 Y118.997 Z0.44
G1 F300 Z0.24
G1 F2700 E116.61679
G1 F2250 X115.995 Y152.199 E120.36491
G1 F2700 E115.36491
G1 F300 Z0.44
G0 F15000 X113.732 Y152.199 Z0.44
G1 F300 Z0.24
G1 F2700 E120.36491
G1 F2250 X82.794 Y121.261 E123.85746
G1 F2700 E118.85746
G1 F300 Z0.44
G0 F15000 X82.794 Y123.523 Z0.44
G1 F300 Z0.24
G1 F2700 E123.85746
G1 F2250 X111.469 Y152.199 E127.0946
G1 F2700 E122.0946
G1 F300 Z0.44
G0 F15000 X109.206 Y152.199 Z0.44
G1 F300 Z0.24
G1 F2700 E127.0946
G1 F2250 X82.795 Y125.787 E130.07616
G1 F2700 E125.07616
G1 F300 Z0.44
G0 F15000 X82.795 Y128.05 Z0.44
G1 F300 Z0.24
G1 F2700 E130.07616
G1 F2250 X106.944 Y152.199 E132.80231
G1 F2700 E127.80231
G1 F300 Z0.44
G0 F15000 X104.681 Y152.199 Z0.44
G1 F300 Z0.24
G1 F2700 E132.80231
G1 F2250 X82.795 Y130.313 E135.27299
G1 F2700 E130.27299
G1 F300 Z0.44
G0 F15000 X82.796 Y132.576 Z0.44
G1 F300 Z0.24
G1 F2700 E135.27299
G1 F2250 X102.418 Y152.199 E137.48815
G1 F2700 E132.48815
G1 F300 Z0.44
G0 F15000 X100.156 Y152.199 Z0.44
G1 F300 Z0.24
G1 F2700 E137.48815
G1 F2250 X82.797 Y134.84 E139.44778
G1 F2700 E134.44778
G1 F300 Z0.44
G0 F15000 X82.797 Y137.103 Z0.44
G1 F300 Z0.24
G1 F2700 E139.44778
G1 F2250 X97.893 Y152.199 E141.15195
G1 F2700 E136.15195
G1 F300 Z0.44
G0 F15000 X95.63 Y152.199 Z0.44
G1 F300 Z0.24
G1 F2700 E141.15195
G1 F2250 X82.797 Y139.366 E142.60065
G1 F2700 E137.60065
G1 F300 Z0.44
G0 F15000 X82.798 Y141.629 Z0.44
G1 F300 Z0.24
G1 F2700 E142.60065
G1 F2250 X93.367 Y152.199 E143.79382
G1 F2700 E138.79382
G1 F300 Z0.44
G0 F15000 X91.105 Y152.199 Z0.44
G1 F300 Z0.24
G1 F2700 E143.79382
G1 F2250 X82.799 Y143.893 E144.73148
G1 F2700 E139.73148
G1 F300 Z0.44
G0 F15000 X82.799 Y146.156 Z0.44
G1 F300 Z0.24
G1 F2700 E144.73148
G1 F2250 X88.842 Y152.199 E145.41366
G1 F2700 E140.41366
G1 F300 Z0.44
G0 F15000 X86.579 Y152.199 Z0.44
G1 F300 Z0.24
G1 F2700 E145.41366
G1 F2250 X82.8 Y148.419 E145.84032
G1 F2700 E140.84032
G1 F300 Z0.44
G0 F15000 X83.008 Y150.89 Z0.44
G1 F300 Z0.24
G1 F2700 E145.84032
G1 F2250 X84.12 Y152.003 E145.96591
G1 F2700 E140.96591
G1 F300 Z0.44
G0 F15000 X152.194 Y149.932 Z0.44
G1 F300 Z0.24
G1 F2700 E145.96591
G1 F2250 X85.062 Y82.8 E153.54435
G1 F2700 E148.54435
G1 F300 Z0.44
G0 F15000 X87.325 Y82.8 Z0.44
G1 F300 Z0.24
G1 F2700 E153.54435
G1 F2250 X152.199 Y147.673 E160.86783
G1 F2700 E155.86783
G1 F300 Z0.44
G0 F15000 X152.199 Y145.41 Z0.44
G1 F300 Z0.24
G1 F2700 E160.86783
G1 F2250 X89.588 Y82.8 E167.93585
G1 F2700 E162.93585
G1 F300 Z0.44
G0 F15000 X91.851 Y82.8 Z0.44
G1 F300 Z0.24
G1 F2700 E167.93585
G1 F2250 X152.199 Y143.148 E174.74845
G1 F2700 E169.74845
G1 F300 Z0.44
G0 F15000 X152.199 Y140.885 Z0.44
G1 F300 Z0.24
G1 F2700 E174.74845
G1 F2250 X94.113 Y82.8 E181.30565
G1 F2700 E176.30565
G1 F300 Z0.44
G0 F15000 X96.376 Y82.8 Z0.44
G1 F300 Z0.24
G1 F2700 E181.30565
G1 F2250 X152.199 Y138.622 E187.60737
G1 F2700 E182.60737
G1 F300 Z0.44
G0 F15000 X152.199 Y136.359 Z0.44
G1 F300 Z0.24
G1 F2700 E187.60737
G1 F2250 X98.639 Y82.8 E193.65363
G1 F2700 E188.65363
G1 F300 Z0.44
G0 F15000 X100.902 Y82.8 Z0.44
G1 F300 Z0.24
G1 F2700 E193.65363
G1 F2250 X152.199 Y134.097 E199.44448
G1 F2700 E194.44448
G1 F300 Z0.44
G0 F15000 X152.199 Y131.834 Z0.44
G1 F300 Z0.24
G1 F2700 E199.44448
G1 F2250 X103.164 Y82.8 E204.97992
G1 F2700 E199.97992
G1 F300 Z0.44
G0 F15000 X105.427 Y82.8 Z0.44
G1 F300 Z0.24
G1 F2700 E204.97992
G1 F2250 X152.199 Y129.571 E210.25989
G1 F2700 E205.25989
G1 F300 Z0.44
G0 F15000 X152.199 Y127.308 Z0.44
G1 F300 Z0.24
G1 F2700 E210.25989
G1 F2250 X107.69 Y82.8 E215.28439
G1 F2700 E210.28439
G1 F300 Z0.44
G0 F15000 X109.952 Y82.8 Z0.44
G1 F300 Z0.24
G1 F2700 E215.28439
G1 F2250 X152.199 Y125.046 E220.05354
G1 F2700 E215.05354
G1 F300 Z0.44
G0 F15000 X152.199 Y122.783 Z0.44
G1 F300 Z0.24
G1 F2700 E220.05354
G1 F2250 X112.215 Y82.8 E224.56723
G1 F2700 E219.56723
G1 F300 Z0.44
G0 F15000 X114.478 Y82.8 Z0.44
G1 F300 Z0.24
G1 F2700 E224.56723
G1 F2250 X152.199 Y120.52 E228.82544
G1 F2700 E223.82544
G1 F300 Z0.44
G0 F15000 X152.199 Y118.257 Z0.44
G1 F300 Z0.24
G1 F2700 E228.82544
G1 F2250 X116.741 Y82.8 E232.82819
G1 F2700 E227.82819
G1 F300 Z0.44
G0 F15000 X119.003 Y82.8 Z0.44
G1 F300 Z0.24
G1 F2700 E232.82819
G1 F2250 X152.199 Y115.995 E236.57559
G1 F2700 E231.57559
G1 F300 Z0.44
G0 F15000 X152.199 Y113.732 Z0.44
G1 F300 Z0.24
G1 F2700 E236.57559
G1 F2250 X121.266 Y82.8 E240.06751
G1 F2700 E235.06751
G1 F300 Z0.44
G0 F15000 X123.529 Y82.8 Z0.44
G1 F300 Z0.24
G1 F2700 E240.06751
G1 F2250 X152.199 Y111.469 E243.30398
G1 F2700 E238.30398
G1 F300 Z0.44
G0 F15000 X152.199 Y109.206 Z0.44
G1 F300 Z0.24
G1 F2700 E243.30398
G1 F2250 X125.792 Y82.8 E246.28497
G1 F2700 E241.28497
G1 F300 Z0.44
G0 F15000 X128.054 Y82.8 Z0.44
G1 F300 Z0.24
G1 F2700 E246.28497
G1 F2250 X152.199 Y106.944 E249.01061
G1 F2700 E244.01061
G1 F300 Z0.44
G0 F15000 X152.199 Y104.681 Z0.44
G1 F300 Z0.24
G1 F2700 E249.01061
G1 F2250 X130.317 Y82.8 E251.48078
G1 F2700 E246.48078
G1 F300 Z0.44
G0 F15000 X132.58 Y82.8 Z0.44
G1 F300 Z0.24
G1 F2700 E251.48078
G1 F2250 X152.199 Y102.418 E253.69549
G1 F2700 E248.69549
G1 F300 Z0.44
G0 F15000 X152.199 Y100.156 Z0.44
G1 F300 Z0.24
G1 F2700 E253.69549
G1 F2250 X134.843 Y82.8 E255.65478
G1 F2700 E250.65478
G1 F300 Z0.44
G0 F15000 X137.105 Y82.8 Z0.44
G1 F300 Z0.24
G1 F2700 E255.65478
G1 F2250 X152.199 Y97.893 E257.35867
G1 F2700 E252.35867
G1 F300 Z0.44
G0 F15000 X152.199 Y95.63 Z0.44
G1 F300 Z0.24
G1 F2700 E257.35867
G1 F2250 X139.368 Y82.8 E258.80709
G1 F2700 E253.80709
G1 F300 Z0.44
G0 F15000 X141.631 Y82.8 Z0.44
G1 F300 Z0.24
G1 F2700 E258.80709
G1 F2250 X152.199 Y93.367 E260.00004
G1 F2700 E255.00004
G1 F300 Z0.44
G0 F15000 X152.199 Y91.105 Z0.44
G1 F300 Z0.24
G1 F2700 E260.00004
G1 F2250 X143.894 Y82.8 E260.93758
G1 F2700 E255.93758
G1 F300 Z0.44
G0 F15000 X146.156 Y82.8 Z0.44
G1 F300 Z0.24
G1 F2700 E260.93758
G1 F2250 X152.199 Y88.842 E261.61971
G1 F2700 E256.61971
G1 F300 Z0.44
G0 F15000 X152.199 Y86.579 Z0.44
G1 F300 Z0.24
G1 F2700 E261.61971
G1 F2250 X148.419 Y82.8 E262.04637
G1 F2700 E257.04637
G1 F300 Z0.44
G0 F15000 X150.889 Y83.007 Z0.44
G1 F300 Z0.24
G1 F2700 E262.04637
G1 F2250 X151.991 Y84.108 E262.17072
G1 F2700 E257.17072
G1 F300 Z0.44
G0 F15000 X150.755 Y152.054 Z0.44
;TIME_ELAPSED:122.485121
;LAYER:-4
G0 X150.755 Y152.054 Z1.04
;TYPE:SUPPORT
G1 F300 Z0.84
G1 F2700 E262.17072
G1 F2250 X151.083 Y151.901 E262.24294
G1 X151.381 Y151.697 E262.31501
G1 X151.636 Y151.455 E262.38517
G1 X151.844 Y151.175 E262.45477
G1 X152.018 Y150.842 E262.52975
G1 X152.124 Y150.516 E262.59816
G1 X150.504 Y152.136 E263.05536
G1 X150.067 Y152.194 E263.14333
G1 X149.032 Y152.194 E263.34988
G1 X152.199 Y149.028 E264.24354
G1 X152.199 Y147.614 E264.52571
G1 X147.618 Y152.194 E265.81843
G1 X146.204 Y152.194 E266.10061
G1 X152.199 Y146.199 E267.79253
G1 X152.199 Y144.785 E268.07471
G1 X144.79 Y152.194 E270.16569
G1 X143.375 Y152.194 E270.44807
G1 X152.199 Y143.371 E272.93825
G1 X152.199 Y141.957 E273.22043
G1 X141.961 Y152.194 E276.10967
G1 X140.546 Y152.195 E276.39205
G1 X152.199 Y140.543 E279.68064
G1 X152.199 Y139.128 E279.96301
G1 X139.132 Y152.195 E283.6508
G1 X137.718 Y152.195 E283.93298
G1 X152.199 Y137.714 E288.01983
G1 X152.199 Y136.3 E288.30201
G1 X136.304 Y152.195 E292.78793
G1 X134.889 Y152.195 E293.0703
G1 X152.199 Y134.886 E297.95542
G1 X152.199 Y133.472 E298.2376
G1 X133.475 Y152.195 E303.52177
G1 X132.061 Y152.195 E303.80395
G1 X152.199 Y132.057 E309.48733
G1 X152.199 Y130.643 E309.76951
G1 X130.646 Y152.196 E315.85223
G1 X129.232 Y152.196 E316.13441
G1 X152.199 Y129.229 E322.6162
G1 X152.199 Y127.815 E322.89837
G1 X127.818 Y152.196 E329.77922
G1 X126.403 Y152.196 E330.0616
G1 X152.199 Y126.4 E337.34179
G1 X152.199 Y124.986 E337.62397
G1 X124.989 Y152.196 E345.30322
G1 X123.575 Y152.196 E345.58539
G1 X152.199 Y123.572 E353.66371
G1 X152.199 Y122.158 E353.94588
G1 X122.16 Y152.196 E362.4234
G1 X120.746 Y152.196 E362.70558
G1 X152.199 Y120.744 E371.58215
G1 X152.199 Y119.329 E371.86453
G1 X119.332 Y152.196 E381.14031
G1 X117.917 Y152.196 E381.42269
G1 X152.199 Y117.915 E391.09767
G1 X152.199 Y116.501 E391.37985
G1 X116.503 Y152.196 E401.45389
G1 X115.089 Y152.196 E401.73607
G1 X152.199 Y115.087 E412.20917
G1 X152.199 Y113.673 E412.49135
G1 X113.675 Y152.196 E423.36351
G1 X112.26 Y152.197 E423.64589
G1 X152.199 Y112.258 E434.91754
G1 X152.199 Y110.844 E435.19972
G1 X110.846 Y152.197 E446.87043
G1 X109.431 Y152.197 E447.15281
G1 X152.199 Y109.43 E459.22272
G1 X152.199 Y108.016 E459.5049
G1 X108.017 Y152.197 E471.97387
G1 X106.603 Y152.197 E472.25605
G1 X152.199 Y106.602 E485.12409
G1 X152.199 Y105.187 E485.40646
G1 X105.189 Y152.197 E498.6737
G1 X103.774 Y152.197 E498.95608
G1 X152.199 Y103.773 E512.62252
G1 X152.199 Y102.359 E512.9047
G1 X102.36 Y152.198 E526.97034
G1 X100.945 Y152.198 E527.25272
G1 X152.199 Y100.945 E541.71757
G1 X152.199 Y99.53 E541.99994
G1 X99.531 Y152.198 E556.86399
G1 X98.117 Y152.198 E557.14617
G1 X152.199 Y98.116 E572.40928
G1 X152.199 Y96.702 E572.69146
G1 X96.703 Y152.198 E588.35363
G1 X95.289 Y152.198 E588.63581
G1 X152.199 Y95.288 E604.69704
G1 X152.199 Y93.874 E604.97922
G1 X93.874 Y152.199 E621.43979
G1 X92.459 Y152.199 E621.72217
G1 X152.199 Y92.459 E638.58209
G1 X152.199 Y91.045 E638.86427
G1 X91.045 Y152.199 E656.12325
G1 X89.631 Y152.199 E656.40543
G1 X152.199 Y89.631 E674.06347
G1 X152.199 Y88.217 E674.34565
G1 X88.217 Y152.199 E692.40275
G1 X86.803 Y152.199 E692.68493
G1 X152.199 Y86.803 E711.14109
G1 X152.199 Y85.388 E711.42347
G1 X85.388 Y152.199 E730.27898
G1 X85.134 Y152.199 E730.32967
G1 X84.815 Y152.181 E730.39343
G1 X84.487 Y152.126 E730.4598
G1 X84.155 Y152.018 E730.52947
G1 X152.014 Y84.159 E749.68075
G1 X151.904 Y83.921 E749.73307
G1 X151.696 Y83.617 E749.80658
G1 X151.428 Y83.331 E749.88479
G1 X83.332 Y151.426 E769.10282
G1 X83.07 Y151.033 E769.19707
G1 X82.933 Y150.72 E769.26526
G1 X82.867 Y150.477 E769.31551
G1 X150.477 Y82.867 E788.39651
G1 X150.184 Y82.818 E788.45579
G1 X149.864 Y82.8 E788.51975
G1 X149.13 Y82.8 E788.66623
G1 X82.8 Y149.13 E807.38599
G1 X82.8 Y147.716 E807.66817
G1 X147.716 Y82.8 E825.98887
G1 X146.302 Y82.8 E826.27105
G1 X82.8 Y146.302 E844.19268
G1 X82.8 Y144.888 E844.47486
G1 X144.888 Y82.8 E861.99744
G1 X143.474 Y82.8 E862.27962
G1 X82.8 Y143.474 E879.40313
G1 X82.8 Y142.059 E879.68551
G1 X142.059 Y82.8 E896.40968
G1 X140.645 Y82.8 E896.69186
G1 X82.8 Y140.645 E913.01697
G1 X82.8 Y139.231 E913.29915
G1 X139.23 Y82.8 E929.22505
G1 X137.816 Y82.8 E929.50723
G1 X82.8 Y137.817 E945.03408
G1 X82.8 Y136.403 E945.31625
G1 X136.402 Y82.8 E960.44404
G1 X134.988 Y82.8 E960.72622
G1 X82.8 Y134.988 E975.4548
G1 X82.8 Y133.574 E975.73698
G1 X133.573 Y82.8 E990.06636
G1 X132.159 Y82.8 E990.34853
G1 X82.8 Y132.16 E1004.27885
G1 X82.8 Y130.746 E1004.56103
G1 X130.744 Y82.801 E1018.092
G1 X129.33 Y82.801 E1018.37418
G1 X82.8 Y129.331 E1031.50595
G1 X82.8 Y127.917 E1031.78813
G1 X127.916 Y82.801 E1044.52084
G1 X126.502 Y82.801 E1044.80302
G1 X82.8 Y126.503 E1057.13667
G1 X82.8 Y125.089 E1057.41885
G1 X125.087 Y82.801 E1069.3533
G1 X123.673 Y82.801 E1069.63548
G1 X82.8 Y123.675 E1081.17086
G1 X82.8 Y122.26 E1081.45324
G1 X122.259 Y82.801 E1092.58942
G1 X120.844 Y82.802 E1092.8718
G1 X82.8 Y120.846 E1103.60864
G1 X82.8 Y119.432 E1103.89082
G1 X119.43 Y82.802 E1114.22859
G1 X118.016 Y82.802 E1114.51077
G1 X82.8 Y118.018 E1124.44949
G1 X82.8 Y116.604 E1124.73167
G1 X116.601 Y82.802 E1134.27118
G1 X115.187 Y82.802 E1134.55336
G1 X82.8 Y115.189 E1143.69367
G1 X82.8 Y113.775 E1143.97585
G1 X113.773 Y82.802 E1152.7171
G1 X112.358 Y82.802 E1152.99948
G1 X82.8 Y112.361 E1161.34153
G1 X82.8 Y110.947 E1161.62371
G1 X110.944 Y82.802 E1169.56669
G1 X109.53 Y82.802 E1169.84887
G1 X82.8 Y109.532 E1177.39265
