;FLAVOR:Marlin
;TIME:1491
;Filament used: 2.85615m
;Layer height: 0.4
;MINX:15.903
;MINY:93.4
;MINZ:0.24
;MAXX:217.487
;MAXY:141.6
;MAXZ:6.59
;Generated with Cura_SteamEngine 5.3.1
M140 S60
M105
M190 S60
M104 S230
M105
M109 S230
M82 ;absolute extrusion mode
; Ender 3 Custom Start G-code
G92 E0 ; Reset Extruder
G28 ; Home all axes
G1 Z2.0 F3000 ; Move Z Axis up little to prevent scratching of Heat Bed
G1 X0.1 Y20 Z0.3 F5000.0 ; Move to start position
G1 X0.1 Y200.0 Z0.3 F1500.0 E15 ; Draw the first line
G1 X0.4 Y200.0 Z0.3 F5000.0 ; Move to side a little
G1 X0.4 Y20 Z0.3 F1500.0 E30 ; Draw the second line
G92 E0 ; Reset Extruder
G1 Z2.0 F3000 ; Move Z Axis up little to prevent scratching of Heat Bed
G1 X5 Y20 Z0.3 F5000.0 ; Move over to prevent blob squish
G92 E0
G92 E0
G1 F2700 E-5
;LAYER_COUNT:13
;LAYER:-5
M107
G0 F15000 X19.917 Y93.429 Z0.24
;TYPE:SUPPORT-INTERFACE
G1 F2700 E0
G1 F2250 X19.926 Y93.437 E0.00096
G1 X20.399 Y93.4 E0.03883
G1 X22.92 Y93.4 E0.24007
G1 X23.433 Y93.43 E0.28109
G1 X23.735 Y93.468 E0.30539
G1 X23.996 Y93.518 E0.3266
G1 X24.305 Y93.599 E0.3521
G1 X24.577 Y93.687 E0.37492
G1 X24.815 Y93.782 E0.39538
G1 X25.115 Y93.923 E0.42184
G1 X25.338 Y94.047 E0.4422
G1 X25.583 Y94.204 E0.46543
G1 X25.844 Y94.395 E0.49125
G1 X26.042 Y94.561 E0.51187
G1 X26.256 Y94.762 E0.53531
G1 X26.456 Y94.977 E0.55875
G1 X26.651 Y95.215 E0.58331
G1 X26.805 Y95.429 E0.60436
G1 X26.968 Y95.691 E0.62899
G1 X27.094 Y95.923 E0.65006
G1 X27.23 Y96.216 E0.67585
G1 X27.335 Y96.487 E0.69905
G1 X27.458 Y96.872 E0.73131
G1 X27.542 Y97.363 E0.77107
G1 X27.601 Y98.037 E0.82508
G1 X27.616 Y98.836 E0.88887
G1 X27.634 Y99.33 E0.92833
G1 X27.707 Y100.287 E1.00494
G1 X27.791 Y101.07 E1.0678
G1 X27.928 Y102.018 E1.14426
G1 X28.062 Y102.765 E1.20484
G1 X28.233 Y103.577 E1.27108
G1 X28.42 Y104.329 E1.33294
G1 X28.637 Y105.107 E1.39741
G1 X28.888 Y105.899 E1.46373
G1 X29.133 Y106.599 E1.52293
G1 X29.425 Y107.352 E1.5874
G1 X29.731 Y108.074 E1.65
G1 X29.971 Y108.604 E1.69644
G1 X30.206 Y109.065 E1.73774
G1 X30.199 Y109.079 E1.73899
G1 X30.783 Y110.18 E1.83848
G1 X31.165 Y110.837 E1.89914
G1 X31.606 Y111.54 E1.96539
G1 X31.944 Y112.047 E2.01403
G1 X32.406 Y112.703 E2.07808
G1 X32.85 Y113.292 E2.13695
G1 X33.371 Y113.938 E2.2032
G1 X33.894 Y114.546 E2.26722
G1 X34.415 Y115.102 E2.32804
G1 X34.415 Y115.117 E2.32924
G1 X35.08 Y115.792 E2.40488
G1 X35.575 Y116.262 E2.45936
G1 X36.087 Y116.713 E2.51383
G1 X36.088 Y116.73 E2.51519
G1 X36.875 Y117.385 E2.59692
G1 X37.365 Y117.771 E2.64671
G1 X37.99 Y118.233 E2.70876
G1 X38.642 Y118.686 E2.77213
G1 X39.315 Y119.121 E2.8361
G1 X40.128 Y119.608 E2.91175
G1 X40.599 Y119.872 E2.95485
G1 X41.613 Y120.38 E3.04538
G1 X41.614 Y120.39 E3.04618
G1 X42.108 Y120.628 E3.08995
G1 X42.851 Y120.952 E3.15465
G1 X43.545 Y121.232 E3.21439
G1 X44.428 Y121.553 E3.28939
G1 X44.925 Y121.72 E3.33124
G1 X45.651 Y121.939 E3.39177
G1 X46.747 Y122.226 E3.48221
G1 X47.469 Y122.386 E3.54124
G1 X48.259 Y122.536 E3.60543
G1 X48.919 Y122.643 E3.6588
G1 X49.661 Y122.737 E3.71851
G1 X50.595 Y122.826 E3.7934
G1 X51.427 Y122.874 E3.85992
G1 X52.175 Y122.896 E3.91966
G1 X53.014 Y122.894 E3.98663
G1 X53.592 Y122.879 E4.03278
G1 X54.384 Y122.832 E4.09612
G1 X55.356 Y122.736 E4.17408
G1 X56.079 Y122.64 E4.2323
G1 X56.766 Y122.532 E4.28782
G1 X57.538 Y122.385 E4.35055
G1 X58.046 Y122.265 E4.39221
G1 X58.058 Y122.274 E4.39341
G1 X58.441 Y122.18 E4.42489
G1 X59.362 Y121.932 E4.50103
G1 X60.331 Y121.638 E4.58186
G1 X61.288 Y121.297 E4.66296
G1 X62.228 Y120.92 E4.7438
G1 X62.888 Y120.629 E4.80138
G1 X63.638 Y120.268 E4.86782
G1 X64.337 Y119.906 E4.93066
G1 X64.98 Y119.545 E4.98952
G1 X65.557 Y119.201 E5.04314
G1 X66.245 Y118.762 E5.10829
G1 X66.995 Y118.245 E5.181
G1 X67.531 Y117.849 E5.2342
G1 X68.158 Y117.358 E5.29777
G1 X68.739 Y116.875 E5.35808
G1 X69.356 Y116.325 E5.42406
G1 X69.793 Y115.903 E5.47255
G1 X69.808 Y115.903 E5.47375
G1 X70.643 Y115.038 E5.56972
G1 X70.652 Y115.038 E5.57044
G1 X70.894 Y114.785 E5.59839
G1 X71.572 Y114.007 E5.68076
G1 X72.111 Y113.342 E5.74909
G1 X72.602 Y112.692 E5.81412
G1 X73.054 Y112.051 E5.87673
G1 X73.551 Y111.293 E5.94908
G1 X73.722 Y111.004 E5.97589
G1 X73.738 Y111.002 E5.97717
G1 X74.214 Y110.185 E6.05265
G1 X74.601 Y109.466 E6.11783
G1 X75.026 Y108.609 E6.19419
G1 X75.342 Y107.91 E6.25542
G1 X75.647 Y107.178 E6.31872
G1 X75.924 Y106.445 E6.38127
G1 X76.191 Y105.658 E6.44761
G1 X76.384 Y105.046 E6.49884
G1 X76.582 Y104.321 E6.55883
G1 X76.752 Y103.644 E6.61455
G1 X76.943 Y102.743 E6.68807
G1 X77.068 Y102.046 E6.74459
G1 X77.193 Y101.195 E6.81325
G1 X77.305 Y100.128 E6.89889
G1 X77.36 Y99.368 E6.95972
G1 X77.386 Y98.812 E7.00415
G1 X77.386 Y98.048 E7.06513
G1 X77.4 Y98.035 E7.06666
G1 X77.435 Y97.5 E7.10946
G1 X77.475 Y97.213 E7.13259
G1 X77.535 Y96.929 E7.15576
G1 X77.614 Y96.643 E7.17944
G1 X77.712 Y96.361 E7.20327
G1 X77.82 Y96.099 E7.2259
G1 X77.954 Y95.83 E7.24988
G1 X78.09 Y95.592 E7.27177
G1 X78.259 Y95.338 E7.29612
G1 X78.427 Y95.115 E7.31841
G1 X78.617 Y94.895 E7.34161
G1 X78.827 Y94.681 E7.36554
G1 X79.036 Y94.493 E7.38798
G1 X79.271 Y94.307 E7.41191
G1 X79.511 Y94.142 E7.43516
G1 X79.749 Y93.998 E7.45736
G1 X80.005 Y93.866 E7.48035
G1 X80.292 Y93.739 E7.5054
G1 X80.556 Y93.641 E7.52788
G1 X80.828 Y93.561 E7.55052
G1 X81.096 Y93.498 E7.57249
G1 X81.422 Y93.448 E7.59882
G1 X82.02 Y93.4 E7.64671
G1 X84.42 Y93.401 E7.83829
G1 X84.933 Y93.43 E7.8793
G1 X85.235 Y93.468 E7.9036
G1 X85.496 Y93.518 E7.92481
G1 X85.805 Y93.599 E7.95031
G1 X86.077 Y93.687 E7.97313
G1 X86.315 Y93.782 E7.99359
G1 X86.615 Y93.923 E8.02005
G1 X86.838 Y94.047 E8.04041
G1 X87.084 Y94.204 E8.06371
G1 X87.337 Y94.39 E8.08877
G1 X87.55 Y94.568 E8.11093
G1 X88.204 Y95.185 E8.1827
G1 X88.771 Y95.602 E8.23889
G1 X89.382 Y95.941 E8.29466
G1 X90.242 Y96.282 E8.36851
G1 X90.542 Y96.423 E8.39497
G1 X90.765 Y96.547 E8.41534
G1 X91.01 Y96.704 E8.43857
G1 X91.271 Y96.895 E8.46439
G1 X91.469 Y97.061 E8.48501
G1 X91.683 Y97.262 E8.50845
G1 X91.883 Y97.477 E8.53189
G1 X92.078 Y97.715 E8.55645
G1 X92.231 Y97.928 E8.57738
G1 X92.395 Y98.191 E8.60212
G1 X92.521 Y98.423 E8.6232
G1 X92.657 Y98.716 E8.64898
G1 X92.76 Y98.98 E8.6716
G1 X92.845 Y99.25 E8.6942
G1 X92.963 Y99.732 E8.73381
G1 X93.122 Y100.573 E8.80213
G1 X93.273 Y101.262 E8.85843
G1 X93.393 Y101.692 E8.89407
G1 X93.384 Y101.706 E8.8954
G1 X93.63 Y102.595 E8.96903
G1 X93.893 Y103.42 E9.03815
G1 X94.198 Y104.274 E9.11054
G1 X94.479 Y104.983 E9.17142
G1 X94.779 Y105.684 E9.23228
G1 X95.114 Y106.399 E9.29531
G1 X95.474 Y107.113 E9.35914
G1 X95.764 Y107.646 E9.40758
G1 X96.235 Y108.452 E9.48209
G1 X96.649 Y109.111 E9.54422
G1 X97.07 Y109.734 E9.60424
G1 X97.501 Y110.332 E9.66308
G1 X98.035 Y111.024 E9.73285
G1 X98.391 Y111.461 E9.77785
G1 X98.985 Y112.147 E9.85028
G1 X99.548 Y112.752 E9.91625
G1 X99.982 Y113.192 E9.96558
G1 X100.639 Y113.821 E10.03819
G1 X101.114 Y114.247 E10.08912
G1 X101.839 Y114.857 E10.16475
G1 X102.404 Y115.302 E10.22216
G1 X102.932 Y115.694 E10.27465
G1 X103.703 Y116.227 E10.34947
G1 X104.307 Y116.616 E10.40682
G1 X104.875 Y116.961 E10.45987
G1 X105.775 Y117.438 E10.54118
G1 X105.78 Y117.457 E10.54275
G1 X106.368 Y117.772 E10.59599
G1 X106.918 Y118.037 E10.64473
G1 X108.477 Y118.706 E10.78015
G1 X109.212 Y118.979 E10.84274
G1 X109.691 Y119.145 E10.8832
G1 X110.703 Y119.452 E10.96762
G1 X111.341 Y119.625 E11.02039
G1 X112.039 Y119.792 E11.07768
G1 X112.803 Y119.952 E11.13999
G1 X113.522 Y120.079 E11.19827
G1 X114.207 Y120.182 E11.25356
G1 X115.111 Y120.283 E11.32617
G1 X115.865 Y120.345 E11.38656
G1 X116.867 Y120.391 E11.46663
G1 X117.579 Y120.4 E11.52347
G1 X118.314 Y120.386 E11.58215
G1 X118.829 Y120.367 E11.62329
G1 X119.586 Y120.315 E11.68386
G1 X120.705 Y120.194 E11.7737
G1 X121.43 Y120.088 E11.83219
G1 X122.201 Y119.951 E11.8947
G1 X122.942 Y119.797 E11.95511
G1 X124.069 Y119.519 E12.04777
G1 X125.226 Y119.17 E12.14424
G1 X125.942 Y118.924 E12.20467
G1 X126.51 Y118.711 E12.2531
G1 X127.239 Y118.415 E12.3159
G1 X128.104 Y118.028 E12.39155
G1 X128.794 Y117.692 E12.45281
G1 X129.189 Y117.477 E12.48871
G1 X129.202 Y117.483 E12.48985
G1 X130.147 Y116.948 E12.57653
G1 X130.831 Y116.531 E12.64048
G1 X131.421 Y116.143 E12.69685
G1 X131.947 Y115.78 E12.74786
G1 X132.593 Y115.303 E12.81196
G1 X133.197 Y114.826 E12.8734
G1 X133.926 Y114.212 E12.94948
G1 X134.37 Y113.817 E12.99692
G1 X135.06 Y113.152 E13.07341
G1 X135.55 Y112.638 E13.1301
G1 X135.561 Y112.638 E13.13098
G1 X136.007 Y112.159 E13.18322
G1 X136.601 Y111.472 E13.25572
G1 X137.007 Y110.974 E13.30701
G1 X137.433 Y110.422 E13.36267
G1 X137.915 Y109.763 E13.42784
G1 X138.368 Y109.083 E13.49306
G1 X138.837 Y108.332 E13.56374
G1 X139.22 Y107.675 E13.62444
G1 X139.676 Y106.8 E13.70321
G1 X139.672 Y106.793 E13.70385
G1 X139.928 Y106.311 E13.74742
G1 X140.317 Y105.442 E13.82342
G1 X140.325 Y105.441 E13.82406
G1 X140.494 Y105.053 E13.85784
G1 X140.789 Y104.308 E13.9218
G1 X141.084 Y103.49 E13.99122
G1 X141.361 Y102.614 E14.06456
G1 X141.515 Y102.077 E14.10915
G1 X141.745 Y101.167 E14.18407
G1 X141.929 Y100.314 E14.25373
G1 X142.036 Y99.742 E14.30018
G1 X142.164 Y99.222 E14.34293
G1 X142.245 Y98.97 E14.36406
G1 X142.359 Y98.679 E14.38901
G1 X142.482 Y98.415 E14.41225
G1 X142.621 Y98.162 E14.4353
G1 X142.772 Y97.924 E14.4578
G1 X142.948 Y97.681 E14.48175
G1 X143.123 Y97.468 E14.50375
G1 X143.321 Y97.257 E14.52685
G1 X143.542 Y97.051 E14.55097
G1 X143.773 Y96.861 E14.57484
G1 X143.997 Y96.7 E14.59686
G1 X144.251 Y96.538 E14.62091
G1 X144.503 Y96.402 E14.64377
G1 X144.764 Y96.28 E14.66677
G1 X145.05 Y96.168 E14.69128
G1 X145.302 Y96.086 E14.71244
G1 X145.609 Y96.011 E14.73766
G1 X145.862 Y95.964 E14.75821
G1 X146.168 Y95.926 E14.78282
G1 X146.672 Y95.9 E14.8231
G1 X149.027 Y95.9 E15.01109
G1 X149.54 Y95.93 E15.05211
G1 X149.842 Y95.968 E15.07641
G1 X150.103 Y96.018 E15.09762
G1 X150.407 Y96.097 E15.12269
G1 X150.677 Y96.186 E15.14539
G1 X150.932 Y96.287 E15.16728
G1 X151.222 Y96.424 E15.19288
G1 X151.445 Y96.547 E15.21321
G1 X151.69 Y96.704 E15.23644
G1 X151.949 Y96.894 E15.26208
G1 X152.277 Y97.149 E15.29524
G1 X152.278 Y97.168 E15.29676
G1 X152.592 Y97.419 E15.32885
G1 X153.142 Y97.773 E15.38106
G1 X153.755 Y98.068 E15.43537
G1 X154.397 Y98.283 E15.48941
G1 X155.084 Y98.416 E15.54527
G1 X155.482 Y98.468 E15.57731
G1 X155.743 Y98.518 E15.59852
G1 X156.047 Y98.597 E15.62359
G1 X156.317 Y98.686 E15.64629
G1 X156.572 Y98.787 E15.66818
G1 X156.862 Y98.924 E15.69378
G1 X157.085 Y99.047 E15.71411
G1 X157.33 Y99.204 E15.73734
G1 X157.591 Y99.395 E15.76316
G1 X157.789 Y99.561 E15.78378
G1 X158.004 Y99.763 E15.80733
G1 X158.203 Y99.977 E15.83066
G1 X158.398 Y100.215 E15.85522
G1 X158.555 Y100.435 E15.87679
G1 X158.726 Y100.709 E15.90258
G1 X158.925 Y101.078 E15.93604
G1 X159.071 Y101.431 E15.96653
G1 X159.355 Y102.176 E16.03018
G1 X159.6 Y102.776 E16.08191
G1 X159.904 Y103.459 E16.14159
G1 X160.216 Y104.108 E16.19907
G1 X160.462 Y104.567 E16.24064
G1 X160.454 Y104.582 E16.242
G1 X161.246 Y105.975 E16.36991
G1 X161.848 Y106.91 E16.45867
G1 X162.256 Y107.498 E16.5158
G1 X162.674 Y108.064 E16.57197
G1 X163.177 Y108.7 E16.6367
G1 X163.559 Y109.161 E16.68449
G1 X164.036 Y109.704 E16.74218
G1 X164.528 Y110.235 E16.79997
G1 X165.211 Y110.916 E16.87696
G1 X165.634 Y111.317 E16.92348
G1 X166.16 Y111.776 E16.97921
G1 X166.16 Y111.793 E16.98057
G1 X166.778 Y112.308 E17.04478
G1 X167.392 Y112.792 E17.10719
G1 X168.105 Y113.317 E17.17787
G1 X168.696 Y113.725 E17.2352
G1 X169.358 Y114.148 E17.29791
G1 X170.1 Y114.589 E17.36681
G1 X170.638 Y114.891 E17.41606
G1 X171.139 Y115.158 E17.46137
G1 X171.912 Y115.535 E17.53002
G1 X172.666 Y115.875 E17.59605
G1 X173.391 Y116.173 E17.65862
G1 X174.165 Y116.451 E17.72427
G1 X174.169 Y116.462 E17.7252
G1 X174.635 Y116.623 E17.76456
G1 X175.566 Y116.914 E17.84242
G1 X176.212 Y117.092 E17.89591
G1 X176.984 Y117.28 E17.95933
G1 X178.149 Y117.518 E18.05425
G1 X179.631 Y117.736 E18.17382
G1 X180.701 Y117.835 E18.2596
G1 X181.455 Y117.877 E18.31988
G1 X182.064 Y117.895 E18.36851
G1 X182.934 Y117.896 E18.43796
G1 X183.561 Y117.88 E18.48803
G1 X184.3 Y117.835 E18.54713
G1 X185.103 Y117.762 E18.61149
G1 X185.819 Y117.677 E18.66904
G1 X186.522 Y117.573 E18.72577
G1 X187.424 Y117.407 E18.79898
G1 X188.024 Y117.278 E18.84797
G1 X188.803 Y117.087 E18.912
G1 X189.488 Y116.899 E18.9687
G1 X189.984 Y116.749 E19.01006
G1 X191.068 Y116.378 E19.10152
G1 X191.615 Y116.17 E19.14823
G1 X192.357 Y115.866 E19.21224
G1 X193.142 Y115.51 E19.28105
G1 X193.831 Y115.173 E19.34227
G1 X194.21 Y114.965 E19.37678
G1 X194.224 Y114.972 E19.37803
G1 X195.162 Y114.44 E19.46411
G1 X195.776 Y114.065 E19.52154
G1 X196.294 Y113.729 E19.57083
G1 X197.053 Y113.205 E19.64445
G1 X197.527 Y112.854 E19.69153
G1 X198.113 Y112.396 E19.7509
G1 X198.707 Y111.902 E19.81257
G1 X199.374 Y111.309 E19.88381
G1 X199.805 Y110.902 E19.93113
G1 X200.357 Y110.352 E19.99333
G1 X200.961 Y109.708 E20.06381
G1 X201.354 Y109.264 E20.11114
G1 X201.853 Y108.666 E20.17332
G1 X202.327 Y108.064 E20.23448
G1 X202.761 Y107.475 E20.29288
G1 X203.17 Y106.885 E20.35019
G1 X203.673 Y106.102 E20.42447
G1 X204.102 Y105.378 E20.49165
G1 X204.358 Y104.924 E20.53325
G1 X204.711 Y104.255 E20.59364
G1 X205.09 Y103.477 E20.66272
G1 X205.407 Y102.759 E20.72537
G1 X205.696 Y102.05 E20.78648
G1 X205.918 Y101.458 E20.83695
G1 X206.127 Y100.986 E20.87816
G1 X206.267 Y100.719 E20.90222
G1 X206.418 Y100.475 E20.92513
G1 X206.576 Y100.249 E20.94714
G1 X206.77 Y100.008 E20.97184
G1 X206.973 Y99.787 E20.99579
G1 X207.168 Y99.601 E21.0173
G1 X207.396 Y99.406 E21.04125
G1 X207.633 Y99.229 E21.06486
G1 X207.864 Y99.08 E21.08681
G1 X208.124 Y98.933 E21.11065
G1 X208.377 Y98.809 E21.13314
G1 X208.666 Y98.692 E21.15803
G1 X208.928 Y98.604 E21.18009
G1 X209.358 Y98.482 E21.21577
G1 X209.367 Y98.489 E21.21668
G1 X209.912 Y98.414 E21.26059
G1 X210.286 Y98.4 E21.29047
G1 X212.817 Y98.401 E21.4925
G1 X213.33 Y98.43 E21.53352
G1 X213.632 Y98.468 E21.55781
G1 X213.893 Y98.518 E21.57903
G1 X214.197 Y98.597 E21.6041
G1 X214.467 Y98.686 E21.62679
G1 X214.722 Y98.787 E21.64869
G1 X215.012 Y98.924 E21.67429
G1 X215.235 Y99.047 E21.69462
G1 X215.48 Y99.204 E21.71785
G1 X215.741 Y99.395 E21.74366
G1 X215.939 Y99.561 E21.76429
G1 X216.154 Y99.763 E21.78784
G1 X216.353 Y99.977 E21.81116
G1 X216.547 Y100.215 E21.83567
G1 X216.702 Y100.431 E21.8569
G1 X216.939 Y100.808 E21.89244
G1 X217.124 Y101.209 E21.92769
G1 X217.229 Y101.478 E21.95074
G1 X217.318 Y101.756 E21.97405
G1 X217.384 Y102.023 E21.996
G1 X217.438 Y102.315 E22.0197
G1 X217.473 Y102.611 E22.0435
G1 X217.487 Y102.906 E22.06707
G1 X217.487 Y103.323 E22.10036
G1 X217.425 Y103.757 E22.13535
G1 X217.364 Y104.06 E22.16003
G1 X217.266 Y104.425 E22.19019
G1 X216.895 Y105.512 E22.28188
G1 X216.573 Y106.361 E22.35436
G1 X216.178 Y107.328 E22.43774
G1 X215.692 Y108.418 E22.53301
G1 X215.234 Y109.371 E22.61741
G1 X214.756 Y110.294 E22.70038
G1 X214.242 Y111.218 E22.78478
G1 X213.781 Y111.998 E22.8571
G1 X213.232 Y112.874 E22.93963
G1 X212.648 Y113.751 E23.02374
G1 X212.162 Y114.436 E23.09078
G1 X211.428 Y115.42 E23.18877
G1 X210.751 Y116.267 E23.27533
G1 X210.13 Y117 E23.35201
G1 X209.277 Y117.95 E23.45393
G1 X208.657 Y118.599 E23.52558
G1 X207.689 Y119.549 E23.63384
G1 X207.032 Y120.16 E23.70546
G1 X206.385 Y120.729 E23.77424
G1 X205.442 Y121.514 E23.87218
G1 X204.596 Y122.175 E23.95788
G1 X203.744 Y122.802 E24.04232
G1 X203.023 Y123.303 E24.11241
G1 X202.152 Y123.877 E24.19567
G1 X201.109 Y124.515 E24.29327
G1 X200.217 Y125.025 E24.37529
G1 X199.418 Y125.455 E24.44772
G1 X198.154 Y126.092 E24.56071
G1 X198.14 Y126.085 E24.56196
G1 X197.54 Y126.367 E24.61488
G1 X196.579 Y126.783 E24.69847
G1 X195.598 Y127.175 E24.78279
G1 X194.623 Y127.533 E24.8657
G1 X193.77 Y127.821 E24.93757
G1 X193.352 Y127.952 E24.97254
G1 X192.732 Y128.183 E25.02535
G1 X192.108 Y128.511 E25.08162
G1 X191.57 Y128.888 E25.13406
G1 X191.044 Y129.366 E25.1908
G1 X190.622 Y129.858 E25.24254
G1 X190.251 Y130.416 E25.29603
G1 X189.934 Y131.063 E25.35354
G1 X189.725 Y131.673 E25.40501
G1 X189.574 Y132.419 E25.46577
G1 X189.535 Y132.719 E25.48992
G1 X189.482 Y132.996 E25.51243
