;FLAVOR:Marlin
;TIME:4461
;Filament used: 9.98305m
;Layer height: 0.4
;MINX:81.4
;MINY:81.4
;MINZ:0.24
;MAXX:153.6
;MAXY:153.6
;MAXZ:11.39
;Generated with Cura_SteamEngine 5.3.1
M140 S60
M105
M190 S60
M104 S215
M105
M109 S215
M82 ;absolute extrusion mode
; Ender 3 Custom Start G-code
G92 E0 ; Reset Extruder
G28 ; Home all axes
G1 Z2.0 F3000 ; Move Z Axis up little to prevent scratching of Heat Bed
G1 X0.1 Y20 Z0.3 F5000.0 ; Move to start position
G1 X0.1 Y200.0 Z0.3 F1500.0 E15 ; Draw the first line
G1 X0.4 Y200.0 Z0.3 F5000.0 ; Move to side a little
G1 X0.4 Y20 Z0.3 F1500.0 E30 ; Draw the second line
G92 E0 ; Reset Extruder
G1 Z2.0 F3000 ; Move Z Axis up little to prevent scratching of Heat Bed
G1 X5 Y20 Z0.3 F5000.0 ; Move over to prevent blob squish
G92 E0
G92 E0
G1 F2700 E-5
;LAYER_COUNT:26
;LAYER:-5
M107
G0 F15000 X82.436 Y82.478 Z0.24
;TYPE:SUPPORT-INTERFACE
G1 F2700 E0
G1 F2250 X82.828 Y82.136 E0.04153
G1 X83.231 Y81.869 E0.08012
G1 X83.702 Y81.648 E0.12165
G1 X84.197 Y81.495 E0.163
G1 X84.62 Y81.43 E0.19716
G1 X85.004 Y81.4 E0.22791
G1 X149.881 Y81.4 E5.40667
G1 X150.362 Y81.429 E5.44514
G1 X150.749 Y81.482 E5.47632
G1 X151.244 Y81.625 E5.51745
G1 X151.701 Y81.831 E5.55746
G1 X152.125 Y82.099 E5.5975
G1 X152.522 Y82.437 E5.63912
G1 X152.864 Y82.828 E5.68059
G1 X153.137 Y83.242 E5.72017
G1 X153.353 Y83.701 E5.76067
G1 X153.504 Y84.192 E5.80167
G1 X153.569 Y84.619 E5.83615
G1 X153.6 Y85.093 E5.87407
G1 X153.6 Y149.881 E11.04573
G1 X153.572 Y150.361 E11.08411
G1 X153.518 Y150.751 E11.11554
G1 X153.374 Y151.245 E11.15661
G1 X153.169 Y151.7 E11.19645
G1 X152.901 Y152.125 E11.23655
G1 X152.563 Y152.522 E11.27817
G1 X152.171 Y152.865 E11.31975
G1 X151.773 Y153.128 E11.35783
G1 X151.299 Y153.353 E11.39972
G1 X150.803 Y153.505 E11.44113
G1 X150.38 Y153.57 E11.47529
G1 X149.996 Y153.599 E11.50603
G1 X85.119 Y153.6 E16.68479
G1 X84.638 Y153.571 E16.72326
G1 X84.251 Y153.518 E16.75444
G1 X83.762 Y153.376 E16.79508
G1 X83.302 Y153.171 E16.83528
G1 X82.861 Y152.891 E16.87698
G1 X82.477 Y152.562 E16.91735
G1 X82.139 Y152.177 E16.95824
G1 X81.863 Y151.758 E16.99829
G1 X81.646 Y151.297 E17.03896
G1 X81.496 Y150.801 E17.08033
G1 X81.431 Y150.381 E17.11425
G1 X81.401 Y149.907 E17.15217
G1 X81.4 Y85.119 E22.32382
G1 X81.429 Y84.637 E22.36237
G1 X81.481 Y84.253 E22.3933
G1 X81.626 Y83.756 E22.43463
G1 X81.831 Y83.299 E22.47461
G1 X82.099 Y82.876 E22.51458
G1 X82.436 Y82.478 E22.55621
G0 F15000 X82.742 Y82.742
G1 F2250 X152.257 Y152.257 E30.40366
G1 F2700 E25.40366
G1 F300 Z0.44
G0 F15000 X150.818 Y153.08 Z0.44
G1 F300 Z0.24
G1 F2700 E30.40366
G1 F2250 X81.918 Y84.181 E38.18164
G1 F2700 E33.18164
G1 F300 Z0.44
G0 F15000 X81.8 Y86.325 Z0.44
G1 F300 Z0.24
G1 F2700 E38.18164
G1 F2250 X148.672 Y153.198 E45.73078
G1 F2700 E40.73078
G1 F300 Z0.44
G0 F15000 X146.409 Y153.198 Z0.44
G1 F300 Z0.24
G1 F2700 E45.73078
G1 F2250 X81.8 Y88.588 E53.02446
G1 F2700 E48.02446
G1 F300 Z0.44
G0 F15000 X81.8 Y90.851 Z0.44
G1 F300 Z0.24
G1 F2700 E53.02446
G1 F2250 X144.147 Y153.198 E60.06273
G1 F2700 E55.06273
G1 F300 Z0.44
G0 F15000 X141.884 Y153.198 Z0.44
G1 F300 Z0.24
G1 F2700 E60.06273
G1 F2250 X81.8 Y93.113 E66.84559
G1 F2700 E61.84559
G1 F300 Z0.44
G0 F15000 X81.8 Y95.376 Z0.44
G1 F300 Z0.24
G1 F2700 E66.84559
G1 F2250 X139.621 Y153.198 E73.37298
G1 F2700 E68.37298
G1 F300 Z0.44
G0 F15000 X137.359 Y153.198 Z0.44
G1 F300 Z0.24
G1 F2700 E73.37298
G1 F2250 X81.8 Y97.639 E79.64496
G1 F2700 E74.64496
G1 F300 Z0.44
G0 F15000 X81.8 Y99.902 Z0.44
G1 F300 Z0.24
G1 F2700 E79.64496
G1 F2250 X135.096 Y153.198 E85.66147
G1 F2700 E80.66147
G1 F300 Z0.44
G0 F15000 X132.833 Y153.198 Z0.44
G1 F300 Z0.24
G1 F2700 E85.66147
G1 F2250 X81.8 Y102.164 E91.42257
G1 F2700 E86.42257
G1 F300 Z0.44
G0 F15000 X81.8 Y104.427 Z0.44
G1 F300 Z0.24
G1 F2700 E91.42257
G1 F2250 X130.57 Y153.198 E96.92821
G1 F2700 E91.92821
G1 F300 Z0.44
G0 F15000 X128.308 Y153.198 Z0.44
G1 F300 Z0.24
G1 F2700 E96.92821
G1 F2250 X81.8 Y106.69 E102.17843
G1 F2700 E97.17843
G1 F300 Z0.44
G0 F15000 X81.8 Y108.953 Z0.44
G1 F300 Z0.24
G1 F2700 E102.17843
G1 F2250 X126.045 Y153.198 E107.17319
G1 F2700 E102.17319
G1 F300 Z0.44
G0 F15000 X123.782 Y153.198 Z0.44
G1 F300 Z0.24
G1 F2700 E107.17319
G1 F2250 X81.8 Y111.215 E111.91254
G1 F2700 E106.91254
G1 F300 Z0.44
G0 F15000 X81.8 Y113.478 Z0.44
G1 F300 Z0.24
G1 F2700 E111.91254
G1 F2250 X121.519 Y153.198 E116.39642
G1 F2700 E111.39642
G1 F300 Z0.44
G0 F15000 X119.257 Y153.198 Z0.44
G1 F300 Z0.24
G1 F2700 E116.39642
G1 F2250 X81.8 Y115.741 E120.62489
G1 F2700 E115.62489
G1 F300 Z0.44
G0 F15000 X81.8 Y118.004 Z0.44
G1 F300 Z0.24
G1 F2700 E120.62489
G1 F2250 X116.995 Y153.198 E124.59795
G1 F2700 E119.59795
G1 F300 Z0.44
G0 F15000 X114.732 Y153.198 Z0.44
G1 F300 Z0.24
G1 F2700 E124.59795
G1 F2250 X81.8 Y120.266 E128.3156
G1 F2700 E123.3156
G1 F300 Z0.44
G0 F15000 X81.8 Y122.529 Z0.44
G1 F300 Z0.24
G1 F2700 E128.3156
G1 F2250 X112.469 Y153.198 E131.77778
G1 F2700 E126.77778
G1 F300 Z0.44
G0 F15000 X110.206 Y153.198 Z0.44
G1 F300 Z0.24
G1 F2700 E131.77778
G1 F2250 X81.8 Y124.792 E134.98449
G1 F2700 E129.98449
G1 F300 Z0.44
G0 F15000 X81.8 Y127.055 Z0.44
G1 F300 Z0.24
G1 F2700 E134.98449
G1 F2250 X107.944 Y153.198 E137.9358
G1 F2700 E132.9358
G1 F300 Z0.44
G0 F15000 X105.681 Y153.198 Z0.44
G1 F300 Z0.24
G1 F2700 E137.9358
G1 F2250 X81.8 Y129.317 E140.63169
G1 F2700 E135.63169
G1 F300 Z0.44
G0 F15000 X81.8 Y131.58 Z0.44
G1 F300 Z0.24
G1 F2700 E140.63169
G1 F2250 X103.418 Y153.198 E143.07212
G1 F2700 E138.07212
G1 F300 Z0.44
G0 F15000 X101.155 Y153.198 Z0.44
G1 F300 Z0.24
G1 F2700 E143.07212
G1 F2250 X81.8 Y133.843 E145.25708
G1 F2700 E140.25708
G1 F300 Z0.44
G0 F15000 X81.8 Y136.106 Z0.44
G1 F300 Z0.24
G1 F2700 E145.25708
G1 F2250 X98.893 Y153.198 E147.18663
G1 F2700 E142.18663
G1 F300 Z0.44
G0 F15000 X96.63 Y153.198 Z0.44
G1 F300 Z0.24
G1 F2700 E147.18663
G1 F2250 X81.8 Y138.368 E148.86076
G1 F2700 E143.86076
G1 F300 Z0.44
G0 F15000 X81.8 Y140.631 Z0.44
G1 F300 Z0.24
G1 F2700 E148.86076
G1 F2250 X94.367 Y153.198 E150.27944
G1 F2700 E145.27944
G1 F300 Z0.44
G0 F15000 X92.104 Y153.198 Z0.44
G1 F300 Z0.24
G1 F2700 E150.27944
G1 F2250 X81.8 Y142.894 E151.44264
G1 F2700 E146.44264
G1 F300 Z0.44
G0 F15000 X81.8 Y145.157 Z0.44
G1 F300 Z0.24
G1 F2700 E151.44264
G1 F2250 X89.842 Y153.198 E152.35043
G1 F2700 E147.35043
G1 F300 Z0.44
G0 F15000 X87.579 Y153.198 Z0.44
G1 F300 Z0.24
G1 F2700 E152.35043
G1 F2250 X81.8 Y147.419 E153.00282
G1 F2700 E148.00282
G1 F300 Z0.44
G0 F15000 X81.8 Y149.682 Z0.44
G1 F300 Z0.24
G1 F2700 E153.00282
G1 F2250 X85.316 Y153.198 E153.39973
G1 F2700 E148.39973
G1 F300 Z0.44
G0 F15000 X153.081 Y150.818 Z0.44
G1 F300 Z0.24
G1 F2700 E153.39973
G1 F2250 X84.181 Y81.919 E161.17771
G1 F2700 E156.17771
G1 F300 Z0.44
G0 F15000 X86.325 Y81.799 Z0.44
G1 F300 Z0.24
G1 F2700 E161.17771
G1 F2250 X153.198 Y148.673 E168.72696
G1 F2700 E163.72696
G1 F300 Z0.44
G0 F15000 X153.198 Y146.41 Z0.44
G1 F300 Z0.24
G1 F2700 E168.72696
G1 F2250 X88.587 Y81.799 E176.02081
G1 F2700 E171.02081
G1 F300 Z0.44
G0 F15000 X90.85 Y81.799 Z0.44
G1 F300 Z0.24
G1 F2700 E176.02081
G1 F2250 X153.198 Y144.147 E183.05919
G1 F2700 E178.05919
G1 F300 Z0.44
G0 F15000 X153.198 Y141.885 Z0.44
G1 F300 Z0.24
G1 F2700 E183.05919
G1 F2250 X93.113 Y81.799 E189.84216
G1 F2700 E184.84216
G1 F300 Z0.44
G0 F15000 X95.375 Y81.799 Z0.44
G1 F300 Z0.24
G1 F2700 E189.84216
G1 F2250 X153.198 Y139.622 E196.36972
G1 F2700 E191.36972
G1 F300 Z0.44
G0 F15000 X153.198 Y137.359 Z0.44
G1 F300 Z0.24
G1 F2700 E196.36972
G1 F2250 X97.638 Y81.799 E202.64182
G1 F2700 E197.64182
G1 F300 Z0.44
G0 F15000 X99.901 Y81.799 Z0.44
G1 F300 Z0.24
G1 F2700 E202.64182
G1 F2250 X153.198 Y135.096 E208.65844
G1 F2700 E203.65844
G1 F300 Z0.44
G0 F15000 X153.198 Y132.834 Z0.44
G1 F300 Z0.24
G1 F2700 E208.65844
G1 F2250 X102.164 Y81.799 E214.41966
G1 F2700 E209.41966
G1 F300 Z0.44
G0 F15000 X104.426 Y81.799 Z0.44
G1 F300 Z0.24
G1 F2700 E214.41966
G1 F2250 X153.198 Y130.571 E219.92546
G1 F2700 E214.92546
G1 F300 Z0.44
G0 F15000 X153.198 Y128.308 Z0.44
G1 F300 Z0.24
G1 F2700 E219.92546
G1 F2250 X106.689 Y81.799 E225.1758
G1 F2700 E220.1758
G1 F300 Z0.44
G0 F15000 X108.952 Y81.799 Z0.44
G1 F300 Z0.24
G1 F2700 E225.1758
G1 F2250 X153.198 Y126.046 E230.17073
G1 F2700 E225.17073
G1 F300 Z0.44
G0 F15000 X153.198 Y123.783 Z0.44
G1 F300 Z0.24
G1 F2700 E230.17073
G1 F2250 X111.215 Y81.799 E234.91019
G1 F2700 E229.91019
G1 F300 Z0.44
G0 F15000 X113.477 Y81.799 Z0.44
G1 F300 Z0.24
G1 F2700 E234.91019
G1 F2250 X153.198 Y121.52 E239.39424
G1 F2700 E234.39424
G1 F300 Z0.44
G0 F15000 X153.198 Y119.257 Z0.44
G1 F300 Z0.24
G1 F2700 E239.39424
G1 F2250 X115.74 Y81.799 E243.62282
G1 F2700 E238.62282
G1 F300 Z0.44
G0 F15000 X118.003 Y81.799 Z0.44
G1 F300 Z0.24
G1 F2700 E243.62282
G1 F2250 X153.198 Y116.995 E247.59599
G1 F2700 E242.59599
G1 F300 Z0.44
G0 F15000 X153.198 Y114.732 Z0.44
G1 F300 Z0.24
G1 F2700 E247.59599
G1 F2250 X120.266 Y81.799 E251.3137
G1 F2700 E246.3137
G1 F300 Z0.44
G0 F15000 X122.528 Y81.799 Z0.44
G1 F300 Z0.24
G1 F2700 E251.3137
G1 F2250 X153.198 Y112.469 E254.77599
G1 F2700 E249.77599
G1 F300 Z0.44
G0 F15000 X153.198 Y110.206 Z0.44
G1 F300 Z0.24
G1 F2700 E254.77599
G1 F2250 X124.791 Y81.799 E257.98282
G1 F2700 E252.98282
G1 F300 Z0.44
G0 F15000 X127.054 Y81.799 Z0.44
G1 F300 Z0.24
G1 F2700 E257.98282
G1 F2250 X153.198 Y107.944 E260.93424
G1 F2700 E255.93424
G1 F300 Z0.44
G0 F15000 X153.198 Y105.681 Z0.44
G1 F300 Z0.24
G1 F2700 E260.93424
G1 F2250 X129.317 Y81.799 E263.63019
G1 F2700 E258.63019
G1 F300 Z0.44
G0 F15000 X131.579 Y81.799 Z0.44
G1 F300 Z0.24
G1 F2700 E263.63019
G1 F2250 X153.198 Y103.418 E266.07073
G1 F2700 E261.07073
G1 F300 Z0.44
G0 F15000 X153.198 Y101.155 Z0.44
G1 F300 Z0.24
G1 F2700 E266.07073
G1 F2250 X133.842 Y81.799 E268.2558
G1 F2700 E263.2558
G1 F300 Z0.44
G0 F15000 X136.105 Y81.799 Z0.44
G1 F300 Z0.24
G1 F2700 E268.2558
G1 F2250 X153.198 Y98.893 E270.18546
G1 F2700 E265.18546
G1 F300 Z0.44
G0 F15000 X153.198 Y96.63 Z0.44
G1 F300 Z0.24
G1 F2700 E270.18546
G1 F2250 X138.368 Y81.799 E271.85966
G1 F2700 E266.85966
G1 F300 Z0.44
G0 F15000 X140.63 Y81.799 Z0.44
G1 F300 Z0.24
G1 F2700 E271.85966
G1 F2250 X153.198 Y94.367 E273.27844
G1 F2700 E268.27844
G1 F300 Z0.44
G0 F15000 X153.198 Y92.104 Z0.44
G1 F300 Z0.24
G1 F2700 E273.27844
G1 F2250 X142.893 Y81.799 E274.44176
G1 F2700 E269.44176
G1 F300 Z0.44
G0 F15000 X145.156 Y81.799 Z0.44
G1 F300 Z0.24
G1 F2700 E274.44176
G1 F2250 X153.198 Y89.842 E275.34967
G1 F2700 E270.34967
G1 F300 Z0.44
G0 F15000 X153.198 Y87.579 Z0.44
G1 F300 Z0.24
G1 F2700 E275.34967
G1 F2250 X147.419 Y81.799 E276.00211
G1 F2700 E271.00211
G1 F300 Z0.44
G0 F15000 X149.681 Y81.799 Z0.44
G1 F300 Z0.24
G1 F2700 E276.00211
G1 F2250 X153.198 Y85.316 E276.39913
G1 F2700 E271.39913
G1 F300 Z0.44
G0 F15000 X153.015 Y151.04 Z0.44
;TIME_ELAPSED:127.182756
;LAYER:-4
G0 X153.015 Y151.04 Z1.04
;TYPE:SUPPORT
G1 F300 Z0.84
G1 F2700 E276.39913
G1 F2250 X151.043 Y153.012 E276.95568
G1 X151.149 Y152.979 E276.97783
G1 X151.579 Y152.776 E277.07272
G1 X151.923 Y152.551 E277.15475
G1 X152.285 Y152.233 E277.25091
G1 X152.568 Y151.899 E277.33827
G1 X152.811 Y151.517 E277.42862
G1 X152.998 Y151.101 E277.51964
G1 X153.123 Y150.661 E277.61092
G1 X153.175 Y150.306 E277.68252
G1 X153.198 Y149.884 E277.76686
G1 X153.198 Y149.442 E277.85507
G1 X149.442 Y153.198 E278.91509
G1 X148.028 Y153.198 E279.19727
G1 X153.198 Y148.028 E280.65635
G1 X153.198 Y146.614 E280.93853
G1 X146.614 Y153.198 E282.79668
G1 X145.2 Y153.198 E283.07886
G1 X153.198 Y145.2 E285.33607
G1 X153.198 Y143.785 E285.61845
G1 X143.785 Y153.198 E288.275
G1 X142.371 Y153.198 E288.55718
G1 X153.198 Y142.371 E291.61279
G1 X153.198 Y140.957 E291.89497
G1 X140.957 Y153.198 E295.34964
G1 X139.543 Y153.198 E295.63182
G1 X153.198 Y139.543 E299.48556
G1 X153.198 Y138.129 E299.76774
G1 X138.129 Y153.198 E304.02054
G1 X136.714 Y153.198 E304.30291
G1 X153.198 Y136.714 E308.95506
G1 X153.198 Y135.3 E309.23723
G1 X135.3 Y153.198 E314.28844
G1 X133.886 Y153.198 E314.57062
G1 X153.198 Y133.886 E320.02088
G1 X153.198 Y132.472 E320.30306
G1 X132.472 Y153.198 E326.15238
G1 X131.057 Y153.198 E326.43476
G1 X153.198 Y131.057 E332.68343
G1 X153.198 Y129.643 E332.96561
G1 X129.643 Y153.198 E339.61334
G1 X128.229 Y153.198 E339.89552
G1 X153.198 Y128.229 E346.94231
G1 X153.198 Y126.815 E347.22449
G1 X126.815 Y153.198 E354.67034
G1 X125.401 Y153.198 E354.95252
G1 X153.198 Y125.401 E362.79743
G1 X153.198 Y123.986 E363.07981
G1 X123.986 Y153.198 E371.32407
G1 X122.572 Y153.198 E371.60625
G1 X153.198 Y122.572 E380.24957
G1 X153.198 Y121.158 E380.53175
G1 X121.158 Y153.198 E389.57413
G1 X119.744 Y153.198 E389.85631
G1 X153.198 Y119.744 E399.29775
G1 X153.198 Y118.33 E399.57993
G1 X118.33 Y153.198 E409.42043
G1 X116.915 Y153.198 E409.70281
G1 X153.198 Y116.915 E419.94265
G1 X153.198 Y115.501 E420.22483
G1 X115.501 Y153.198 E430.86374
G1 X114.087 Y153.198 E431.14592
G1 X153.198 Y114.087 E442.18389
G1 X153.198 Y112.673 E442.46607
G1 X112.673 Y153.198 E453.9031
G1 X111.259 Y153.198 E454.18528
G1 X153.198 Y111.259 E466.02137
G1 X153.198 Y109.844 E466.30375
G1 X109.844 Y153.198 E478.53918
G1 X108.43 Y153.198 E478.82136
G1 X153.198 Y108.43 E491.45586
G1 X153.198 Y107.016 E491.73804
G1 X107.016 Y153.198 E504.7716
G1 X105.602 Y153.198 E505.05378
G1 X153.198 Y105.602 E518.4864
G1 X153.198 Y104.187 E518.76877
G1 X104.187 Y153.198 E532.60074
G1 X102.773 Y153.198 E532.88292
G1 X153.198 Y102.773 E547.11394
G1 X153.198 Y101.359 E547.39612
G1 X101.359 Y153.198 E562.02621
G1 X99.945 Y153.198 E562.30838
G1 X153.198 Y99.945 E577.33753
G1 X153.198 Y98.531 E577.61971
G1 X98.531 Y153.198 E593.04792
G1 X97.116 Y153.198 E593.3303
G1 X153.198 Y97.116 E609.15785
G1 X153.198 Y95.702 E609.44003
G1 X95.702 Y153.198 E625.66664
G1 X94.288 Y153.198 E625.94882
G1 X153.198 Y94.288 E642.5745
G1 X153.198 Y92.874 E642.85667
G1 X92.874 Y153.198 E659.88141
G1 X91.46 Y153.198 E660.16359
G1 X153.198 Y91.46 E677.58739
G1 X153.198 Y90.045 E677.86977
G1 X90.045 Y153.198 E695.69291
G1 X88.631 Y153.198 E695.97509
G1 X153.198 Y88.631 E714.19729
G1 X153.198 Y87.217 E714.47947
G1 X87.217 Y153.198 E733.10073
G1 X85.803 Y153.198 E733.38291
G1 X153.198 Y85.803 E752.40323
G1 X153.198 Y85.11 E752.54153
G1 X153.169 Y84.643 E752.6349
G1 X153.138 Y84.449 E752.67411
G1 X84.436 Y153.151 E772.0633
G1 X83.898 Y152.998 E772.17492
G1 X83.399 Y152.774 E772.28407
G1 X152.767 Y83.406 E791.86122
G1 X152.55 Y83.075 E791.94021
G1 X152.145 Y82.613 E792.06281
G1 X82.63 Y152.129 E811.68159
G1 X82.445 Y151.92 E811.73729
G1 X82.218 Y151.569 E811.82071
G1 X82.075 Y151.269 E811.88703
G1 X151.269 Y82.075 E831.41507
G1 X151.103 Y82.001 E831.45134
G1 X150.661 Y81.875 E831.54306
G1 X150.132 Y81.798 E831.64974
G1 X81.799 Y150.131 E850.93479
G1 X81.8 Y148.716 E851.21717
G1 X148.716 Y81.8 E870.10231
G1 X147.302 Y81.8 E870.38449
G1 X81.8 Y147.302 E888.87057
G1 X81.8 Y145.888 E889.15275
G1 X145.888 Y81.8 E907.23976
G1 X144.473 Y81.8 E907.52214
G1 X81.8 Y144.473 E925.20982
G1 X81.8 Y143.059 E925.492
G1 X143.059 Y81.8 E942.78061
G1 X141.645 Y81.8 E943.06279
G1 X81.8 Y141.645 E959.95234
G1 X81.8 Y140.231 E960.23452
G1 X140.231 Y81.8 E976.72501
G1 X138.817 Y81.8 E977.00719
G1 X81.8 Y138.817 E993.09862
G1 X81.8 Y137.402 E993.381
G1 X137.402 Y81.8 E1009.07308
G1 X135.988 Y81.8 E1009.35526
G1 X81.8 Y135.988 E1024.64829
G1 X81.8 Y134.574 E1024.93047
G1 X134.574 Y81.8 E1039.82443
G1 X133.16 Y81.8 E1040.10661
G1 X81.8 Y133.16 E1054.60151
G1 X81.8 Y131.746 E1054.88369
G1 X131.746 Y81.8 E1068.97953
G1 X130.331 Y81.8 E1069.26191
G1 X81.8 Y130.331 E1082.9584
G1 X81.8 Y128.917 E1083.24058
G1 X128.917 Y81.8 E1096.53802
G1 X127.503 Y81.8 E1096.8202
G1 X81.8 Y127.503 E1109.71857
G1 X81.8 Y126.089 E1110.00075
G1 X126.089 Y81.8 E1122.50006
G1 X124.674 Y81.8 E1122.78244
G1 X81.8 Y124.674 E1134.88241
G1 X81.8 Y123.26 E1135.16459
G1 X123.26 Y81.8 E1146.8655
G1 X121.846 Y81.8 E1147.14768
G1 X81.8 Y121.846 E1158.44952
G1 X81.8 Y120.432 E1158.7317
G1 X120.432 Y81.8 E1169.63449
G1 X119.018 Y81.8 E1169.91667
G1 X81.8 Y119.018 E1180.42039
G1 X81.8 Y117.603 E1180.70277
