;FLAVOR:Marlin
;TIME:421
;Filament used: 0.707136m
;Layer height: 0.4
;MINX:85.642
;MINY:101.9
;MINZ:0.24
;MAXX:149.362
;MAXY:133.1
;MAXZ:6.59
;Generated with Cura_SteamEngine 5.3.1
M140 S60
M105
M190 S60
M104 S220
M105
M109 S220
M82 ;absolute extrusion mode
; Ender 3 Custom Start G-code
G92 E0 ; Reset Extruder
G28 ; Home all axes
G1 Z2.0 F3000 ; Move Z Axis up little to prevent scratching of Heat Bed
G1 X0.1 Y20 Z0.3 F5000.0 ; Move to start position
G1 X0.1 Y200.0 Z0.3 F1500.0 E15 ; Draw the first line
G1 X0.4 Y200.0 Z0.3 F5000.0 ; Move to side a little
G1 X0.4 Y20 Z0.3 F1500.0 E30 ; Draw the second line
G92 E0 ; Reset Extruder
G1 Z2.0 F3000 ; Move Z Axis up little to prevent scratching of Heat Bed
G1 X5 Y20 Z0.3 F5000.0 ; Move over to prevent blob squish
G92 E0
G92 E0
G1 F2700 E-5
;LAYER_COUNT:13
;LAYER:-5
M107
G0 F15000 X94.947 Y116.956 Z0.24
;TYPE:SUPPORT-INTERFACE
G1 F2700 E0
G1 F2250 X95.84 Y116.232 E0.09177
G1 X95.86 Y116.236 E0.0934
G1 X96.991 Y115.403 E0.20552
G1 X97.481 Y115.063 E0.25313
G1 X98.399 Y114.459 E0.34085
G1 X99.551 Y113.757 E0.44853
G1 X100.273 Y113.334 E0.51533
G1 X100.288 Y113.341 E0.51665
G1 X101.185 Y112.86 E0.5979
G1 X101.794 Y112.553 E0.65234
G1 X102.907 Y112.029 E0.75054
G1 X103.906 Y111.597 E0.83742
G1 X105.4 Y111.01 E0.96555
G1 X105.415 Y111.019 E0.96695
G1 X106.271 Y110.719 E1.03935
G1 X106.954 Y110.5 E1.0966
G1 X107.566 Y110.319 E1.14755
G1 X108.192 Y110.086 E1.20087
G1 X108.79 Y109.78 E1.25449
G1 X109.36 Y109.386 E1.3098
G1 X109.874 Y108.923 E1.36502
G1 X110.312 Y108.414 E1.41863
G1 X110.681 Y107.863 E1.47156
G1 X110.988 Y107.247 E1.5265
G1 X111.221 Y106.573 E1.58343
G1 X111.353 Y105.952 E1.6341
G1 X111.384 Y105.57 E1.6647
G1 X111.397 Y105.559 E1.66606
G1 X111.429 Y105.139 E1.69968
G1 X111.481 Y104.753 E1.73077
G1 X111.626 Y104.256 E1.7721
G1 X111.831 Y103.799 E1.81208
G1 X112.099 Y103.376 E1.85205
G1 X112.436 Y102.978 E1.89368
G1 X112.828 Y102.636 E1.93521
G1 X113.231 Y102.369 E1.9738
G1 X113.702 Y102.148 E2.01533
G1 X114.197 Y101.995 E2.05668
G1 X114.62 Y101.93 E2.09085
G1 X115.004 Y101.9 E2.12159
G1 X119.881 Y101.901 E2.51089
G1 X120.362 Y101.929 E2.54936
G1 X120.749 Y101.982 E2.58054
G1 X121.244 Y102.125 E2.62166
G1 X121.701 Y102.331 E2.66168
G1 X122.125 Y102.599 E2.70172
G1 X122.522 Y102.937 E2.74334
G1 X122.864 Y103.328 E2.7848
G1 X123.137 Y103.742 E2.82439
G1 X123.353 Y104.201 E2.86488
G1 X123.504 Y104.692 E2.90589
G1 X123.567 Y105.104 E2.93916
G1 X123.61 Y105.499 E2.97088
G1 X123.599 Y105.511 E2.97218
G1 X123.677 Y106.13 E3.02198
G1 X123.841 Y106.786 E3.07595
G1 X124.083 Y107.409 E3.1293
G1 X124.392 Y107.98 E3.18113
G1 X124.815 Y108.575 E3.23941
G1 X125.244 Y109.041 E3.28997
G1 X125.768 Y109.482 E3.34464
G1 X126.34 Y109.853 E3.39906
G1 X126.979 Y110.162 E3.45572
G1 X127.44 Y110.32 E3.49462
G1 X128.177 Y110.539 E3.55599
G1 X128.906 Y110.78 E3.61728
G1 X129.835 Y111.108 E3.69592
G1 X130.727 Y111.449 E3.77215
G1 X131.111 Y111.607 E3.8053
G1 X132.239 Y112.096 E3.90344
G1 X133.322 Y112.61 E3.99913
G1 X133.881 Y112.893 E4.04914
G1 X134.953 Y113.472 E4.1464
G1 X135.52 Y113.799 E4.19865
G1 X136.576 Y114.444 E4.29742
G1 X137.526 Y115.067 E4.38811
G1 X138.498 Y115.753 E4.48307
G1 X139.085 Y116.192 E4.54158
G1 X139.995 Y116.909 E4.63406
G1 X140.906 Y117.677 E4.72918
G1 X141.821 Y118.504 E4.82763
G1 X142.807 Y119.465 E4.93753
G1 X143.525 Y120.21 E5.02013
G1 X144.442 Y121.234 E5.12985
G1 X145.269 Y122.223 E5.23276
G1 X145.994 Y123.162 E5.32746
G1 X146.384 Y123.69 E5.37986
G1 X147.146 Y124.789 E5.48661
G1 X147.652 Y125.576 E5.56129
G1 X148.276 Y126.606 E5.65742
G1 X148.943 Y127.816 E5.76771
G1 X149.061 Y128.072 E5.79021
G1 X149.207 Y128.456 E5.82301
G1 X149.324 Y128.968 E5.86493
G1 X149.362 Y129.44 E5.90273
G1 X149.334 Y129.962 E5.94446
G1 X149.228 Y130.475 E5.98627
G1 X149.058 Y130.951 E6.02662
G1 X148.822 Y131.395 E6.06676
G1 X148.519 Y131.815 E6.1081
G1 X148.171 Y132.174 E6.14801
G1 X147.775 Y132.484 E6.18815
G1 X147.325 Y132.742 E6.22956
G1 X146.852 Y132.929 E6.27016
G1 X146.361 Y133.046 E6.31045
G1 X145.895 Y133.098 E6.34788
G1 X143.021 Y133.1 E6.5773
G1 X142.54 Y133.071 E6.61576
G1 X142.152 Y133.018 E6.64702
G1 X141.664 Y132.876 E6.68759
G1 X141.206 Y132.672 E6.72761
G1 X140.78 Y132.402 E6.76787
G1 X140.381 Y132.064 E6.80961
G1 X140.085 Y131.719 E6.8459
G1 X139.807 Y131.336 E6.88368
G1 X139.54 Y130.899 E6.92456
G1 X139.102 Y130.211 E6.98966
G1 X138.839 Y129.819 E7.02734
G1 X138.263 Y129.02 E7.10597
G1 X137.828 Y128.451 E7.16314
G1 X137.435 Y127.965 E7.21303
G1 X136.921 Y127.366 E7.27604
G1 X136.343 Y126.731 E7.34458
G1 X135.701 Y126.076 E7.41779
G1 X134.914 Y125.33 E7.50435
G1 X134.205 Y124.708 E7.57964
G1 X133.676 Y124.274 E7.63426
G1 X133.279 Y123.961 E7.67461
G1 X132.452 Y123.351 E7.75664
G1 X132.117 Y123.12 E7.78913
G1 X131.464 Y122.689 E7.85158
G1 X130.943 Y122.362 E7.90068
G1 X130.163 Y121.907 E7.97276
G1 X129.793 Y121.704 E8.00645
G1 X129.08 Y121.333 E8.07061
G1 X127.715 Y120.699 E8.19075
G1 X126.649 Y120.272 E8.28242
G1 X125.371 Y119.837 E8.39018
G1 X125.365 Y119.841 E8.39076
G1 X124.856 Y119.663 E8.4338
G1 X123.902 Y119.403 E8.51273
G1 X123.492 Y119.304 E8.5464
G1 X122.618 Y119.111 E8.61784
G1 X121.56 Y118.919 E8.70368
G1 X120.481 Y118.772 E8.7906
G1 X119.886 Y118.713 E8.83833
G1 X118.797 Y118.634 E8.92549
G1 X117.653 Y118.603 E9.01684
G1 X116.907 Y118.608 E9.07639
G1 X115.865 Y118.651 E9.15964
G1 X114.88 Y118.735 E9.23855
G1 X114.474 Y118.778 E9.27114
G1 X113.551 Y118.903 E9.34549
G1 X112.478 Y119.089 E9.43242
G1 X111.513 Y119.301 E9.51129
G1 X111.075 Y119.408 E9.54728
G1 X110.089 Y119.683 E9.62899
G1 X109.616 Y119.84 E9.66877
G1 X109.602 Y119.831 E9.6701
G1 X108.511 Y120.211 E9.76232
G1 X107.67 Y120.539 E9.83438
G1 X106.846 Y120.893 E9.90597
G1 X105.9 Y121.345 E9.98966
G1 X105.064 Y121.781 E10.06492
G1 X104.703 Y121.982 E10.0979
G1 X103.921 Y122.447 E10.17053
G1 X103.122 Y122.96 E10.24632
G1 X102.336 Y123.506 E10.32272
G1 X101.719 Y123.963 E10.38401
G1 X101.302 Y124.29 E10.42631
G1 X100.628 Y124.851 E10.49631
G1 X100.088 Y125.328 E10.55382
G1 X99.566 Y125.825 E10.61136
G1 X99.551 Y125.825 E10.61255
G1 X98.683 Y126.703 E10.71111
G1 X98.046 Y127.402 E10.7866
G1 X97.494 Y128.053 E10.85473
G1 X96.905 Y128.793 E10.93023
G1 X96.666 Y129.112 E10.96204
G1 X96.181 Y129.793 E11.02878
G1 X95.918 Y130.181 E11.0662
G1 X95.14 Y131.415 E11.18264
G1 X94.974 Y131.649 E11.20555
G1 X94.717 Y131.962 E11.23787
G1 X94.334 Y132.315 E11.27945
G1 X93.91 Y132.606 E11.3205
G1 X93.471 Y132.823 E11.35959
G1 X92.987 Y132.983 E11.40028
G1 X92.55 Y133.057 E11.43566
G1 X92.07 Y133.099 E11.47413
G1 X89.352 Y133.1 E11.69109
G1 X88.871 Y133.071 E11.72955
G1 X88.484 Y133.018 E11.76073
G1 X87.995 Y132.876 E11.80138
G1 X87.535 Y132.671 E11.84158
G1 X87.094 Y132.391 E11.88328
G1 X86.709 Y132.061 E11.92376
G1 X86.372 Y131.677 E11.96454
G1 X86.096 Y131.258 E12.00459
G1 X85.88 Y130.798 E12.04516
G1 X85.727 Y130.3 E12.08674
G1 X85.649 Y129.8 E12.12714
G1 X85.642 Y129.305 E12.16665
G1 X85.711 Y128.778 E12.20908
G1 X85.814 Y128.406 E12.23989
G1 X85.987 Y127.956 E12.27838
G1 X86.119 Y127.691 E12.30201
G1 X86.621 Y126.787 E12.38455
G1 X87.298 Y125.656 E12.48977
G1 X87.866 Y124.771 E12.57371
G1 X88.661 Y123.628 E12.68485
G1 X89.048 Y123.103 E12.73691
G1 X89.994 Y121.882 E12.86021
G1 X90.016 Y121.879 E12.86198
G1 X91.013 Y120.715 E12.98432
G1 X91.374 Y120.318 E13.02715
G1 X92.193 Y119.464 E13.12161
G1 X93.191 Y118.494 E13.2327
G1 X94.002 Y117.758 E13.32012
G1 X94.947 Y116.956 E13.41906
G0 F15000 X94.896 Y117.523
G1 F2250 X101.218 Y123.846 E14.1328
G1 F2700 E9.1328
G1 F300 Z0.44
G0 F15000 X99.989 Y124.879 Z0.44
G1 F300 Z0.24
G1 F2700 E14.1328
G1 F2250 X93.69 Y118.581 E14.84383
G1 F2700 E9.84383
G1 F300 Z0.44
G0 F15000 X92.536 Y119.689 Z0.44
G1 F300 Z0.24
G1 F2700 E14.84383
G1 F2250 X98.831 Y125.984 E15.55446
G1 F2700 E10.55446
G1 F300 Z0.44
G0 F15000 X97.734 Y127.15 Z0.44
G1 F300 Z0.24
G1 F2700 E15.55446
G1 F2250 X91.431 Y120.847 E16.266
G1 F2700 E11.266
G1 F300 Z0.44
G0 F15000 X90.383 Y122.062 Z0.44
G1 F300 Z0.24
G1 F2700 E16.266
G1 F2250 X96.713 Y128.392 E16.98058
G1 F2700 E11.98058
G1 F300 Z0.44
G0 F15000 X95.759 Y129.701 Z0.44
G1 F300 Z0.24
G1 F2700 E16.98058
G1 F2250 X89.381 Y123.322 E17.70064
G1 F2700 E12.70064
G1 F300 Z0.44
G0 F15000 X88.44 Y124.644 Z0.44
G1 F300 Z0.24
G1 F2700 E17.70064
G1 F2250 X94.877 Y131.081 E18.42731
G1 F2700 E13.42731
G1 F300 Z0.44
G0 F15000 X93.757 Y132.224 Z0.44
G1 F300 Z0.24
G1 F2700 E18.42731
G1 F2250 X87.548 Y126.014 E19.12829
G1 F2700 E14.12829
G1 F300 Z0.44
G0 F15000 X86.713 Y127.443 Z0.44
G1 F300 Z0.24
G1 F2700 E19.12829
G1 F2250 X91.969 Y132.698 E19.72158
G1 F2700 E14.72158
G1 F300 Z0.44
G0 F15000 X89.706 Y132.698 Z0.44
G1 F300 Z0.24
G1 F2700 E19.72158
G1 F2250 X86.076 Y129.068 E20.13136
G1 F2700 E15.13136
G1 F300 Z0.44
G0 F15000 X96.152 Y116.517 Z0.44
G1 F300 Z0.24
G1 F2700 E20.13136
G1 F2250 X102.523 Y122.888 E20.85058
G1 F2700 E15.85058
G1 F300 Z0.44
G0 F15000 X103.893 Y121.995 Z0.44
G1 F300 Z0.24
G1 F2700 E20.85058
G1 F2250 X97.461 Y115.563 E21.57668
G1 F2700 E16.57668
G1 F300 Z0.44
G0 F15000 X98.826 Y114.665 Z0.44
G1 F300 Z0.24
G1 F2700 E21.57668
G1 F2250 X105.343 Y121.182 E22.31237
G1 F2700 E17.31237
G1 F300 Z0.44
G0 F15000 X106.869 Y120.445 Z0.44
G1 F300 Z0.24
G1 F2700 E22.31237
G1 F2250 X100.24 Y113.816 E23.06071
G1 F2700 E18.06071
G1 F300 Z0.44
G0 F15000 X101.722 Y113.036 Z0.44
G1 F300 Z0.24
G1 F2700 E23.06071
G1 F2250 X108.482 Y119.795 E23.82378
G1 F2700 E18.82378
G1 F300 Z0.44
G0 F15000 X110.187 Y119.238 Z0.44
G1 F300 Z0.24
G1 F2700 E23.82378
G1 F2250 X103.26 Y112.311 E24.60576
G1 F2700 E19.60576
G1 F300 Z0.44
G0 F15000 X104.862 Y111.65 Z0.44
G1 F300 Z0.24
G1 F2700 E24.60576
G1 F2250 X111.995 Y118.784 E25.41105
G1 F2700 E20.41105
G1 F300 Z0.44
G0 F15000 X113.922 Y118.448 Z0.44
G1 F300 Z0.24
G1 F2700 E25.41105
G1 F2250 X106.529 Y111.055 E26.24564
G1 F2700 E21.24564
G1 F300 Z0.44
G0 F15000 X108.235 Y110.498 Z0.44
G1 F300 Z0.24
G1 F2700 E26.24564
G1 F2250 X115.98 Y118.243 E27.11996
G1 F2700 E22.11996
G1 F300 Z0.44
G0 F15000 X118.217 Y118.217 Z0.44
G1 F300 Z0.24
G1 F2700 E27.11996
G1 F2250 X109.655 Y109.655 E28.08651
G1 F2700 E23.08651
G1 F300 Z0.44
G0 F15000 X110.745 Y108.482 Z0.44
G1 F300 Z0.24
G1 F2700 E28.08651
G1 F2250 X120.655 Y118.392 E29.20524
G1 F2700 E24.20524
G1 F300 Z0.44
G0 F15000 X123.399 Y118.873 Z0.44
G1 F300 Z0.24
G1 F2700 E29.20524
G1 F2250 X111.503 Y106.978 E30.54811
G1 F2700 E25.54811
G1 F300 Z0.44
G0 F15000 X111.843 Y105.054 Z0.44
G1 F300 Z0.24
G1 F2700 E30.54811
G1 F2250 X126.631 Y119.843 E32.21756
G1 F2700 E27.21756
G1 F300 Z0.44
G0 F15000 X130.959 Y121.908 Z0.44
G1 F300 Z0.24
G1 F2700 E32.21756
G1 F2250 X112.532 Y103.481 E34.29776
G1 F2700 E29.29776
G1 F300 Z0.44
G0 F15000 X113.839 Y102.525 Z0.44
G1 F300 Z0.24
G1 F2700 E34.29776
G1 F2250 X144.012 Y132.698 E37.70395
G1 F2700 E32.70395
G1 F300 Z0.44
G0 F15000 X146.233 Y132.657 Z0.44
G1 F300 Z0.24
G1 F2700 E37.70395
G1 F2250 X115.877 Y102.3 E41.13085
G1 F2700 E36.13085
G1 F300 Z0.44
G0 F15000 X118.139 Y102.3 Z0.44
G1 F300 Z0.24
G1 F2700 E41.13085
G1 F2250 X124.089 Y108.25 E41.80254
G1 F2700 E36.80254
G1 F300 Z0.44
G0 F15000 X125.849 Y110.01 Z0.44
G1 F300 Z0.24
G1 F2700 E41.80254
G1 F2250 X147.796 Y131.957 E44.28011
G1 F2700 E39.28011
G1 F300 Z0.44
G0 F15000 X148.743 Y130.641 Z0.44
G1 F300 Z0.24
G1 F2700 E44.28011
G1 F2250 X129.525 Y111.423 E46.4496
G1 F2700 E41.4496
G1 F300 Z0.44
G0 F15000 X133.527 Y113.163 Z0.44
G1 F300 Z0.24
G1 F2700 E46.4496
G1 F2250 X148.751 Y128.387 E48.16822
G1 F2700 E43.16822
G1 F300 Z0.44
G0 F15000 X144.213 Y121.586 Z0.44
G1 F300 Z0.24
G1 F2700 E48.16822
G1 F2250 X140.408 Y117.78 E48.59781
G1 F2700 E43.59781
G1 F300 Z0.44
G0 F15000 X140.106 Y131.055 Z0.44
G1 F300 Z0.24
G1 F2700 E48.59781
G1 F2250 X141.324 Y132.273 E48.73531
G1 F2700 E43.73531
G1 F300 Z0.44
G0 F15000 X123.153 Y105.051 Z0.44
G1 F300 Z0.24
G1 F2700 E48.73531
G1 F2250 X120.446 Y102.344 E49.0409
G1 F2700 E44.0409
G1 F300 Z0.44
G0 F15000 X112.019 Y104.354 Z0.44
;TIME_ELAPSED:37.720789
;LAYER:-4
G0 X112.019 Y104.354 Z1.04
;TYPE:SUPPORT
G1 F300 Z0.84
G1 F2700 E49.0409
G1 F2250 X113.858 Y102.516 E49.55977
G1 X113.428 Y102.718 E49.65457
G1 X113.074 Y102.949 E49.73893
G1 X112.716 Y103.263 E49.83396
G1 X112.429 Y103.599 E49.92214
G1 X112.186 Y103.982 E50.01266
G1 X111.997 Y104.404 E50.10493
G1 X111.875 Y104.829 E50.19317
G1 X111.823 Y105.19 E50.26596
G1 X111.763 Y106.025 E50.43302
G1 X115.488 Y102.299 E51.48444
G1 X116.903 Y102.299 E51.76682
G1 X110.802 Y108.4 E53.48865
G1 X110.625 Y108.665 E53.55225
G1 X110.145 Y109.219 E53.69853
G1 X109.598 Y109.707 E53.84481
G1 X108.994 Y110.124 E53.99128
G1 X108.342 Y110.459 E54.13757
G1 X107.676 Y110.701 E54.27898
G1 X106.833 Y110.955 E54.45468
G1 X86.556 Y131.231 E60.17714
G1 X86.455 Y131.076 E60.21406
G1 X86.253 Y130.651 E60.30797
G1 X86.129 Y130.244 E60.39288
G1 X104.634 Y111.74 E65.61525
G1 X104.059 Y111.967 E65.73861
G1 X103.077 Y112.39 E65.95199
G1 X102.12 Y112.84 E66.16303
G1 X86.102 Y128.857 E70.68351
G1 X86.221 Y128.429 E70.77216
G1 X86.353 Y128.115 E70.84014
G1 X86.467 Y127.888 E70.89083
G1 X86.965 Y126.989 E71.09592
G1 X87.633 Y125.873 E71.35548
G1 X88.256 Y124.908 E71.5847
G1 X89.005 Y123.829 E71.84682
G1 X89.405 Y123.29 E71.98077
G1 X90.064 Y122.446 E72.19446
G1 X90.467 Y121.955 E72.32122
G1 X91.31 Y120.981 E72.57829
G1 X91.745 Y120.502 E72.70741
G1 X92.476 Y119.743 E72.9177
G1 X93.461 Y118.787 E73.19163
G1 X94.272 Y118.051 E73.41018
G1 X95.298 Y117.184 E73.67825
G1 X96.266 Y116.425 E73.92372
G1 X97.215 Y115.732 E74.15823
G1 X97.7 Y115.396 E74.27597
G1 X98.775 Y114.693 E74.5323
G1 X98.972 Y114.573 E74.57833
G1 X87.574 Y125.971 E77.79509
G1 F2700 E72.79509
G1 F300 Z1.04
G0 F15000 X97.961 Y126.898 Z1.04
G1 F300 Z0.84
G1 F2700 E77.79509
G1 F2250 X92.169 Y132.69 E79.42972
G1 X92.505 Y132.659 E79.49706
G1 X92.88 Y132.597 E79.57291
G1 X93.319 Y132.451 E79.66523
G1 X93.724 Y132.249 E79.75555
G1 X94.089 Y131.998 E79.84395
G1 X94.426 Y131.688 E79.93533
G1 X94.663 Y131.397 E80.01023
G1 X94.892 Y131.065 E80.09071
G1 X95.124 Y130.683 E80.1799
G1 X95.769 Y129.684 E80.41721
G1 X96.341 Y128.878 E80.61444
G1 X96.586 Y128.553 E80.69566
G1 X97.181 Y127.802 E80.88687
G1 X97.869 Y126.999 E81.09789
G1 X98.379 Y126.442 E81.2486
G1 X99.137 Y125.671 E81.46437
G1 X99.902 Y124.957 E81.67319
G1 F2700 E76.67319
G1 F300 Z1.04
G0 F15000 X109.267 Y109.936 Z1.04
G1 F300 Z0.84
G1 F2700 E81.67319
G1 F2250 X87.21 Y131.992 E87.89801
G1 X87.718 Y132.313 E88.01793
G1 X88.121 Y132.496 E88.10626
G1 X118.317 Y102.299 E96.62837
G1 X119.731 Y102.299 E96.91054
G1 X89.333 Y132.698 E105.48966
G1 X90.746 Y132.699 E105.77164
G1 X120.995 Y102.45 E114.30856
G1 X121.514 Y102.686 E114.42234
G1 X121.915 Y102.944 E114.51749
G1 X99.902 Y124.957 E120.73004
G1 X100.366 Y124.546 E120.85373
G1 X101.162 Y123.889 E121.0597
G1 X101.582 Y123.562 E121.16593
G1 X102.307 Y123.033 E121.34503
G1 X103.038 Y122.535 E121.52154
G1 X103.864 Y122.012 E121.71664
G1 X104.808 Y121.466 E121.93427
G1 X122.608 Y103.665 E126.95796
G1 X122.775 Y103.917 E127.01829
G1 X122.98 Y104.354 E127.11461
G1 X123.063 Y104.624 E127.17098
G1 X107.519 Y120.169 E131.55798
G1 X108.369 Y119.836 E131.74016
G1 X109.236 Y119.532 E131.9235
G1 X109.723 Y119.379 E132.02537
G1 X123.208 Y105.893 E135.83127
G1 X123.487 Y107.028 E136.06452
G1 X111.654 Y118.862 E139.40419
G1 X112.181 Y118.745 E139.51192
G1 X112.663 Y118.648 E139.61003
G1 X113.406 Y118.524 E139.76036
G1 X123.94 Y107.99 E142.73328
G1 X124.063 Y108.215 E142.78445
G1 X124.509 Y108.835 E142.93687
G1 X115.022 Y118.323 E145.61444
G1 X115.476 Y118.278 E145.70549
G1 X115.836 Y118.253 E145.7775
G1 X116.538 Y118.22 E145.91775
G1 X125.217 Y109.542 E148.36701
G1 X125.549 Y109.82 E148.45342
G1 X126.038 Y110.134 E148.5694
G1 X117.963 Y118.21 E150.84848
G1 X118.716 Y118.228 E150.99879
G1 X119.319 Y118.268 E151.11939
G1 X126.997 Y110.59 E153.28629
G1 X127.328 Y110.705 E153.35621
G1 X128.074 Y110.927 E153.51154
G1 X120.614 Y118.388 E155.61705
G1 X121.291 Y118.475 E155.75327
G1 X121.848 Y118.567 E155.86593
G1 X129.132 Y111.283 E157.92163
G1 X129.868 Y111.544 E158.07747
G1 X130.167 Y111.662 E158.14162
