;FLAVOR:Marlin
;TIME:431
;Filament used: 0.745041m
;Layer height: 0.4
;MINX:83.928
;MINY:99.4
;MINZ:0.24
;MAXX:151.075
;MAXY:135.6
;MAXZ:6.59
;Generated with Cura_SteamEngine 5.3.1
M140 S60
M105
M190 S60
M104 S230
M105
M109 S230
M82 ;absolute extrusion mode
; Ender 3 Custom Start G-code
G92 E0 ; Reset Extruder
G28 ; Home all axes
G1 Z2.0 F3000 ; Move Z Axis up little to prevent scratching of Heat Bed
G1 X0.1 Y20 Z0.3 F5000.0 ; Move to start position
G1 X0.1 Y200.0 Z0.3 F1500.0 E15 ; Draw the first line
G1 X0.4 Y200.0 Z0.3 F5000.0 ; Move to side a little
G1 X0.4 Y20 Z0.3 F1500.0 E30 ; Draw the second line
G92 E0 ; Reset Extruder
G1 Z2.0 F3000 ; Move Z Axis up little to prevent scratching of Heat Bed
G1 X5 Y20 Z0.3 F5000.0 ; Move over to prevent blob squish
G92 E0
G92 E0
G1 F2700 E-5
;LAYER_COUNT:13
;LAYER:-5
M107
G0 F15000 X95.273 Y114.486 Z0.24
;TYPE:SUPPORT-INTERFACE
G1 F2700 E0
G1 F2250 X96.188 Y113.743 E0.09409
G1 X97.141 Y113.024 E0.18938
G1 X98.184 Y112.294 E0.291
G1 X99.076 Y111.712 E0.37602
G1 X100.079 Y111.108 E0.46948
G1 X100.611 Y110.8 E0.51855
G1 X101.887 Y110.113 E0.63423
G1 X101.901 Y110.12 E0.63548
G1 X102.665 Y109.743 E0.70349
G1 X103.783 Y109.234 E0.80155
G1 X104.247 Y109.041 E0.84166
G1 X105.542 Y108.533 E0.9527
G1 X106.616 Y108.156 E1.04356
G1 X108.35 Y107.618 E1.18849
G1 X108.367 Y107.627 E1.19002
G1 X108.807 Y107.494 E1.22672
G1 X109.477 Y107.202 E1.28506
G1 X110.021 Y106.881 E1.33548
G1 X110.595 Y106.436 E1.39345
G1 X111.07 Y105.953 E1.44753
G1 X111.477 Y105.424 E1.50081
G1 X111.832 Y104.818 E1.55687
G1 X112.083 Y104.228 E1.60805
G1 X112.273 Y103.567 E1.66295
G1 X112.375 Y102.903 E1.71658
G1 X112.4 Y102.416 E1.7555
G1 X112.388 Y102.083 E1.7821
G1 X112.401 Y102.071 E1.78351
G1 X112.419 Y101.773 E1.80734
G1 X112.489 Y101.36 E1.84078
G1 X112.617 Y100.98 E1.87279
G1 X112.826 Y100.59 E1.90811
G1 X113.056 Y100.29 E1.93829
G1 X113.381 Y99.976 E1.97436
G1 X113.714 Y99.754 E2.00631
G1 X114.122 Y99.561 E2.04233
G1 X114.499 Y99.459 E2.07351
G1 X114.951 Y99.4 E2.1099
G1 X119.869 Y99.4 E2.50247
G1 X120.237 Y99.422 E2.5319
G1 X120.6 Y99.481 E2.56126
G1 X120.989 Y99.608 E2.59392
G1 X121.409 Y99.825 E2.63166
G1 X121.738 Y100.078 E2.66479
G1 X122.024 Y100.381 E2.69805
G1 X122.246 Y100.711 E2.7298
G1 X122.441 Y101.124 E2.76625
G1 X122.54 Y101.495 E2.7969
G1 X122.592 Y101.889 E2.82863
G1 X122.6 Y102.439 E2.87254
G1 X122.64 Y103.059 E2.92213
G1 X122.777 Y103.775 E2.98032
G1 X122.984 Y104.405 E3.03325
G1 X123.271 Y105.012 E3.08685
G1 X123.661 Y105.617 E3.14431
G1 X124.098 Y106.135 E3.19841
G1 X124.604 Y106.602 E3.25337
G1 X125.114 Y106.968 E3.30348
G1 X125.738 Y107.306 E3.36013
G1 X126.647 Y107.632 E3.43721
G1 X127.763 Y107.959 E3.53004
G1 X128.391 Y108.16 E3.58268
G1 X129.491 Y108.545 E3.67571
G1 X130.543 Y108.955 E3.76584
G1 X131.12 Y109.194 E3.81569
G1 X133.052 Y110.081 E3.98539
G1 X133.056 Y110.099 E3.98686
G1 X134.344 Y110.775 E4.10297
G1 X134.939 Y111.118 E4.15779
G1 X135.814 Y111.647 E4.23941
G1 X136.352 Y111.986 E4.29017
G1 X136.865 Y112.327 E4.33934
G1 X137.863 Y113.027 E4.43665
G1 X138.811 Y113.741 E4.53139
G1 X139.756 Y114.511 E4.62869
G1 X140.469 Y115.11 E4.70303
G1 X140.469 Y115.13 E4.70462
G1 X141.475 Y116.054 E4.81366
G1 X142.395 Y116.974 E4.91752
G1 X143.187 Y117.821 E5.01008
G1 X143.6 Y118.287 E5.05979
G1 X144.274 Y119.085 E5.14317
G1 X144.691 Y119.604 E5.19631
G1 X145.395 Y120.532 E5.28929
G1 X146.095 Y121.523 E5.38614
G1 X146.839 Y122.667 E5.49507
G1 X147.355 Y123.514 E5.57424
G1 X147.956 Y124.583 E5.67214
G1 X148.24 Y125.117 E5.72042
G1 X148.495 Y125.625 E5.76579
G1 X149.136 Y126.985 E5.8858
G1 X149.126 Y127 E5.88724
G1 X149.265 Y127.285 E5.91256
G1 X149.679 Y128.29 E5.99932
G1 X150.215 Y129.708 E6.12033
G1 X150.207 Y129.721 E6.12154
G1 X150.317 Y130.038 E6.14833
G1 X150.746 Y131.39 E6.26155
G1 X150.734 Y131.406 E6.26315
G1 X150.966 Y132.214 E6.33025
G1 X151.035 Y132.547 E6.3574
G1 X151.075 Y132.952 E6.38989
G1 X151.039 Y133.412 E6.42672
G1 X150.933 Y133.837 E6.46168
G1 X150.772 Y134.212 E6.49426
G1 X150.589 Y134.505 E6.52184
G1 X150.28 Y134.867 E6.55983
G1 X149.957 Y135.133 E6.59323
G1 X149.586 Y135.346 E6.62738
G1 X149.184 Y135.493 E6.66154
G1 X148.728 Y135.58 E6.6986
G1 X148.343 Y135.6 E6.72937
G1 X146.026 Y135.6 E6.91433
G1 X145.658 Y135.578 E6.94376
G1 X145.295 Y135.518 E6.97312
G1 X144.875 Y135.383 E7.00834
G1 X144.484 Y135.174 E7.04373
G1 X144.157 Y134.923 E7.07664
G1 X143.867 Y134.614 E7.11046
G1 X143.644 Y134.28 E7.14252
G1 X143.422 Y133.811 E7.18394
G1 X143.243 Y133.193 E7.2353
G1 X143.003 Y132.442 E7.29823
G1 X142.63 Y131.404 E7.38628
G1 X142.343 Y130.685 E7.44808
G1 X141.965 Y129.82 E7.52343
G1 X141.489 Y128.83 E7.61112
G1 X141.05 Y128.004 E7.68578
G1 X140.676 Y127.343 E7.74641
G1 X140.086 Y126.391 E7.83581
G1 X139.574 Y125.625 E7.90936
G1 X139.316 Y125.264 E7.94478
G1 X138.828 Y124.609 E8.00998
G1 X138.455 Y124.133 E8.05825
G1 X137.83 Y123.387 E8.13594
G1 X137.339 Y122.833 E8.19503
G1 X137.022 Y122.494 E8.23208
G1 X136.107 Y121.593 E8.33458
G1 X135.52 Y121.029 E8.39956
G1 X134.641 Y120.268 E8.49237
G1 X133.745 Y119.562 E8.58343
G1 X132.996 Y119.013 E8.65756
G1 X132.375 Y118.589 E8.71758
G1 X131.446 Y118 E8.80539
G1 X130.599 Y117.505 E8.8837
G1 X130.247 Y117.312 E8.91574
G1 X129.399 Y116.875 E8.99189
G1 X128.97 Y116.667 E9.02995
G1 X128.272 Y116.351 E9.09111
G1 X127.704 Y116.112 E9.1403
G1 X126.988 Y115.83 E9.20173
G1 X125.929 Y115.456 E9.29138
G1 X125.146 Y115.208 E9.35694
G1 X124.137 Y114.934 E9.4404
G1 X123.363 Y114.749 E9.50393
G1 X122.099 Y114.499 E9.60678
G1 X121.511 Y114.4 E9.65438
G1 X120.636 Y114.285 E9.72482
G1 X119.691 Y114.188 E9.80065
G1 X118.557 Y114.122 E9.89133
G1 X117.666 Y114.102 E9.96247
G1 X116.437 Y114.117 E10.06058
G1 X115.464 Y114.178 E10.1384
G1 X114.385 Y114.281 E10.22492
G1 X113.442 Y114.408 E10.30088
G1 X112.528 Y114.564 E10.37489
G1 X111.62 Y114.752 E10.44891
G1 X110.834 Y114.941 E10.51344
G1 X109.95 Y115.181 E10.58656
G1 X108.911 Y115.509 E10.67353
G1 X108.014 Y115.829 E10.74955
G1 X107.275 Y116.119 E10.81292
G1 X106.255 Y116.562 E10.90169
G1 X105.493 Y116.928 E10.96917
G1 X104.757 Y117.311 E11.0354
G1 X103.96 Y117.758 E11.10834
G1 X103.394 Y118.096 E11.16097
G1 X102.785 Y118.482 E11.21852
G1 X101.923 Y119.066 E11.30164
G1 X101.53 Y119.353 E11.34048
G1 X100.797 Y119.911 E11.41402
G1 X100.147 Y120.445 E11.48117
G1 X99.436 Y121.07 E11.55673
G1 X98.979 Y121.494 E11.6065
G1 X98.177 Y122.301 E11.69732
G1 X98.178 Y122.31 E11.69804
G1 X97.647 Y122.85 E11.75849
G1 X97.193 Y123.373 E11.81378
G1 X97.177 Y123.373 E11.81505
G1 X96.443 Y124.263 E11.90714
G1 X95.952 Y124.899 E11.97128
G1 X95.333 Y125.761 E12.05599
G1 X94.942 Y126.361 E12.11316
G1 X94.927 Y126.363 E12.11436
G1 X94.335 Y127.329 E12.2048
G1 X93.943 Y128.018 E12.26808
G1 X93.49 Y128.873 E12.34532
G1 X93.041 Y129.804 E12.42782
G1 X92.62 Y130.804 E12.51443
G1 X92.624 Y130.81 E12.51501
G1 X92.383 Y131.377 E12.56419
G1 X92.09 Y132.174 E12.63197
G1 X91.755 Y133.198 E12.71798
G1 X91.634 Y133.617 E12.75279
G1 X91.519 Y133.94 E12.78016
G1 X91.341 Y134.31 E12.81293
G1 X91.1 Y134.655 E12.84653
G1 X90.79 Y134.965 E12.88152
G1 X90.431 Y135.224 E12.91686
G1 X90.046 Y135.413 E12.95109
G1 X89.685 Y135.526 E12.98129
G1 X89.31 Y135.582 E13.01155
G1 X88.991 Y135.599 E13.03705
G1 X86.647 Y135.6 E13.22416
G1 X86.279 Y135.578 E13.25359
G1 X85.916 Y135.519 E13.28295
G1 X85.496 Y135.383 E13.31819
G1 X85.105 Y135.174 E13.35358
G1 X84.778 Y134.923 E13.38648
G1 X84.487 Y134.614 E13.42037
G1 X84.27 Y134.288 E13.45163
G1 X84.077 Y133.878 E13.4878
G1 X83.976 Y133.506 E13.51857
G1 X83.928 Y133.051 E13.55509
G1 X83.958 Y132.627 E13.58902
G1 X84.038 Y132.198 E13.62385
G1 X84.356 Y131.064 E13.71787
G1 X84.761 Y129.772 E13.82595
G1 X84.779 Y129.764 E13.82752
G1 X85.281 Y128.39 E13.94429
G1 X85.738 Y127.276 E14.04041
G1 X86.022 Y126.643 E14.09579
G1 X86.619 Y125.39 E14.20658
G1 X87.028 Y124.613 E14.27667
G1 X87.641 Y123.522 E14.37657
G1 X88.236 Y122.544 E14.46795
G1 X88.903 Y121.525 E14.56516
G1 X89.693 Y120.418 E14.67372
G1 X90.175 Y119.775 E14.73787
G1 X90.699 Y119.12 E14.80483
G1 X91.401 Y118.286 E14.89185
G1 X91.863 Y117.766 E14.94737
G1 X92.659 Y116.916 E15.04033
G1 X93.068 Y116.503 E15.08673
G1 X93.902 Y115.696 E15.17936
G1 X94.335 Y115.3 E15.2262
G1 X95.273 Y114.486 E15.32534
G0 F15000 X94.941 Y115.305
G1 F2250 X99.827 Y120.191 E15.87691
G1 F2700 E10.87691
G1 F300 Z0.44
G0 F15000 X98.64 Y121.268 Z0.44
G1 F300 Z0.24
G1 F2700 E15.87691
G1 F2250 X93.761 Y116.389 E16.4277
G1 F2700 E11.4277
G1 F300 Z0.44
G0 F15000 X92.635 Y117.526 Z0.44
G1 F300 Z0.24
G1 F2700 E16.4277
G1 F2250 X97.519 Y122.409 E16.97899
G1 F2700 E11.97899
G1 F300 Z0.44
G0 F15000 X96.46 Y123.613 Z0.44
G1 F300 Z0.24
G1 F2700 E16.97899
G1 F2250 X91.561 Y118.714 E17.53203
G1 F2700 E12.53203
G1 F300 Z0.44
G0 F15000 X90.54 Y119.956 Z0.44
G1 F300 Z0.24
G1 F2700 E17.53203
G1 F2250 X95.47 Y124.885 E18.08852
G1 F2700 E13.08852
G1 F300 Z0.44
G0 F15000 X94.545 Y126.223 Z0.44
G1 F300 Z0.24
G1 F2700 E18.08852
G1 F2250 X89.582 Y121.261 E18.64873
G1 F2700 E13.64873
G1 F300 Z0.44
G0 F15000 X88.669 Y122.61 Z0.44
G1 F300 Z0.24
G1 F2700 E18.64873
G1 F2250 X93.698 Y127.639 E19.21644
G1 F2700 E14.21644
G1 F300 Z0.44
G0 F15000 X92.923 Y129.126 Z0.44
G1 F300 Z0.24
G1 F2700 E19.21644
G1 F2250 X87.817 Y124.021 E19.7928
G1 F2700 E14.7928
G1 F300 Z0.44
G0 F15000 X87.019 Y125.485 Z0.44
G1 F300 Z0.24
G1 F2700 E19.7928
G1 F2250 X92.232 Y130.699 E20.38134
G1 F2700 E15.38134
G1 F300 Z0.44
G0 F15000 X91.614 Y132.343 Z0.44
G1 F300 Z0.24
G1 F2700 E20.38134
G1 F2250 X86.29 Y127.019 E20.98236
G1 F2700 E15.98236
G1 F300 Z0.44
G0 F15000 X85.623 Y128.615 Z0.44
G1 F300 Z0.24
G1 F2700 E20.98236
G1 F2250 X91.034 Y134.026 E21.5932
G1 F2700 E16.5932
G1 F300 Z0.44
G0 F15000 X89.811 Y135.065 Z0.44
G1 F300 Z0.24
G1 F2700 E21.5932
G1 F2250 X85.021 Y130.276 E22.13388
G1 F2700 E17.13388
G1 F300 Z0.44
G0 F15000 X84.503 Y132.021 Z0.44
G1 F300 Z0.24
G1 F2700 E22.13388
G1 F2250 X87.681 Y135.198 E22.49258
G1 F2700 E17.49258
G1 F300 Z0.44
G0 F15000 X101.085 Y119.187 Z0.44
G1 F300 Z0.24
G1 F2700 E22.49258
G1 F2250 X96.17 Y114.272 E23.04743
G1 F2700 E18.04743
G1 F300 Z0.44
G0 F15000 X97.454 Y113.294 Z0.44
G1 F300 Z0.24
G1 F2700 E23.04743
G1 F2250 X102.411 Y118.25 E23.60696
G1 F2700 E18.60696
G1 F300 Z0.44
G0 F15000 X103.806 Y117.383 Z0.44
G1 F300 Z0.24
G1 F2700 E23.60696
G1 F2250 X98.796 Y112.372 E24.17259
G1 F2700 E19.17259
G1 F300 Z0.44
G0 F15000 X100.192 Y111.505 Z0.44
G1 F300 Z0.24
G1 F2700 E24.17259
G1 F2250 X105.276 Y116.589 E24.74652
G1 F2700 E19.74652
G1 F300 Z0.44
G0 F15000 X106.825 Y115.876 Z0.44
G1 F300 Z0.24
G1 F2700 E24.74652
G1 F2250 X101.645 Y110.696 E25.33128
G1 F2700 E20.33128
G1 F300 Z0.44
G0 F15000 X103.166 Y109.954 Z0.44
G1 F300 Z0.24
G1 F2700 E25.33128
G1 F2250 X108.456 Y115.244 E25.92846
G1 F2700 E20.92846
G1 F300 Z0.44
G0 F15000 X110.177 Y114.703 Z0.44
G1 F300 Z0.24
G1 F2700 E25.92846
G1 F2250 X104.747 Y109.273 E26.54145
G1 F2700 E21.54145
G1 F300 Z0.44
G0 F15000 X106.394 Y108.657 Z0.44
G1 F300 Z0.24
G1 F2700 E26.54145
G1 F2250 X112 Y114.263 E27.1743
G1 F2700 E22.1743
G1 F300 Z0.44
G0 F15000 X113.936 Y113.936 Z0.44
G1 F300 Z0.24
G1 F2700 E27.1743
G1 F2250 X108.11 Y108.11 E27.83199
G1 F2700 E22.83199
G1 F300 Z0.44
G0 F15000 X109.762 Y107.499 Z0.44
G1 F300 Z0.24
G1 F2700 E27.83199
G1 F2250 X116.005 Y113.743 E28.53681
G1 F2700 E23.53681
G1 F300 Z0.44
G0 F15000 X118.24 Y113.714 Z0.44
G1 F300 Z0.24
G1 F2700 E28.53681
G1 F2250 X111.058 Y106.532 E29.34758
G1 F2700 E24.34758
G1 F300 Z0.44
G0 F15000 X112.041 Y105.253 Z0.44
G1 F300 Z0.24
G1 F2700 E29.34758
G1 F2250 X120.674 Y113.886 E30.32214
G1 F2700 E25.32214
G1 F300 Z0.44
G0 F15000 X123.398 Y114.347 Z0.44
G1 F300 Z0.24
G1 F2700 E30.32214
G1 F2250 X112.67 Y103.619 E31.53321
G1 F2700 E26.53321
G1 F300 Z0.44
G0 F15000 X112.862 Y101.548 Z0.44
G1 F300 Z0.24
G1 F2700 E31.53321
G1 F2250 X126.572 Y115.259 E33.08097
G1 F2700 E28.08097
G1 F300 Z0.44
G0 F15000 X130.656 Y117.079 Z0.44
G1 F300 Z0.24
G1 F2700 E33.08097
G1 F2250 X113.772 Y100.195 E34.98699
G1 F2700 E29.98699
G1 F300 Z0.44
G0 F15000 X115.639 Y99.8 Z0.44
G1 F300 Z0.24
G1 F2700 E34.98699
G1 F2250 X150.192 Y134.353 E38.88763
G1 F2700 E33.88763
G1 F300 Z0.44
G0 F15000 X148.745 Y135.169 Z0.44
G1 F300 Z0.24
G1 F2700 E38.88763
G1 F2250 X141.412 Y127.836 E39.71544
G1 F2700 E34.71544
G1 F300 Z0.44
G0 F15000 X143.243 Y131.929 Z0.44
G1 F300 Z0.24
G1 F2700 E39.71544
G1 F2250 X146.513 Y135.2 E40.08464
G1 F2700 E35.08464
G1 F300 Z0.44
G0 F15000 X150.62 Y132.518 Z0.44
G1 F300 Z0.24
G1 F2700 E40.08464
G1 F2250 X125.888 Y107.786 E42.8766
G1 F2700 E37.8766
G1 F300 Z0.44
G0 F15000 X129.249 Y108.884 Z0.44
G1 F300 Z0.24
G1 F2700 E42.8766
G1 F2250 X149.613 Y129.249 E45.17552
G1 F2700 E40.17552
G1 F300 Z0.44
G0 F15000 X147.832 Y125.205 Z0.44
G1 F300 Z0.24
G1 F2700 E45.17552
G1 F2250 X133.313 Y110.686 E46.81455
G1 F2700 E41.81455
G1 F300 Z0.44
G0 F15000 X122.591 Y104.489 Z0.44
G1 F300 Z0.24
G1 F2700 E46.81455
G1 F2250 X117.902 Y99.8 E47.34389
G1 F2700 E42.34389
G1 F300 Z0.44
G0 F15000 X120.184 Y99.82 Z0.44
G1 F300 Z0.24
G1 F2700 E47.34389
G1 F2250 X122.177 Y101.812 E47.56882
G1 F2700 E42.56882
G1 F300 Z0.44
G0 F15000 X114.923 Y99.805 Z0.44
;TIME_ELAPSED:38.465303
;LAYER:-4
G0 X114.923 Y99.805 Z1.04
;TYPE:SUPPORT
G1 F300 Z0.84
G1 F2700 E47.56882
G1 F2250 X114.624 Y99.838 E47.62885
G1 X114.232 Y99.95 E47.71021
G1 X113.92 Y100.095 E47.77887
G1 X113.617 Y100.302 E47.8521
G1 X113.361 Y100.544 E47.9224
G1 X113.153 Y100.824 E47.99201
G1 X112.979 Y101.157 E48.06699
G1 X112.872 Y101.486 E48.13603
G1 X112.817 Y101.814 E48.2024
G1 X112.799 Y102.161 E48.27174
G1 X115.155 Y99.804 E48.93679
G1 X116.571 Y99.803 E49.21937
G1 X112.641 Y103.733 E50.3285
G1 X112.469 Y104.337 E50.45383
G1 X112.181 Y105.015 E50.60083
G1 X111.809 Y105.645 E50.74684
G1 X111.363 Y106.227 E50.89316
G1 X110.846 Y106.746 E51.03935
G1 X110.266 Y107.198 E51.18609
G1 X109.635 Y107.572 E51.33247
G1 X109.244 Y107.741 E51.41748
G1 X109.259 Y107.801 E51.42982
G1 X108.462 Y108.015 E51.5945
G1 X107.332 Y108.346 E51.82948
G1 X106.739 Y108.536 E51.95375
G1 X106.254 Y108.706 E52.05631
G1 X85.202 Y129.757 E57.9975
G1 X85.65 Y128.539 E58.25648
G1 X86.101 Y127.444 E58.49281
G1 X103.942 Y109.603 E63.52793
G1 X102.979 Y110.036 E63.73864
G1 X101.868 Y110.581 E63.98559
G1 X101.184 Y110.947 E64.1404
G1 X87.439 Y124.692 E68.01954
G1 X87.98 Y123.73 E68.23979
G1 X88.575 Y122.75 E68.46858
G1 X89.217 Y121.772 E68.70205
G1 X89.863 Y120.854 E68.92606
G1 X90.619 Y119.854 E69.17623
G1 X90.989 Y119.392 E69.29435
G1 X91.726 Y118.52 E69.52219
G1 X92.154 Y118.037 E69.65098
G1 X92.949 Y117.188 E69.88309
G1 X93.371 Y116.762 E70.00275
G1 X94.236 Y115.931 E70.24213
G1 X94.604 Y115.594 E70.34171
G1 X95.48 Y114.831 E70.57354
G1 X96.437 Y114.055 E70.81941
G0 F15000 X97.351 Y113.366
G1 F2250 X89.863 Y120.854 E72.93269
G1 F2700 E67.93269
G1 F300 Z1.04
G0 F15000 X95.103 Y125.39 Z1.04
G1 F300 Z0.84
G1 F2700 E72.93269
G1 F2250 X95.646 Y124.641 E73.1173
G1 X96.237 Y123.878 E73.3099
G1 X96.735 Y123.277 E73.46566
G1 X97.474 Y122.445 E73.68774
G1 X98.011 Y121.883 E73.84286
G1 X98.698 Y121.207 E74.0352
G1 X99.062 Y120.867 E74.1346
G1 X99.738 Y120.267 E74.31497
G1 X100.462 Y119.667 E74.50262
G1 X101.251 Y119.063 E74.70092
G1 X101.604 Y118.803 E74.78841
G1 X102.271 Y118.345 E74.94987
G1 X120.687 Y99.929 E80.14727
G1 X120.841 Y99.979 E80.17958
G1 X121.173 Y100.152 E80.25429
G1 X121.572 Y100.459 E80.35475
G1 X105.603 Y116.427 E84.86141
G1 X106.57 Y115.983 E85.07375
G1 X107.123 Y115.749 E85.19358
G1 X108.071 Y115.374 E85.39703
G1 X122.084 Y101.36 E89.35194
G1 X122.159 Y101.621 E89.40614
G1 X122.193 Y101.916 E89.4654
G1 X122.202 Y102.657 E89.61328
G1 X110.145 Y114.714 E93.01603
G1 X110.735 Y114.553 E93.13807
G1 X111.52 Y114.364 E93.29921
G1 X112.01 Y114.263 E93.39905
G1 X122.39 Y103.883 E96.32851
G1 X122.611 Y104.552 E96.46911
G1 X122.779 Y104.909 E96.54785
G1 X113.719 Y113.968 E99.10463
G1 X114.332 Y113.885 E99.22808
G1 X115.312 Y113.79 E99.42457
G1 X123.299 Y105.802 E101.67881
G1 X123.79 Y106.395 E101.83245
G1 X123.962 Y106.554 E101.8792
G1 X116.806 Y113.709 E103.89863
G1 X117.66 Y113.702 E104.06906
