;FLAVOR:Marlin
;TIME:8715
;Filament used: 20.027m
;Layer height: 0.4
;MINX:47.385
;MINY:82.4
;MINZ:0.24
;MAXX:187.6
;MAXY:152.6
;MAXZ:11.39
;Generated with Cura_SteamEngine 5.3.1
M140 S60
M105
M190 S60
M104 S230
M105
M109 S230
M82 ;absolute extrusion mode
; Ender 3 Custom Start G-code
G92 E0 ; Reset Extruder
G28 ; Home all axes
G1 Z2.0 F3000 ; Move Z Axis up little to prevent scratching of Heat Bed
G1 X0.1 Y20 Z0.3 F5000.0 ; Move to start position
G1 X0.1 Y200.0 Z0.3 F1500.0 E15 ; Draw the first line
G1 X0.4 Y200.0 Z0.3 F5000.0 ; Move to side a little
G1 X0.4 Y20 Z0.3 F1500.0 E30 ; Draw the second line
G92 E0 ; Reset Extruder
G1 Z2.0 F3000 ; Move Z Axis up little to prevent scratching of Heat Bed
G1 X5 Y20 Z0.3 F5000.0 ; Move over to prevent blob squish
G92 E0
G92 E0
G1 F2700 E-5
;LAYER_COUNT:26
;LAYER:-5
M107
G0 F15000 X48.745 Y82.733 Z0.24
;TYPE:SUPPORT-INTERFACE
G1 F2700 E0
G1 F2250 X49.116 Y82.564 E0.03254
G1 X49.499 Y82.459 E0.06424
G1 X49.951 Y82.4 E0.10063
G1 X114.869 Y82.401 E5.28267
G1 X115.235 Y82.422 E5.31193
G1 X115.604 Y82.483 E5.34178
G1 X116.418 Y82.706 E5.40916
G1 X117.085 Y82.799 E5.46291
G1 X117.78 Y82.806 E5.51839
G1 X118.463 Y82.724 E5.57331
G1 X118.906 Y82.607 E5.60988
G1 X118.921 Y82.617 E5.61132
G1 X119.499 Y82.459 E5.65915
G1 X119.951 Y82.4 E5.69554
G1 X184.869 Y82.4 E10.87757
G1 X185.237 Y82.422 E10.907
G1 X185.6 Y82.481 E10.93636
G1 X185.989 Y82.608 E10.96902
G1 X186.409 Y82.825 E11.00676
G1 X186.738 Y83.078 E11.03989
G1 X187.024 Y83.381 E11.07315
G1 X187.246 Y83.711 E11.1049
G1 X187.441 Y84.124 E11.14135
G1 X187.54 Y84.495 E11.172
G1 X187.6 Y84.948 E11.20848
G1 X187.6 Y149.86 E16.39004
G1 X187.578 Y150.238 E16.42026
G1 X187.519 Y150.6 E16.44954
G1 X187.385 Y151.015 E16.48435
G1 X187.175 Y151.41 E16.52006
G1 X186.928 Y151.732 E16.55245
G1 X186.643 Y152.001 E16.58374
G1 X186.262 Y152.263 E16.62065
G1 X185.91 Y152.424 E16.65155
G1 X185.499 Y152.542 E16.68568
G1 X185.049 Y152.599 E16.72189
G1 X120.131 Y152.6 E21.90392
G1 X119.765 Y152.578 E21.93319
G1 X119.396 Y152.517 E21.96305
G1 X118.582 Y152.294 E22.03042
G1 X117.915 Y152.201 E22.08417
G1 X117.22 Y152.194 E22.13966
G1 X116.537 Y152.276 E22.19457
G1 X116.094 Y152.394 E22.23116
G1 X116.079 Y152.383 E22.23265
G1 X115.501 Y152.541 E22.28048
G1 X115.049 Y152.6 E22.31686
G1 X50.131 Y152.6 E27.4989
G1 X49.763 Y152.578 E27.52833
G1 X49.4 Y152.519 E27.55768
G1 X48.982 Y152.384 E27.59275
G1 X48.589 Y152.174 E27.62832
G1 X48.266 Y151.926 E27.66082
G1 X47.997 Y151.641 E27.69211
G1 X47.749 Y151.278 E27.7272
G1 X47.561 Y150.88 E27.76234
G1 X47.46 Y150.504 E27.79341
G1 X47.401 Y150.049 E27.83004
G1 X47.385 Y85.097 E33.01479
G1 X47.4 Y85.084 E33.01637
G1 X47.419 Y84.773 E33.04124
G1 X47.489 Y84.36 E33.07468
G1 X47.617 Y83.98 E33.10669
G1 X47.826 Y83.59 E33.14201
G1 X48.056 Y83.29 E33.17218
G1 X48.381 Y82.976 E33.20826
G1 X48.745 Y82.733 E33.24319
G0 F15000 X49.079 Y83.02
G1 F2250 X117.859 Y151.8 E41.00767
G1 F2700 E36.00767
G1 F300 Z0.44
G0 F15000 X115.831 Y152.035 Z0.44
G1 F300 Z0.24
G1 F2700 E41.00767
G1 F2250 X47.972 Y84.176 E48.66818
G1 F2700 E43.66818
G1 F300 Z0.44
G0 F15000 X47.784 Y86.251 Z0.44
G1 F300 Z0.24
G1 F2700 E48.66818
G1 F2250 X113.732 Y152.199 E56.11296
G1 F2700 E51.11296
G1 F300 Z0.44
G0 F15000 X111.469 Y152.199 Z0.44
G1 F300 Z0.24
G1 F2700 E56.11296
G1 F2250 X47.785 Y88.514 E63.30222
G1 F2700 E58.30222
G1 F300 Z0.44
G0 F15000 X47.786 Y90.778 Z0.44
G1 F300 Z0.24
G1 F2700 E63.30222
G1 F2250 X109.206 Y152.199 E70.2359
G1 F2700 E65.2359
G1 F300 Z0.44
G0 F15000 X106.944 Y152.199 Z0.44
G1 F300 Z0.24
G1 F2700 E70.2359
G1 F2250 X47.786 Y93.041 E76.91416
G1 F2700 E71.91416
G1 F300 Z0.44
G0 F15000 X47.786 Y95.304 Z0.44
G1 F300 Z0.24
G1 F2700 E76.91416
G1 F2250 X104.681 Y152.199 E83.33696
G1 F2700 E78.33696
G1 F300 Z0.44
G0 F15000 X102.418 Y152.199 Z0.44
G1 F300 Z0.24
G1 F2700 E83.33696
G1 F2250 X47.787 Y97.568 E89.50418
G1 F2700 E84.50418
G1 F300 Z0.44
G0 F15000 X47.788 Y99.831 Z0.44
G1 F300 Z0.24
G1 F2700 E89.50418
G1 F2250 X100.156 Y152.199 E95.41594
G1 F2700 E90.41594
G1 F300 Z0.44
G0 F15000 X97.893 Y152.199 Z0.44
G1 F300 Z0.24
G1 F2700 E95.41594
G1 F2250 X47.789 Y102.094 E101.07216
G1 F2700 E96.07216
G1 F300 Z0.44
G0 F15000 X47.789 Y104.357 Z0.44
G1 F300 Z0.24
G1 F2700 E101.07216
G1 F2250 X95.63 Y152.199 E106.47293
G1 F2700 E101.47293
G1 F300 Z0.44
G0 F15000 X93.367 Y152.199 Z0.44
G1 F300 Z0.24
G1 F2700 E106.47293
G1 F2250 X47.789 Y106.621 E111.61816
G1 F2700 E106.61816
G1 F300 Z0.44
G0 F15000 X47.79 Y108.884 Z0.44
G1 F300 Z0.24
G1 F2700 E111.61816
G1 F2250 X91.105 Y152.199 E116.50794
G1 F2700 E111.50794
G1 F300 Z0.44
G0 F15000 X88.842 Y152.199 Z0.44
G1 F300 Z0.24
G1 F2700 E116.50794
G1 F2250 X47.791 Y111.147 E121.14218
G1 F2700 E116.14218
G1 F300 Z0.44
G0 F15000 X47.791 Y113.411 Z0.44
G1 F300 Z0.24
G1 F2700 E121.14218
G1 F2250 X86.579 Y152.199 E125.52091
G1 F2700 E120.52091
G1 F300 Z0.44
G0 F15000 X84.316 Y152.199 Z0.44
G1 F300 Z0.24
G1 F2700 E125.52091
G1 F2250 X47.791 Y115.674 E129.64417
G1 F2700 E124.64417
G1 F300 Z0.44
G0 F15000 X47.792 Y117.937 Z0.44
G1 F300 Z0.24
G1 F2700 E129.64417
G1 F2250 X82.054 Y152.199 E133.51196
G1 F2700 E128.51196
G1 F300 Z0.44
G0 F15000 X79.791 Y152.199 Z0.44
G1 F300 Z0.24
G1 F2700 E133.51196
G1 F2250 X47.793 Y120.201 E137.12417
G1 F2700 E132.12417
G1 F300 Z0.44
G0 F15000 X47.794 Y122.464 Z0.44
G1 F300 Z0.24
G1 F2700 E137.12417
G1 F2250 X77.528 Y152.199 E140.48086
G1 F2700 E135.48086
G1 F300 Z0.44
G0 F15000 X75.265 Y152.199 Z0.44
G1 F300 Z0.24
G1 F2700 E140.48086
G1 F2250 X47.794 Y124.727 E143.58208
G1 F2700 E138.58208
G1 F300 Z0.44
G0 F15000 X47.794 Y126.99 Z0.44
G1 F300 Z0.24
G1 F2700 E143.58208
G1 F2250 X73.003 Y152.199 E146.42789
G1 F2700 E141.42789
G1 F300 Z0.44
G0 F15000 X70.74 Y152.199 Z0.44
G1 F300 Z0.24
G1 F2700 E146.42789
G1 F2250 X47.795 Y129.254 E149.01812
G1 F2700 E144.01812
G1 F300 Z0.44
G0 F15000 X47.796 Y131.517 Z0.44
G1 F300 Z0.24
G1 F2700 E149.01812
G1 F2250 X68.477 Y152.199 E151.35282
G1 F2700 E146.35282
G1 F300 Z0.44
G0 F15000 X66.214 Y152.199 Z0.44
G1 F300 Z0.24
G1 F2700 E151.35282
G1 F2250 X47.796 Y133.781 E153.432
G1 F2700 E148.432
G1 F300 Z0.44
G0 F15000 X47.797 Y136.044 Z0.44
G1 F300 Z0.24
G1 F2700 E153.432
G1 F2250 X63.952 Y152.199 E155.25572
G1 F2700 E150.25572
G1 F300 Z0.44
G0 F15000 X61.689 Y152.199 Z0.44
G1 F300 Z0.24
G1 F2700 E155.25572
G1 F2250 X47.797 Y138.307 E156.82397
G1 F2700 E151.82397
G1 F300 Z0.44
G0 F15000 X47.798 Y140.57 Z0.44
G1 F300 Z0.24
G1 F2700 E156.82397
G1 F2250 X59.426 Y152.199 E158.1367
G1 F2700 E153.1367
G1 F300 Z0.44
G0 F15000 X57.163 Y152.199 Z0.44
G1 F300 Z0.24
G1 F2700 E158.1367
G1 F2250 X47.799 Y142.834 E159.19384
G1 F2700 E154.19384
G1 F300 Z0.44
G0 F15000 X47.799 Y145.097 Z0.44
G1 F300 Z0.24
G1 F2700 E159.19384
G1 F2250 X54.901 Y152.199 E159.99558
G1 F2700 E154.99558
G1 F300 Z0.44
G0 F15000 X52.638 Y152.199 Z0.44
G1 F300 Z0.24
G1 F2700 E159.99558
G1 F2250 X47.8 Y147.361 E160.54173
G1 F2700 E155.54173
G1 F300 Z0.44
G0 F15000 X47.8 Y149.623 Z0.44
G1 F300 Z0.24
G1 F2700 E160.54173
G1 F2250 X50.375 Y152.199 E160.83248
G1 F2700 E155.83248
G1 F300 Z0.44
G0 F15000 X51.121 Y82.8 Z0.44
G1 F300 Z0.24
G1 F2700 E160.83248
G1 F2250 X120.519 Y152.198 E168.66672
G1 F2700 E163.66672
G1 F300 Z0.44
G0 F15000 X122.782 Y152.198 Z0.44
G1 F300 Z0.24
G1 F2700 E168.66672
G1 F2250 X53.384 Y82.8 E176.50097
G1 F2700 E171.50097
G1 F300 Z0.44
G0 F15000 X55.647 Y82.8 Z0.44
G1 F300 Z0.24
G1 F2700 E176.50097
G1 F2250 X125.045 Y152.198 E184.33521
G1 F2700 E179.33521
G1 F300 Z0.44
G0 F15000 X127.308 Y152.198 Z0.44
G1 F300 Z0.24
G1 F2700 E184.33521
G1 F2250 X57.909 Y82.8 E192.16952
G1 F2700 E187.16952
G1 F300 Z0.44
G0 F15000 X60.172 Y82.8 Z0.44
G1 F300 Z0.24
G1 F2700 E192.16952
G1 F2250 X129.57 Y152.198 E200.00376
G1 F2700 E195.00376
G1 F300 Z0.44
G0 F15000 X131.833 Y152.198 Z0.44
G1 F300 Z0.24
G1 F2700 E200.00376
G1 F2250 X62.435 Y82.8 E207.83801
G1 F2700 E202.83801
G1 F300 Z0.44
G0 F15000 X64.698 Y82.8 Z0.44
G1 F300 Z0.24
G1 F2700 E207.83801
G1 F2250 X134.096 Y152.198 E215.67225
G1 F2700 E210.67225
G1 F300 Z0.44
G0 F15000 X136.359 Y152.198 Z0.44
G1 F300 Z0.24
G1 F2700 E215.67225
G1 F2250 X66.96 Y82.8 E223.50656
G1 F2700 E218.50656
G1 F300 Z0.44
G0 F15000 X69.223 Y82.8 Z0.44
G1 F300 Z0.24
G1 F2700 E223.50656
G1 F2250 X138.621 Y152.198 E231.3408
G1 F2700 E226.3408
G1 F300 Z0.44
G0 F15000 X140.884 Y152.198 Z0.44
G1 F300 Z0.24
G1 F2700 E231.3408
G1 F2250 X71.486 Y82.8 E239.17505
G1 F2700 E234.17505
G1 F300 Z0.44
G0 F15000 X73.749 Y82.8 Z0.44
G1 F300 Z0.24
G1 F2700 E239.17505
G1 F2250 X143.147 Y152.198 E247.00929
G1 F2700 E242.00929
G1 F300 Z0.44
G0 F15000 X145.41 Y152.198 Z0.44
G1 F300 Z0.24
G1 F2700 E247.00929
G1 F2250 X76.011 Y82.8 E254.8436
G1 F2700 E249.8436
G1 F300 Z0.44
G0 F15000 X78.274 Y82.8 Z0.44
G1 F300 Z0.24
G1 F2700 E254.8436
G1 F2250 X147.672 Y152.198 E262.67784
G1 F2700 E257.67784
G1 F300 Z0.44
G0 F15000 X149.935 Y152.198 Z0.44
G1 F300 Z0.24
G1 F2700 E262.67784
G1 F2250 X80.537 Y82.8 E270.51209
G1 F2700 E265.51209
G1 F300 Z0.44
G0 F15000 X82.8 Y82.8 Z0.44
G1 F300 Z0.24
G1 F2700 E270.51209
G1 F2250 X152.198 Y152.198 E278.34634
G1 F2700 E273.34634
G1 F300 Z0.44
G0 F15000 X154.461 Y152.198 Z0.44
G1 F300 Z0.24
G1 F2700 E278.34634
G1 F2250 X85.063 Y82.8 E286.18058
G1 F2700 E281.18058
G1 F300 Z0.44
G0 F15000 X87.326 Y82.8 Z0.44
G1 F300 Z0.24
G1 F2700 E286.18058
G1 F2250 X156.723 Y152.198 E294.01477
G1 F2700 E289.01477
G1 F300 Z0.44
G0 F15000 X158.986 Y152.198 Z0.44
G1 F300 Z0.24
G1 F2700 E294.01477
G1 F2250 X89.589 Y82.8 E301.84896
G1 F2700 E296.84896
G1 F300 Z0.44
G0 F15000 X91.851 Y82.8 Z0.44
G1 F300 Z0.24
G1 F2700 E301.84896
G1 F2250 X161.249 Y152.198 E309.68321
G1 F2700 E304.68321
G1 F300 Z0.44
G0 F15000 X163.512 Y152.198 Z0.44
G1 F300 Z0.24
G1 F2700 E309.68321
G1 F2250 X94.114 Y82.8 E317.51745
G1 F2700 E312.51745
G1 F300 Z0.44
G0 F15000 X96.377 Y82.8 Z0.44
G1 F300 Z0.24
G1 F2700 E317.51745
G1 F2250 X165.774 Y152.198 E325.35164
G1 F2700 E320.35164
G1 F300 Z0.44
G0 F15000 X168.037 Y152.198 Z0.44
G1 F300 Z0.24
G1 F2700 E325.35164
G1 F2250 X98.639 Y82.8 E333.18589
G1 F2700 E328.18589
G1 F300 Z0.44
G0 F15000 X100.902 Y82.8 Z0.44
G1 F300 Z0.24
G1 F2700 E333.18589
G1 F2250 X170.3 Y152.198 E341.02013
G1 F2700 E336.02013
G1 F300 Z0.44
G0 F15000 X172.563 Y152.198 Z0.44
G1 F300 Z0.24
G1 F2700 E341.02013
G1 F2250 X103.165 Y82.8 E348.85438
G1 F2700 E343.85438
G1 F300 Z0.44
G0 F15000 X105.428 Y82.8 Z0.44
G1 F300 Z0.24
G1 F2700 E348.85438
G1 F2250 X174.825 Y152.198 E356.68857
G1 F2700 E351.68857
G1 F300 Z0.44
G0 F15000 X177.088 Y152.198 Z0.44
G1 F300 Z0.24
G1 F2700 E356.68857
G1 F2250 X107.69 Y82.8 E364.52281
G1 F2700 E359.52281
G1 F300 Z0.44
G0 F15000 X109.953 Y82.8 Z0.44
G1 F300 Z0.24
G1 F2700 E364.52281
G1 F2250 X179.351 Y152.198 E372.35706
G1 F2700 E367.35706
G1 F300 Z0.44
G0 F15000 X181.614 Y152.198 Z0.44
G1 F300 Z0.24
G1 F2700 E372.35706
G1 F2250 X112.216 Y82.8 E380.19131
G1 F2700 E375.19131
G1 F300 Z0.44
G0 F15000 X114.479 Y82.8 Z0.44
G1 F300 Z0.24
G1 F2700 E380.19131
G1 F2250 X183.876 Y152.198 E388.0255
G1 F2700 E383.0255
G1 F300 Z0.44
G0 F15000 X185.92 Y151.979 Z0.44
G1 F300 Z0.24
G1 F2700 E388.0255
G1 F2250 X117.14 Y83.198 E395.79003
G1 F2700 E390.79003
G1 F300 Z0.44
G0 F15000 X119.167 Y82.963 Z0.44
G1 F300 Z0.24
G1 F2700 E395.79003
G1 F2250 X187.026 Y150.822 E403.45054
G1 F2700 E398.45054
G1 F300 Z0.44
G0 F15000 X187.199 Y148.732 Z0.44
G1 F300 Z0.24
G1 F2700 E403.45054
G1 F2250 X121.266 Y82.8 E410.89357
G1 F2700 E405.89357
G1 F300 Z0.44
G0 F15000 X123.529 Y82.8 Z0.44
G1 F300 Z0.24
G1 F2700 E410.89357
G1 F2250 X187.199 Y146.47 E418.08119
G1 F2700 E413.08119
G1 F300 Z0.44
G0 F15000 X187.199 Y144.207 Z0.44
G1 F300 Z0.24
G1 F2700 E418.08119
G1 F2250 X125.792 Y82.8 E425.01335
G1 F2700 E420.01335
G1 F300 Z0.44
G0 F15000 X128.054 Y82.8 Z0.44
G1 F300 Z0.24
G1 F2700 E425.01335
G1 F2250 X187.199 Y141.944 E431.69009
G1 F2700 E426.69009
G1 F300 Z0.44
G0 F15000 X187.199 Y139.681 Z0.44
G1 F300 Z0.24
G1 F2700 E431.69009
G1 F2250 X130.317 Y82.8 E438.11136
G1 F2700 E433.11136
G1 F300 Z0.44
G0 F15000 X132.58 Y82.8 Z0.44
G1 F300 Z0.24
G1 F2700 E438.11136
G1 F2250 X187.199 Y137.419 E444.27723
G1 F2700 E439.27723
G1 F300 Z0.44
G0 F15000 X187.199 Y135.156 Z0.44
G1 F300 Z0.24
G1 F2700 E444.27723
G1 F2250 X134.843 Y82.8 E450.18763
G1 F2700 E445.18763
G1 F300 Z0.44
G0 F15000 X137.105 Y82.8 Z0.44
G1 F300 Z0.24
G1 F2700 E450.18763
G1 F2250 X187.199 Y132.893 E455.84261
G1 F2700 E450.84261
G1 F300 Z0.44
G0 F15000 X187.199 Y130.63 Z0.44
G1 F300 Z0.24
G1 F2700 E455.84261
G1 F2250 X139.368 Y82.8 E461.24213
G1 F2700 E456.24213
G1 F300 Z0.44
G0 F15000 X141.631 Y82.8 Z0.44
G1 F300 Z0.24
G1 F2700 E461.24213
G1 F2250 X187.199 Y128.368 E466.38624
G1 F2700 E461.38624
G1 F300 Z0.44
G0 F15000 X187.199 Y126.105 Z0.44
G1 F300 Z0.24
G1 F2700 E466.38624
G1 F2250 X143.894 Y82.8 E471.27489
G1 F2700 E466.27489
G1 F300 Z0.44
G0 F15000 X146.156 Y82.8 Z0.44
G1 F300 Z0.24
G1 F2700 E471.27489
G1 F2250 X187.199 Y123.842 E475.90812
G1 F2700 E470.90812
G1 F300 Z0.44
G0 F15000 X187.199 Y121.579 Z0.44
G1 F300 Z0.24
G1 F2700 E475.90812
G1 F2250 X148.419 Y82.8 E480.28588
G1 F2700 E475.28588
G1 F300 Z0.44
G0 F15000 X150.682 Y82.8 Z0.44
G1 F300 Z0.24
G1 F2700 E480.28588
G1 F2250 X187.199 Y119.317 E484.40824
G1 F2700 E479.40824
G1 F300 Z0.44
G0 F15000 X187.199 Y117.054 Z0.44
G1 F300 Z0.24
G1 F2700 E484.40824
G1 F2250 X152.945 Y82.8 E488.27513
G1 F2700 E483.27513
G1 F300 Z0.44
G0 F15000 X155.207 Y82.8 Z0.44
G1 F300 Z0.24
G1 F2700 E488.27513
G1 F2250 X187.199 Y114.791 E491.8866
G1 F2700 E486.8866
G1 F300 Z0.44
G0 F15000 X187.199 Y112.528 Z0.44
G1 F300 Z0.24
G1 F2700 E491.8866
G1 F2250 X157.47 Y82.8 E495.24261
G1 F2700 E490.24261
G1 F300 Z0.44
G0 F15000 X159.733 Y82.8 Z0.44
G1 F300 Z0.24
G1 F2700 E495.24261
G1 F2250 X187.199 Y110.266 E498.34321
G1 F2700 E493.34321
G1 F300 Z0.44
G0 F15000 X187.199 Y108.003 Z0.44
G1 F300 Z0.24
G1 F2700 E498.34321
G1 F2250 X161.996 Y82.8 E501.18834
G1 F2700 E496.18834
G1 F300 Z0.44
G0 F15000 X164.258 Y82.8 Z0.44
G1 F300 Z0.24
G1 F2700 E501.18834
G1 F2250 X187.199 Y105.74 E503.77807
G1 F2700 E498.77807
G1 F300 Z0.44
G0 F15000 X187.199 Y103.478 Z0.44
G1 F300 Z0.24
G1 F2700 E503.77807
G1 F2250 X166.521 Y82.8 E506.11238
G1 F2700 E501.11238
G1 F300 Z0.44
G0 F15000 X168.784 Y82.8 Z0.44
G1 F300 Z0.24
G1 F2700 E506.11238
G1 F2250 X187.199 Y101.215 E508.19122
G1 F2700 E503.19122
G1 F300 Z0.44
G0 F15000 X187.199 Y98.952 Z0.44
G1 F300 Z0.24
G1 F2700 E508.19122
G1 F2250 X171.047 Y82.8 E510.0146
G1 F2700 E505.0146
G1 F300 Z0.44
G0 F15000 X173.309 Y82.8 Z0.44
G1 F300 Z0.24
G1 F2700 E510.0146
G1 F2250 X187.199 Y96.689 E511.58257
G1 F2700 E506.58257
G1 F300 Z0.44
G0 F15000 X187.199 Y94.427 Z0.44
G1 F300 Z0.24
G1 F2700 E511.58257
G1 F2250 X175.572 Y82.8 E512.89512
G1 F2700 E507.89512
G1 F300 Z0.44
G0 F15000 X177.835 Y82.8 Z0.44
G1 F300 Z0.24
G1 F2700 E512.89512
G1 F2250 X187.199 Y92.164 E513.95221
G1 F2700 E508.95221
G1 F300 Z0.44
G0 F15000 X187.199 Y89.901 Z0.44
G1 F300 Z0.24
G1 F2700 E513.95221
G1 F2250 X180.097 Y82.8 E514.75389
G1 F2700 E509.75389
G1 F300 Z0.44
G0 F15000 X182.36 Y82.8 Z0.44
G1 F300 Z0.24
G1 F2700 E514.75389
G1 F2250 X187.199 Y87.638 E515.3001
G1 F2700 E510.3001
G1 F300 Z0.44
G0 F15000 X187.199 Y85.376 Z0.44
G1 F300 Z0.24
G1 F2700 E515.3001
G1 F2250 X184.623 Y82.8 E515.5909
G1 F2700 E510.5909
G1 F300 Z0.44
G0 F15000 X186.871 Y151.125 Z0.44
;TIME_ELAPSED:222.017711
;LAYER:-4
G0 X186.871 Y151.125 Z1.04
;TYPE:SUPPORT
G1 F300 Z0.84
G1 F2700 E515.5909
G1 F2250 X186.119 Y151.877 E515.80313
G1 X186.381 Y151.697 E515.86657
G1 X186.636 Y151.455 E515.93673
G1 X186.845 Y151.175 E516.00645
G1 X187.019 Y150.842 E516.08143
G1 X187.126 Y150.512 E516.15066
G1 X187.181 Y150.185 E516.21683
G1 X187.199 Y149.864 E516.28099
G1 X187.199 Y149.383 E516.37698
G1 X184.387 Y152.195 E517.17059
G1 X182.973 Y152.195 E517.45277
G1 X187.199 Y147.969 E518.64544
G1 X187.199 Y146.554 E518.92782
G1 X181.558 Y152.195 E520.51983
G1 X180.144 Y152.195 E520.80201
G1 X187.199 Y145.14 E522.79308
G1 X187.199 Y143.726 E523.07526
G1 X178.73 Y152.195 E525.46539
G1 X177.316 Y152.195 E525.74757
G1 X187.199 Y142.312 E528.53677
