;FLAVOR:Marlin
;TIME:865
;Filament used: 1.5783m
;Layer height: 0.4
;MINX:74.9
;MINY:86.9
;MINZ:0.24
;MAXX:160.1
;MAXY:148.1
;MAXZ:6.59
;Generated with Cura_SteamEngine 5.3.1
M140 S60
M105
M190 S60
M104 S210
M105
M109 S210
M82 ;absolute extrusion mode
; Ender 3 Custom Start G-code
G92 E0 ; Reset Extruder
G28 ; Home all axes
G1 Z2.0 F3000 ; Move Z Axis up little to prevent scratching of Heat Bed
G1 X0.1 Y20 Z0.3 F5000.0 ; Move to start position
G1 X0.1 Y200.0 Z0.3 F1500.0 E15 ; Draw the first line
G1 X0.4 Y200.0 Z0.3 F5000.0 ; Move to side a little
G1 X0.4 Y20 Z0.3 F1500.0 E30 ; Draw the second line
G92 E0 ; Reset Extruder
G1 Z2.0 F3000 ; Move Z Axis up little to prevent scratching of Heat Bed
G1 X5 Y20 Z0.3 F5000.0 ; Move over to prevent blob squish
G92 E0
G92 E0
G1 F2700 E-5
;LAYER_COUNT:13
;LAYER:-5
M107
G0 F15000 X93.258 Y103.43 Z0.24
;TYPE:SUPPORT-INTERFACE
G1 F2700 E0
G1 F2250 X94.066 Y102.701 E0.08687
G1 X94.994 Y101.919 E0.18374
G1 X96 Y101.128 E0.28589
G1 X96.578 Y100.687 E0.34393
G1 X96.594 Y100.688 E0.34521
G1 X97.581 Y99.995 E0.44148
G1 X98.493 Y99.399 E0.52844
G1 X99.628 Y98.711 E0.63439
G1 X100.826 Y98.034 E0.74423
G1 X100.842 Y98.042 E0.74566
G1 X101.779 Y97.557 E0.82988
G1 X102.907 Y97.03 E0.92926
G1 X103.555 Y96.747 E0.98571
G1 X104.64 Y96.307 E1.07917
G1 X105.7 Y95.915 E1.16938
G1 X107.001 Y95.483 E1.27881
G1 X107.562 Y95.319 E1.32547
G1 X108.19 Y95.089 E1.37885
G1 X108.794 Y94.776 E1.43315
G1 X109.364 Y94.38 E1.48856
G1 X109.839 Y93.957 E1.53933
G1 X110.313 Y93.413 E1.59693
G1 X110.686 Y92.854 E1.65057
G1 X110.995 Y92.229 E1.70622
G1 X111.217 Y91.587 E1.76045
G1 X111.351 Y90.958 E1.81178
G1 X111.398 Y90.538 E1.84552
G1 X111.429 Y90.139 E1.87747
G1 X111.481 Y89.753 E1.90856
G1 X111.626 Y89.256 E1.94988
G1 X111.831 Y88.799 E1.98986
G1 X112.099 Y88.376 E2.02984
G1 X112.436 Y87.978 E2.07147
G1 X112.828 Y87.636 E2.11299
G1 X113.231 Y87.369 E2.15158
G1 X113.702 Y87.148 E2.19311
G1 X114.197 Y86.995 E2.23447
G1 X114.619 Y86.93 E2.26855
G1 X115.004 Y86.9 E2.29938
G1 X119.881 Y86.9 E2.68868
G1 X120.362 Y86.929 E2.72715
G1 X120.749 Y86.982 E2.75833
G1 X121.244 Y87.125 E2.79946
G1 X121.701 Y87.331 E2.83947
G1 X122.125 Y87.599 E2.87951
G1 X122.522 Y87.937 E2.92113
G1 X122.864 Y88.328 E2.9626
G1 X123.137 Y88.742 E3.00218
G1 X123.353 Y89.201 E3.04267
G1 X123.504 Y89.692 E3.08368
G1 X123.566 Y90.101 E3.1167
G1 X123.61 Y90.566 E3.15399
G1 X123.626 Y90.579 E3.15563
G1 X123.645 Y90.933 E3.18393
G1 X123.793 Y91.631 E3.24089
G1 X124.034 Y92.301 E3.29772
G1 X124.328 Y92.878 E3.34942
G1 X124.725 Y93.463 E3.40585
G1 X125.146 Y93.943 E3.45682
G1 X125.676 Y94.414 E3.51341
G1 X126.263 Y94.809 E3.56989
G1 X126.854 Y95.108 E3.62276
G1 X127.445 Y95.321 E3.67291
G1 X128.091 Y95.512 E3.72668
G1 X129.563 Y95.997 E3.8504
G1 X129.57 Y96.013 E3.85179
G1 X130.384 Y96.313 E3.92104
G1 X131.465 Y96.755 E4.01427
G1 X132.088 Y97.028 E4.06856
G1 X133.223 Y97.561 E4.16865
G1 X134.118 Y98.007 E4.24848
G1 X134.12 Y98.021 E4.24961
G1 X135.507 Y98.787 E4.37608
G1 X135.874 Y99.008 E4.41028
G1 X136.992 Y99.712 E4.51574
G1 X137.57 Y100.098 E4.57122
G1 X138.49 Y100.746 E4.66105
G1 X138.975 Y101.108 E4.70936
G1 X140.003 Y101.916 E4.81373
G1 X140.928 Y102.695 E4.91027
G1 X141.739 Y103.426 E4.99742
G1 X142.172 Y103.836 E5.04502
G1 X143.234 Y104.905 E5.16531
G1 X143.569 Y105.257 E5.20409
G1 X144.299 Y106.066 E5.29108
G1 X145.113 Y107.034 E5.39204
G1 X145.923 Y108.065 E5.4967
G1 X146.313 Y108.578 E5.54814
G1 X146.312 Y108.594 E5.54942
G1 X146.962 Y109.513 E5.63927
G1 X147.601 Y110.492 E5.73259
G1 X148.347 Y111.73 E5.84797
G1 X148.966 Y112.828 E5.94858
G1 X148.959 Y112.843 E5.9499
G1 X149.465 Y113.83 E6.03844
G1 X149.97 Y114.907 E6.13339
G1 X150.231 Y115.502 E6.18526
G1 X150.693 Y116.64 E6.2833
G1 X151.118 Y117.793 E6.38139
G1 X151.506 Y118.965 E6.47994
G1 X151.681 Y119.562 E6.5296
G1 X151.902 Y120.17 E6.58124
G1 X152.215 Y120.78 E6.63597
G1 X152.62 Y121.364 E6.6927
G1 X153.043 Y121.839 E6.74347
G1 X153.55 Y122.284 E6.79732
G1 X154.121 Y122.671 E6.85238
G1 X154.772 Y122.995 E6.91043
G1 X155.413 Y123.217 E6.96457
G1 X156.042 Y123.351 E7.01591
G1 X156.457 Y123.397 E7.04924
G1 X156.858 Y123.429 E7.08135
G1 X157.249 Y123.482 E7.11285
G1 X157.744 Y123.625 E7.15398
G1 X158.201 Y123.831 E7.19399
G1 X158.625 Y124.099 E7.23403
G1 X159.022 Y124.437 E7.27565
G1 X159.365 Y124.828 E7.31717
G1 X159.638 Y125.244 E7.35689
G1 X159.858 Y125.716 E7.39846
G1 X160.003 Y126.192 E7.43818
G1 X160.069 Y126.619 E7.47267
G1 X160.1 Y127.093 E7.51059
G1 X160.1 Y131.881 E7.89278
G1 X160.072 Y132.361 E7.93117
G1 X160.018 Y132.751 E7.96259
G1 X159.874 Y133.245 E8.00367
G1 X159.669 Y133.7 E8.0435
G1 X159.401 Y134.125 E8.08361
G1 X159.063 Y134.522 E8.12523
G1 X158.671 Y134.865 E8.16681
G1 X158.273 Y135.128 E8.20489
G1 X157.799 Y135.353 E8.24677
G1 X157.302 Y135.505 E8.28826
G1 X156.902 Y135.566 E8.32056
G1 X156.427 Y135.604 E8.3586
G1 X156.419 Y135.614 E8.35962
G1 X156.053 Y135.647 E8.38895
G1 X155.372 Y135.792 E8.44453
G1 X154.701 Y136.033 E8.50144
G1 X154.114 Y136.332 E8.55403
G1 X153.573 Y136.697 E8.60612
G1 X153.041 Y137.16 E8.66242
G1 X152.578 Y137.685 E8.7183
G1 X152.202 Y138.242 E8.77194
G1 X151.889 Y138.858 E8.8271
G1 X151.663 Y139.493 E8.8809
G1 X151.592 Y139.759 E8.90288
G1 X151.092 Y141.286 E9.03114
G1 X150.682 Y142.392 E9.12529
G1 X150.239 Y143.483 E9.21929
G1 X149.993 Y144.045 E9.26826
G1 X149.709 Y144.657 E9.32211
G1 X149.335 Y145.426 E9.39037
G1 X149.341 Y145.436 E9.39131
G1 X148.926 Y146.213 E9.46162
G1 X148.777 Y146.458 E9.48451
G1 X148.541 Y146.786 E9.51677
G1 X148.188 Y147.158 E9.5577
G1 X147.789 Y147.472 E9.59823
G1 X147.344 Y147.73 E9.63929
G1 X146.872 Y147.924 E9.68003
G1 X146.378 Y148.043 E9.72059
G1 X145.995 Y148.086 E9.75135
G1 X145.691 Y148.099 E9.77564
G1 X143.021 Y148.1 E9.98877
G1 X142.54 Y148.071 E10.02724
G1 X142.153 Y148.018 E10.05842
G1 X141.664 Y147.876 E10.09907
G1 X141.204 Y147.671 E10.13927
G1 X140.763 Y147.391 E10.18096
G1 X140.379 Y147.062 E10.22133
G1 X140.037 Y146.673 E10.26268
G1 X139.768 Y146.264 E10.30175
G1 X139.548 Y145.795 E10.3431
G1 X139.396 Y145.299 E10.38451
G1 X139.318 Y144.802 E10.42467
G1 X139.311 Y144.305 E10.46435
G1 X139.374 Y143.802 E10.50481
G1 X139.509 Y143.309 E10.54562
G1 X139.666 Y142.935 E10.57799
G1 X139.814 Y142.649 E10.6037
G1 X140.29 Y141.804 E10.68112
G1 X140.625 Y141.16 E10.73906
G1 X141.059 Y140.264 E10.81853
G1 X141.47 Y139.285 E10.90329
G1 X141.466 Y139.278 E10.90393
G1 X141.731 Y138.647 E10.95856
G1 X141.905 Y138.168 E10.99924
G1 X142.172 Y137.379 E11.06573
G1 X142.332 Y136.863 E11.10886
G1 X142.586 Y135.938 E11.18543
G1 X142.675 Y135.585 E11.21449
G1 X142.895 Y134.582 E11.29646
G1 X143.05 Y133.733 E11.36535
G1 X143.181 Y132.847 E11.43684
G1 X143.251 Y132.285 E11.48205
G1 X143.297 Y131.768 E11.52348
G1 X143.358 Y130.907 E11.59238
G1 X143.39 Y130.17 E11.65127
G1 X143.399 Y129.391 E11.71345
G1 X143.373 Y128.235 E11.80575
G1 X143.279 Y127.017 E11.90327
G1 X143.199 Y126.283 E11.96221
G1 X143.045 Y125.22 E12.04795
G1 X142.881 Y124.337 E12.11964
G1 X142.802 Y123.967 E12.14984
G1 X142.615 Y123.174 E12.21488
G1 X142.334 Y122.153 E12.29941
G1 X142.196 Y121.693 E12.33774
G1 X141.892 Y120.793 E12.41357
G1 X141.469 Y119.691 E12.5078
G1 X141.262 Y119.199 E12.5504
G1 X140.93 Y118.461 E12.615
G1 X140.778 Y118.143 E12.64314
G1 X140.489 Y117.594 E12.69266
G1 X140.496 Y117.581 E12.69384
G1 X140.283 Y117.181 E12.73001
G1 X139.911 Y116.518 E12.7907
G1 X139.644 Y116.069 E12.8324
G1 X139.099 Y115.205 E12.91394
G1 X138.886 Y114.892 E12.94416
G1 X138.34 Y114.122 E13.01951
G1 X137.932 Y113.584 E13.07341
G1 X137.215 Y112.706 E13.1639
G1 X136.739 Y112.154 E13.22208
G1 X136.102 Y111.479 E13.29616
G1 X135.804 Y111.176 E13.33009
G1 X135.128 Y110.525 E13.405
G1 X134.824 Y110.246 E13.43794
G1 X134.038 Y109.568 E13.5208
G1 X133.33 Y109.002 E13.59316
G1 X132.605 Y108.461 E13.66536
G1 X131.864 Y107.949 E13.73726
G1 X131.112 Y107.468 E13.80852
G1 X130.449 Y107.071 E13.8702
G1 X130.06 Y106.851 E13.90588
G1 X129.156 Y106.372 E13.98754
G1 X128.664 Y106.141 E14.03093
G1 X128.661 Y106.131 E14.03176
G1 X127.811 Y105.753 E14.10602
G1 X127.805 Y105.758 E14.10664
G1 X127.283 Y105.521 E14.15241
G1 X126.362 Y105.163 E14.23128
G1 X125.572 Y104.891 E14.29798
G1 X125.087 Y104.736 E14.33862
G1 X123.905 Y104.406 E14.43658
G1 X122.924 Y104.172 E14.51709
G1 X122.544 Y104.093 E14.54807
G1 X121.529 Y103.917 E14.6303
G1 X120.98 Y103.837 E14.67459
G1 X120.114 Y103.732 E14.74422
G1 X119.68 Y103.692 E14.77901
G1 X118.62 Y103.628 E14.86378
G1 X118.017 Y103.607 E14.91194
G1 X117.142 Y103.604 E14.98179
G1 X116.212 Y103.629 E15.05605
G1 X115.16 Y103.708 E15.14026
G1 X114.294 Y103.8 E15.20978
G1 X113.366 Y103.933 E15.28461
G1 X112.504 Y104.086 E15.3545
G1 X111.565 Y104.287 E15.43115
G1 X110.706 Y104.508 E15.50195
G1 X109.908 Y104.738 E15.56825
G1 X109.495 Y104.869 E15.60283
G1 X108.676 Y105.148 E15.6719
G1 X108.327 Y105.278 E15.70163
G1 X107.508 Y105.607 E15.77208
G1 X106.498 Y106.055 E15.86028
G1 X105.853 Y106.366 E15.91744
G1 X105.278 Y106.666 E15.96921
G1 X104.535 Y107.079 E16.03706
G1 X103.906 Y107.455 E16.09556
G1 X103.119 Y107.96 E16.1702
G1 X102.305 Y108.527 E16.24939
G1 X101.694 Y108.983 E16.31025
G1 X100.944 Y109.582 E16.38687
G1 X100.301 Y110.136 E16.45462
G1 X99.738 Y110.65 E16.51547
G1 X98.987 Y111.39 E16.59963
G1 X98.375 Y112.034 E16.67055
G1 X98.035 Y112.415 E16.71131
G1 X97.451 Y113.105 E16.78347
G1 X97.087 Y113.558 E16.82986
G1 X96.506 Y114.333 E16.90717
G1 X96.31 Y114.609 E16.9342
G1 X95.776 Y115.402 E17.01051
G1 X95.356 Y116.066 E17.07323
G1 X95.083 Y116.528 E17.11606
G1 X94.717 Y117.182 E17.17589
G1 X94.535 Y117.553 E17.20887
G1 X94.515 Y117.558 E17.21052
G1 X94.28 Y118.023 E17.25211
G1 X94.046 Y118.517 E17.29574
G1 X93.678 Y119.338 E17.36756
G1 X93.186 Y120.578 E17.47405
G1 X93.056 Y120.937 E17.50453
G1 X92.749 Y121.868 E17.58278
G1 X92.595 Y122.395 E17.62661
G1 X92.422 Y123.032 E17.6793
G1 X92.193 Y123.988 E17.75777
G1 X92.123 Y124.316 E17.78454
G1 X91.952 Y125.254 E17.86065
G1 X91.802 Y126.287 E17.94397
G1 X91.722 Y127.015 E18.00243
G1 X91.646 Y127.954 E18.07763
G1 X91.621 Y128.476 E18.11935
G1 X91.603 Y129.251 E18.18123
G1 X91.61 Y130.177 E18.25515
G1 X91.637 Y130.897 E18.31266
G1 X91.698 Y131.775 E18.38292
G1 X91.819 Y132.859 E18.46999
G1 X91.949 Y133.732 E18.54044
G1 X92.112 Y134.614 E18.61204
G1 X92.325 Y135.58 E18.691
G1 X92.418 Y135.964 E18.72254
G1 X92.701 Y136.975 E18.80634
G1 X93.087 Y138.15 E18.90507
G1 X93.28 Y138.675 E18.94972
G1 X93.521 Y139.264 E19.00052
G1 X93.513 Y139.278 E19.00181
G1 X93.903 Y140.175 E19.07988
G1 X94.398 Y141.211 E19.17154
G1 X94.712 Y141.808 E19.22538
G1 X95.183 Y142.645 E19.30205
G1 X95.372 Y143.024 E19.33585
G1 X95.503 Y143.356 E19.36434
G1 X95.608 Y143.672 E19.39092
G1 X95.6 Y143.682 E19.39195
G1 X95.659 Y144.031 E19.4202
G1 X95.693 Y144.403 E19.45002
G1 X95.671 Y144.911 E19.49061
G1 X95.577 Y145.415 E19.53153
G1 X95.402 Y145.92 E19.5742
G1 X95.171 Y146.366 E19.61429
G1 X94.888 Y146.768 E19.65353
G1 X94.52 Y147.156 E19.69622
G1 X94.137 Y147.459 E19.7352
G1 X93.698 Y147.72 E19.77597
G1 X93.23 Y147.912 E19.81635
G1 X92.719 Y148.042 E19.85844
G1 X92.344 Y148.085 E19.88857
G1 X92.03 Y148.1 E19.91366
G1 X89.352 Y148.1 E20.12743
G1 X88.871 Y148.071 E20.1659
G1 X88.484 Y148.018 E20.19708
G1 X87.995 Y147.876 E20.23772
G1 X87.535 Y147.671 E20.27793
G1 X87.094 Y147.391 E20.31962
G1 X86.71 Y147.062 E20.35999
G1 X86.364 Y146.669 E20.40179
G1 X86.13 Y146.32 E20.43533
G1 X85.856 Y145.825 E20.48049
G1 X85.322 Y144.727 E20.57795
G1 X84.969 Y143.953 E20.64586
G1 X84.537 Y142.945 E20.7334
G1 X84.264 Y142.251 E20.79293
G1 X83.888 Y141.227 E20.88001
G1 X83.544 Y140.19 E20.96722
G1 X83.336 Y139.49 E21.02551
G1 X83.097 Y138.826 E21.08184
G1 X82.796 Y138.24 E21.13443
G1 X82.42 Y137.683 E21.18807
G1 X81.975 Y137.176 E21.24192
G1 X81.465 Y136.726 E21.29622
G1 X80.888 Y136.333 E21.35194
G1 X80.266 Y136.02 E21.40753
G1 X79.621 Y135.791 E21.46216
G1 X78.983 Y135.651 E21.5143
G1 X78.571 Y135.617 E21.5473
G1 X78.56 Y135.603 E21.54872
G1 X78.141 Y135.571 E21.58227
G1 X77.751 Y135.518 E21.61368
G1 X77.262 Y135.376 E21.65433
G1 X76.802 Y135.171 E21.69453
G1 X76.361 Y134.891 E21.73623
G1 X75.977 Y134.562 E21.77659
G1 X75.639 Y134.177 E21.81749
G1 X75.36 Y133.754 E21.85794
G1 X75.146 Y133.297 E21.89822
G1 X74.995 Y132.801 E21.93961
G1 X74.931 Y132.381 E21.97352
G1 X74.901 Y131.902 E22.01183
G1 X74.9 Y127.119 E22.39363
G1 X74.929 Y126.637 E22.43217
G1 X74.981 Y126.253 E22.46311
G1 X75.126 Y125.756 E22.50443
G1 X75.331 Y125.3 E22.54434
G1 X75.602 Y124.869 E22.58498
G1 X75.937 Y124.478 E22.62608
G1 X76.327 Y124.136 E22.66749
G1 X76.731 Y123.869 E22.70614
G1 X77.202 Y123.648 E22.74767
G1 X77.698 Y123.495 E22.78911
G1 X78.101 Y123.434 E22.82164
G1 X78.949 Y123.354 E22.88964
G1 X79.634 Y123.206 E22.94558
G1 X80.303 Y122.965 E23.00234
G1 X80.873 Y122.675 E23.05339
G1 X81.469 Y122.271 E23.11086
G1 X81.982 Y121.815 E23.16565
G1 X82.423 Y121.312 E23.21905
G1 X82.796 Y120.761 E23.27216
G1 X83.105 Y120.154 E23.32653
G1 X83.323 Y119.549 E23.37787
G1 X83.525 Y118.866 E23.43472
G1 X83.995 Y117.438 E23.55473
G1 X84.013 Y117.43 E23.5563
G1 X84.333 Y116.569 E23.62962
G1 X84.767 Y115.508 E23.72113
G1 X85.028 Y114.912 E23.77306
G1 X85.518 Y113.867 E23.8652
G1 X86.005 Y112.884 E23.95276
G1 X86.021 Y112.88 E23.95408
G1 X86.551 Y111.908 E24.04245
G1 X87.019 Y111.108 E24.11644
G1 X87.713 Y110.006 E24.2204
G1 X88.039 Y109.516 E24.26738
G1 X88.676 Y108.604 E24.35617
G1 X89.144 Y107.978 E24.41857
G1 X89.919 Y106.994 E24.51855
G1 X90.663 Y106.109 E24.61084
G1 X91.323 Y105.371 E24.68987
G1 X91.835 Y104.83 E24.74933
G1 X92.904 Y103.767 E24.86967
G1 X93.258 Y103.43 E24.90869
G0 F15000 X92.96 Y104.274
G1 F2250 X99.252 Y110.566 E25.61898
G1 F2700 E20.61898
G1 F300 Z0.44
G0 F15000 X98.132 Y111.709 Z0.44
G1 F300 Z0.24
G1 F2700 E25.61898
G1 F2250 X91.834 Y105.41 E26.33001
G1 F2700 E21.33001
G1 F300 Z0.44
G0 F15000 X90.766 Y106.605 Z0.44
G1 F300 Z0.24
G1 F2700 E26.33001
G1 F2250 X97.084 Y112.923 E27.04324
G1 F2700 E22.04324
G1 F300 Z0.44
G0 F15000 X96.105 Y114.206 Z0.44
G1 F300 Z0.24
G1 F2700 E27.04324
G1 F2250 X89.75 Y107.852 E27.76059
G1 F2700 E22.76059
G1 F300 Z0.44
G0 F15000 X88.782 Y109.147 Z0.44
G1 F300 Z0.24
G1 F2700 E27.76059
G1 F2250 X95.199 Y115.564 E28.485
G1 F2700 E23.485
G1 F300 Z0.44
G0 F15000 X94.365 Y116.992 Z0.44
G1 F300 Z0.24
G1 F2700 E28.485
G1 F2250 X87.872 Y110.5 E29.21793
G1 F2700 E24.21793
G1 F300 Z0.44
G0 F15000 X87.015 Y111.905 Z0.44
G1 F300 Z0.24
G1 F2700 E29.21793
G1 F2250 X93.613 Y118.503 E29.96277
G1 F2700 E24.96277
G1 F300 Z0.44
G0 F15000 X92.945 Y120.098 Z0.44
G1 F300 Z0.24
G1 F2700 E29.96277
G1 F2250 X86.211 Y113.364 E30.72296
G1 F2700 E25.72296
G1 F300 Z0.44
G0 F15000 X85.477 Y114.893 Z0.44
G1 F300 Z0.24
G1 F2700 E30.72296
G1 F2250 X92.359 Y121.775 E31.49986
G1 F2700 E26.49986
G1 F300 Z0.44
G0 F15000 X91.884 Y123.562 Z0.44
G1 F300 Z0.24
G1 F2700 E31.49986
G1 F2250 X84.801 Y116.479 E32.29945
G1 F2700 E27.29945
G1 F300 Z0.44
G0 F15000 X84.188 Y118.129 Z0.44
G1 F300 Z0.24
G1 F2700 E32.29945
G1 F2250 X91.518 Y125.459 E33.12692
G1 F2700 E28.12692
G1 F300 Z0.44
G0 F15000 X91.282 Y127.486 Z0.44
G1 F300 Z0.24
G1 F2700 E33.12692
G1 F2250 X83.64 Y119.844 E33.98962
G1 F2700 E28.98962
G1 F300 Z0.44
G0 F15000 X82.88 Y121.347 Z0.44
G1 F300 Z0.24
G1 F2700 E33.98962
G1 F2250 X91.206 Y129.673 E34.92953
G1 F2700 E29.92953
G1 F300 Z0.44
G0 F15000 X91.327 Y132.056 Z0.44
G1 F300 Z0.24
G1 F2700 E34.92953
G1 F2250 X81.79 Y122.519 E36.00615
G1 F2700 E31.00615
G1 F300 Z0.44
G0 F15000 X80.374 Y123.366 Z0.44
G1 F300 Z0.24
G1 F2700 E36.00615
G1 F2250 X91.727 Y134.719 E37.28777
G1 F2700 E32.28777
G1 F300 Z0.44
G0 F15000 X92.554 Y137.809 Z0.44
G1 F300 Z0.24
G1 F2700 E37.28777
G1 F2250 X78.539 Y123.793 E38.86996
G1 F2700 E33.86996
G1 F300 Z0.44
G0 F15000 X76.791 Y124.308 Z0.44
G1 F300 Z0.24
G1 F2700 E38.86996
G1 F2250 X94.228 Y141.745 E40.8384
G1 F2700 E35.8384
G1 F300 Z0.44
G0 F15000 X95.243 Y145.023 Z0.44
G1 F300 Z0.24
G1 F2700 E40.8384
G1 F2250 X75.692 Y125.473 E43.04543
G1 F2700 E38.04543
G1 F300 Z0.44
G0 F15000 X75.299 Y127.342 Z0.44
G1 F300 Z0.24
