;FLAVOR:Marlin
;TIME:1068
;Filament used: 1.94975m
;Layer height: 0.4
;MINX:75.885
;MINY:75.9
;MINZ:0.24
;MAXX:159.1
;MAXY:159.1
;MAXZ:6.59
;Generated with Cura_SteamEngine 5.3.1
M140 S60
M105
M190 S60
M104 S230
M105
M109 S230
M82 ;absolute extrusion mode
; Ender 3 Custom Start G-code
G92 E0 ; Reset Extruder
G28 ; Home all axes
G1 Z2.0 F3000 ; Move Z Axis up little to prevent scratching of Heat Bed
G1 X0.1 Y20 Z0.3 F5000.0 ; Move to start position
G1 X0.1 Y200.0 Z0.3 F1500.0 E15 ; Draw the first line
G1 X0.4 Y200.0 Z0.3 F5000.0 ; Move to side a little
G1 X0.4 Y20 Z0.3 F1500.0 E30 ; Draw the second line
G92 E0 ; Reset Extruder
G1 Z2.0 F3000 ; Move Z Axis up little to prevent scratching of Heat Bed
G1 X5 Y20 Z0.3 F5000.0 ; Move over to prevent blob squish
G92 E0
G92 E0
G1 F2700 E-5
;LAYER_COUNT:13
;LAYER:-5
M107
G0 F15000 X93.578 Y92.489 Z0.24
;TYPE:SUPPORT-INTERFACE
G1 F2700 E0
G1 F2250 X93.596 Y92.489 E0.00144
G1 X94.355 Y91.782 E0.08424
G1 X94.773 Y91.41 E0.1289
G1 X95.731 Y90.608 E0.22863
G1 X96.665 Y89.877 E0.32331
G1 X97.085 Y89.565 E0.36507
G1 X98.081 Y88.865 E0.46225
G1 X99.133 Y88.178 E0.56255
G1 X100.167 Y87.554 E0.65895
G1 X100.566 Y87.328 E0.69555
G1 X101.704 Y86.717 E0.79866
G1 X102.261 Y86.437 E0.84842
G1 X103.246 Y85.974 E0.9353
G1 X103.901 Y85.687 E0.99239
G1 X104.828 Y85.303 E1.07248
G1 X105.822 Y84.931 E1.1572
G1 X106.867 Y84.563 E1.24564
G1 X106.882 Y84.573 E1.24708
G1 X107.716 Y84.312 E1.31684
G1 X108.449 Y84.111 E1.37751
G1 X109.045 Y83.906 E1.42782
G1 X109.705 Y83.582 E1.48651
G1 X110.264 Y83.211 E1.54006
G1 X110.768 Y82.775 E1.59326
G1 X111.244 Y82.247 E1.65001
G1 X111.622 Y81.701 E1.70302
G1 X111.945 Y81.079 E1.75896
G1 X112.174 Y80.459 E1.81172
G1 X112.33 Y79.768 E1.86827
G1 X112.399 Y78.941 E1.93451
G1 X112.389 Y78.582 E1.96318
G1 X112.401 Y78.571 E1.96448
G1 X112.419 Y78.273 E1.98831
G1 X112.489 Y77.86 E2.02175
G1 X112.617 Y77.48 E2.05376
G1 X112.826 Y77.09 E2.08908
G1 X113.056 Y76.79 E2.11925
G1 X113.381 Y76.476 E2.15532
G1 X113.714 Y76.254 E2.18727
G1 X114.122 Y76.061 E2.2233
G1 X114.499 Y75.959 E2.25447
G1 X114.951 Y75.9 E2.29086
G1 X119.869 Y75.9 E2.68344
G1 X120.237 Y75.922 E2.71287
G1 X120.6 Y75.981 E2.74222
G1 X120.989 Y76.108 E2.77489
G1 X121.409 Y76.325 E2.81262
G1 X121.738 Y76.578 E2.84575
G1 X122.024 Y76.881 E2.87901
G1 X122.246 Y77.211 E2.91076
G1 X122.441 Y77.624 E2.94722
G1 X122.54 Y77.995 E2.97787
G1 X122.592 Y78.389 E3.00959
G1 X122.6 Y78.938 E3.05342
G1 X122.64 Y79.558 E3.10301
G1 X122.771 Y80.253 E3.15947
G1 X122.987 Y80.91 E3.21468
G1 X123.285 Y81.535 E3.26995
G1 X123.656 Y82.11 E3.32457
G1 X124.094 Y82.63 E3.37884
G1 X124.586 Y83.087 E3.43244
G1 X125.116 Y83.467 E3.4845
G1 X125.713 Y83.794 E3.53884
G1 X126.615 Y84.122 E3.61545
G1 X127.356 Y84.336 E3.67702
G1 X128.252 Y84.615 E3.75193
G1 X129.229 Y84.94 E3.83412
G1 X129.236 Y84.956 E3.83551
G1 X130.147 Y85.296 E3.91313
G1 X131.064 Y85.671 E3.99221
G1 X131.752 Y85.973 E4.05219
G1 X132.739 Y86.437 E4.13925
G1 X133.246 Y86.69 E4.18448
G1 X134.358 Y87.286 E4.28519
G1 X134.847 Y87.563 E4.33005
G1 X135.48 Y87.941 E4.3889
G1 X136.382 Y88.504 E4.47378
G1 X136.96 Y88.889 E4.52922
G1 X137.909 Y89.56 E4.62199
G1 X139.262 Y90.587 E4.75759
G1 X139.264 Y90.607 E4.75919
G1 X140.242 Y91.423 E4.86086
G1 X141.373 Y92.444 E4.98249
G1 X141.373 Y92.46 E4.98377
G1 X141.998 Y93.07 E5.05348
G1 X142.797 Y93.897 E5.14527
G1 X143.597 Y94.782 E5.2405
G1 X144.392 Y95.731 E5.33932
G1 X145.089 Y96.62 E5.4295
G1 X145.435 Y97.084 E5.4757
G1 X146.168 Y98.128 E5.57753
G1 X146.822 Y99.133 E5.67324
G1 X147.4 Y100.09 E5.76249
G1 X148.091 Y101.309 E5.87434
G1 X148.083 Y101.324 E5.87569
G1 X148.512 Y102.13 E5.94858
G1 X148.505 Y102.151 E5.95035
G1 X149.027 Y103.247 E6.04725
G1 X149.301 Y103.871 E6.10165
G1 X149.697 Y104.827 E6.18425
G1 X150.17 Y106.109 E6.29333
G1 X150.512 Y107.13 E6.37928
G1 X150.854 Y108.307 E6.47712
G1 X151.068 Y108.973 E6.53296
G1 X151.364 Y109.6 E6.58831
G1 X151.731 Y110.18 E6.64309
G1 X152.166 Y110.705 E6.69752
G1 X152.623 Y111.136 E6.74766
G1 X153.174 Y111.54 E6.8022
G1 X153.813 Y111.895 E6.86055
G1 X154.445 Y112.141 E6.91469
G1 X155.127 Y112.311 E6.97079
G1 X156.062 Y112.399 E7.04576
G1 X156.369 Y112.4 E7.07027
G1 X156.737 Y112.422 E7.09969
G1 X157.1 Y112.481 E7.12905
G1 X157.489 Y112.608 E7.16171
G1 X157.909 Y112.825 E7.19945
G1 X158.238 Y113.078 E7.23258
G1 X158.524 Y113.381 E7.26584
G1 X158.746 Y113.711 E7.29759
G1 X158.94 Y114.124 E7.33401
G1 X159.051 Y114.536 E7.36807
G1 X159.096 Y114.936 E7.4002
G1 X159.1 Y119.86 E7.79326
G1 X159.078 Y120.238 E7.82348
G1 X159.019 Y120.6 E7.85276
G1 X158.885 Y121.015 E7.88757
G1 X158.675 Y121.41 E7.92328
G1 X158.428 Y121.732 E7.95568
G1 X158.143 Y122.001 E7.98696
G1 X157.762 Y122.263 E8.02387
G1 X157.41 Y122.424 E8.05477
G1 X156.999 Y122.542 E8.0889
G1 X156.608 Y122.592 E8.12037
G1 X156.066 Y122.6 E8.16364
G1 X155.441 Y122.64 E8.21363
G1 X154.73 Y122.776 E8.27141
G1 X154.076 Y122.992 E8.32639
G1 X153.467 Y123.283 E8.38027
G1 X152.912 Y123.638 E8.43286
G1 X152.383 Y124.079 E8.48783
G1 X151.903 Y124.597 E8.54421
G1 X151.532 Y125.114 E8.595
G1 X151.186 Y125.758 E8.65336
G1 X150.884 Y126.598 E8.72461
G1 X150.544 Y127.756 E8.82095
G1 X150.447 Y128.028 E8.844
G1 X150.457 Y128.044 E8.84551
G1 X150.164 Y128.91 E8.91849
G1 X149.791 Y129.925 E9.00481
G1 X149.365 Y130.981 E9.0957
G1 X148.975 Y131.894 E9.17495
G1 X148.958 Y131.899 E9.17637
G1 X148.395 Y133.071 E9.28015
G1 X148.127 Y133.596 E9.32721
G1 X147.939 Y133.906 E9.35615
G1 X147.689 Y134.234 E9.38907
G1 X147.404 Y134.509 E9.42068
G1 X147.08 Y134.732 E9.45208
G1 X146.672 Y134.928 E9.48821
G1 X146.247 Y135.048 E9.52346
G1 X145.824 Y135.099 E9.55747
G1 X143.033 Y135.1 E9.78026
G1 X142.665 Y135.078 E9.80969
G1 X142.302 Y135.019 E9.83905
G1 X141.884 Y134.884 E9.87411
G1 X141.491 Y134.674 E9.90968
G1 X141.195 Y134.446 E9.9395
G1 X140.898 Y134.138 E9.97366
G1 X140.654 Y133.785 E10.00791
G1 X140.462 Y133.378 E10.04383
G1 X140.362 Y133.006 E10.07458
G1 X140.315 Y132.587 E10.10824
G1 X140.336 Y132.16 E10.14236
G1 X140.428 Y131.736 E10.177
G1 X140.6 Y131.289 E10.21523
G1 X141.035 Y130.529 E10.28513
G1 X141.522 Y129.603 E10.36865
G1 X141.996 Y128.614 E10.45619
G1 X142.374 Y127.738 E10.53235
G1 X142.678 Y126.975 E10.59791
G1 X142.852 Y126.494 E10.63874
G1 X143.151 Y125.604 E10.71369
G1 X143.288 Y125.153 E10.75131
G1 X143.586 Y124.011 E10.84553
G1 X143.595 Y124.006 E10.84635
G1 X143.712 Y123.546 E10.88424
G1 X143.919 Y122.561 E10.96458
G1 X144.142 Y121.233 E11.07207
G1 X144.261 Y120.218 E11.15365
G1 X144.358 Y118.938 E11.25612
G1 X144.391 Y118.148 E11.31923
G1 X144.399 Y117.354 E11.38262
G1 X144.371 Y116.171 E11.47707
G1 X144.27 Y114.878 E11.5806
G1 X144.145 Y113.784 E11.6685
G1 X144.008 Y112.912 E11.73896
G1 X143.768 Y111.714 E11.83649
G1 X143.568 Y110.868 E11.90588
G1 X143.228 Y109.672 E12.00513
G1 X143.236 Y109.66 E12.00628
G1 X142.908 Y108.667 E12.08976
G1 X142.518 Y107.623 E12.17872
G1 X142.145 Y106.722 E12.25657
G1 X141.967 Y106.346 E12.28977
G1 X141.975 Y106.332 E12.29106
G1 X141.573 Y105.498 E12.36496
G1 X141.195 Y104.767 E12.43065
G1 X140.799 Y104.056 E12.49562
G1 X140.169 Y103.019 E12.59248
G1 X139.741 Y102.372 E12.6544
G1 X139.169 Y101.561 E12.73362
G1 X138.588 Y100.8 E12.81005
G1 X137.928 Y99.998 E12.89296
G1 X137.438 Y99.444 E12.95199
G1 X136.645 Y98.605 E13.04415
G1 X135.606 Y97.621 E13.15838
G1 X135.606 Y97.599 E13.16013
G1 X134.605 Y96.742 E13.26532
G1 X133.871 Y96.157 E13.34024
G1 X133.228 Y95.677 E13.4043
G1 X132.488 Y95.163 E13.47622
G1 X131.674 Y94.639 E13.55349
G1 X130.93 Y94.188 E13.62294
G1 X130.234 Y93.807 E13.68628
G1 X129.485 Y93.417 E13.75369
G1 X129.115 Y93.236 E13.78657
G1 X128.217 Y92.827 E13.86533
G1 X127.819 Y92.658 E13.89985
G1 X126.973 Y92.324 E13.97245
G1 X126.565 Y92.172 E14.00721
G1 X126.08 Y92.005 E14.04815
G1 X125.053 Y91.694 E14.13381
G1 X125.048 Y91.698 E14.13432
G1 X124.508 Y91.53 E14.17946
G1 X123.818 Y91.352 E14.23635
G1 X122.823 Y91.132 E14.31769
G1 X121.632 Y90.92 E14.41426
G1 X121.148 Y90.848 E14.45332
G1 X120.419 Y90.758 E14.51195
G1 X119.341 Y90.663 E14.59833
G1 X118.197 Y90.611 E14.68975
G1 X117.426 Y90.602 E14.7513
G1 X116.941 Y90.606 E14.79001
G1 X116.223 Y90.629 E14.84735
G1 X115.157 Y90.7 E14.93264
G1 X114.45 Y90.774 E14.98938
G1 X113.568 Y90.89 E15.06039
G1 X113.01 Y90.987 E15.1056
G1 X112.998 Y90.977 E15.10685
G1 X111.876 Y91.196 E15.1981
G1 X110.768 Y91.456 E15.28895
G1 X110.009 Y91.665 E15.35179
G1 X109.461 Y91.829 E15.39745
G1 X108.653 Y92.097 E15.4654
G1 X108.116 Y92.29 E15.51095
G1 X107.213 Y92.645 E15.58841
G1 X106.538 Y92.935 E15.64705
G1 X105.677 Y93.338 E15.72293
G1 X104.672 Y93.857 E15.81322
G1 X103.903 Y94.291 E15.88371
G1 X103.379 Y94.605 E15.93247
G1 X102.837 Y94.947 E15.98363
G1 X101.973 Y95.534 E16.06701
G1 X101.664 Y95.755 E16.09734
G1 X100.854 Y96.37 E16.17852
G1 X100.451 Y96.693 E16.21974
G1 X99.819 Y97.228 E16.28584
G1 X99.13 Y97.852 E16.36004
G1 X98.36 Y98.597 E16.44557
G1 X98.02 Y98.947 E16.48452
G1 X97.368 Y99.659 E16.56158
G1 X96.908 Y100.206 E16.61864
G1 X96.893 Y100.207 E16.61984
G1 X96.201 Y101.072 E16.70826
G1 X95.701 Y101.738 E16.77474
G1 X95.44 Y102.105 E16.81069
G1 X94.899 Y102.913 E16.88831
G1 X94.671 Y103.273 E16.92232
G1 X94.192 Y104.071 E16.99662
G1 X93.676 Y105.014 E17.08242
G1 X93.23 Y105.904 E17.16189
G1 X92.889 Y106.637 E17.22642
G1 X92.601 Y107.348 E17.28766
G1 X92.593 Y107.35 E17.28831
G1 X92.372 Y107.9 E17.33563
G1 X92.039 Y108.813 E17.4132
G1 X91.775 Y109.639 E17.48243
G1 X91.501 Y110.593 E17.56166
G1 X91.29 Y111.443 E17.63157
G1 X91.093 Y112.375 E17.70761
G1 X90.924 Y113.338 E17.78565
G1 X90.796 Y114.237 E17.85814
G1 X90.686 Y115.349 E17.94734
G1 X90.63 Y116.253 E18.01964
G1 X90.605 Y117.066 E18.08456
G1 X90.606 Y117.994 E18.15864
G1 X90.648 Y119.097 E18.24675
G1 X90.722 Y120.033 E18.3217
G1 X90.821 Y120.946 E18.39501
G1 X90.885 Y121.403 E18.43184
G1 X91.005 Y122.143 E18.49168
G1 X91.194 Y123.116 E18.5708
G1 X91.438 Y124.162 E18.65654
G1 X91.654 Y124.96 E18.72253
G1 X91.763 Y125.325 E18.75294
G1 X92.138 Y126.441 E18.84692
G1 X92.129 Y126.454 E18.84818
G1 X92.617 Y127.718 E18.95634
G1 X92.798 Y128.15 E18.99373
G1 X93.129 Y128.891 E19.05851
G1 X93.388 Y129.428 E19.1061
G1 X93.732 Y130.096 E19.16608
G1 X94.26 Y131.046 E19.25284
G1 X94.544 Y131.52 E19.29695
G1 X94.913 Y132.107 E19.35229
G1 X95.577 Y133.089 E19.44692
G1 X95.801 Y133.399 E19.47745
G1 X96.285 Y134.041 E19.54163
G1 X96.868 Y134.763 E19.6157
G1 X97.607 Y135.605 E19.70513
G1 X98.167 Y136.202 E19.77047
G1 X98.788 Y136.824 E19.84063
G1 X99.609 Y137.588 E19.93015
G1 X100.214 Y138.11 E19.99394
G1 X101.069 Y138.796 E20.08144
G1 X101.69 Y139.263 E20.14346
G1 X102.114 Y139.568 E20.18516
G1 X102.834 Y140.049 E20.25427
G1 X103.626 Y140.545 E20.32887
G1 X104.413 Y141.001 E20.40147
G1 X105.45 Y141.548 E20.49506
G1 X105.782 Y141.713 E20.52466
G1 X106.676 Y142.128 E20.60333
G1 X107.12 Y142.317 E20.64185
G1 X107.722 Y142.56 E20.69367
G1 X108.701 Y142.92 E20.77694
G1 X109.59 Y143.211 E20.85161
G1 X110.162 Y143.378 E20.89917
G1 X110.959 Y143.593 E20.96507
G1 X111.384 Y143.696 E20.99997
G1 X112.354 Y143.903 E21.07915
G1 X113.279 Y144.065 E21.15411
G1 X114.256 Y144.207 E21.23292
G1 X115.148 Y144.296 E21.30447
G1 X115.62 Y144.334 E21.34227
G1 X116.69 Y144.386 E21.42779
G1 X117.579 Y144.399 E21.49876
G1 X118.788 Y144.372 E21.59529
G1 X119.354 Y144.337 E21.64056
G1 X120.162 Y144.269 E21.70528
G1 X120.857 Y144.19 E21.76112
G1 X121.827 Y144.05 E21.83935
G1 X122.769 Y143.877 E21.9158
G1 X123.665 Y143.683 E21.98898
G1 X124.114 Y143.574 E22.02586
G1 X124.814 Y143.389 E22.08366
G1 X125.921 Y143.048 E22.17612
G1 X126.223 Y142.947 E22.20154
G1 X127.241 Y142.574 E22.28809
G1 X127.649 Y142.409 E22.32322
G1 X128.561 Y142.022 E22.4023
G1 X128.821 Y141.902 E22.42516
G1 X129.154 Y141.774 E22.45363
G1 X129.489 Y141.682 E22.48137
G1 X129.938 Y141.63 E22.51745
G1 X130.389 Y141.661 E22.55353
G1 X130.809 Y141.762 E22.58801
G1 X131.171 Y141.909 E22.6192
G1 X131.552 Y142.148 E22.6551
G1 X131.848 Y142.405 E22.6864
G1 X132.121 Y142.732 E22.7204
G1 X132.345 Y143.125 E22.75651
G1 X132.487 Y143.505 E22.78889
G1 X132.566 Y143.912 E22.82198
G1 X132.6 Y144.364 E22.85817
G1 X132.6 Y146.818 E23.05406
G1 X132.578 Y147.195 E23.0842
G1 X132.519 Y147.557 E23.11348
G1 X132.384 Y147.973 E23.14839
G1 X132.164 Y148.38 E23.18532
G1 X131.927 Y148.69 E23.21647
G1 X131.644 Y148.956 E23.24747
G1 X131.27 Y149.206 E23.28338
G1 X130.957 Y149.374 E23.31174
G1 X129.47 Y149.969 E23.43959
G1 X128.299 Y150.37 E23.53839
G1 X127.011 Y150.766 E23.64595
G1 X126.335 Y150.956 E23.70201
G1 X125.625 Y151.248 E23.76329
G1 X125.034 Y151.583 E23.81752
G1 X124.5 Y151.984 E23.87082
G1 X124.031 Y152.432 E23.9226
G1 X123.591 Y152.978 E23.97857
G1 X123.233 Y153.56 E24.03311
G1 X122.941 Y154.205 E24.08963
G1 X122.745 Y154.848 E24.14329
G1 X122.635 Y155.481 E24.19457
G1 X122.6 Y156.085 E24.24287
G1 X122.6 Y156.36 E24.26482
G1 X122.578 Y156.738 E24.29505
G1 X122.519 Y157.1 E24.32432
G1 X122.385 Y157.515 E24.35913
G1 X122.175 Y157.91 E24.39484
G1 X121.928 Y158.232 E24.42724
G1 X121.643 Y158.501 E24.45852
G1 X121.262 Y158.763 E24.49543
G1 X120.91 Y158.924 E24.52633
G1 X120.499 Y159.042 E24.56046
G1 X120.049 Y159.099 E24.59667
G1 X115.131 Y159.1 E24.98925
G1 X114.763 Y159.078 E25.01868
G1 X114.4 Y159.019 E25.04803
G1 X113.982 Y158.884 E25.0831
G1 X113.589 Y158.674 E25.11866
G1 X113.266 Y158.426 E25.15117
G1 X112.997 Y158.141 E25.18245
G1 X112.749 Y157.778 E25.21755
G1 X112.561 Y157.38 E25.25268
G1 X112.46 Y157.004 E25.28376
G1 X112.406 Y156.593 E25.31685
G1 X112.4 Y156.062 E25.35924
G1 X112.36 Y155.442 E25.40883
G1 X112.227 Y154.739 E25.46595
G1 X112.01 Y154.081 E25.52125
G1 X111.737 Y153.505 E25.57213
G1 X111.37 Y152.925 E25.62692
G1 X110.933 Y152.397 E25.68163
G1 X110.393 Y151.897 E25.74038
G1 X109.849 Y151.51 E25.79367
G1 X109.433 Y151.277 E25.83173
G1 X108.78 Y150.998 E25.88841
G1 X107.249 Y150.546 E26.01584
G1 X105.767 Y150.058 E26.14039
G1 X105.762 Y150.045 E26.1415
G1 X104.386 Y149.517 E26.25915
G1 X103.195 Y149.003 E26.36269
G1 X102.2 Y148.544 E26.45016
G1 X102.192 Y148.527 E26.45166
G1 X101.106 Y147.967 E26.5492
G1 X100.607 Y147.695 E26.59456
G1 X99.714 Y147.179 E26.67689
G1 X99.143 Y146.827 E26.73044
G1 X98.203 Y146.222 E26.81967
G1 X97.131 Y145.468 E26.92429
G1 X96.63 Y145.096 E26.9741
G1 X95.608 Y144.292 E27.0779
G1 X94.734 Y143.554 E27.16921
G1 X93.913 Y142.812 E27.25754
G1 X93.45 Y142.372 E27.30853
G1 X92.556 Y141.475 E27.40962
G1 X91.782 Y140.645 E27.50021
G1 X91.368 Y140.178 E27.55003
G1 X90.712 Y139.396 E27.63151
G1 X89.877 Y138.334 E27.73935
G1 X89.529 Y137.866 E27.7859
G1 X88.833 Y136.873 E27.8827
G1 X88.5 Y136.371 E27.93079
G1 X87.917 Y135.442 E28.01834
G1 X87.559 Y134.843 E28.07404
G1 X87.028 Y133.89 E28.16112
G1 X86.412 Y132.688 E28.26894
G1 X85.984 Y131.776 E28.34936
G1 X85.655 Y131.026 E28.41473
G1 X85.297 Y130.157 E28.48976
G1 X84.821 Y128.864 E28.59974
G1 X84.497 Y127.905 E28.68054
G1 X84.503 Y127.889 E28.68191
G1 X84.135 Y126.657 E28.78454
G1 X83.946 Y126.064 E28.83423
G1 X83.66 Y125.444 E28.88873
G1 X83.268 Y124.818 E28.94769
G1 X82.834 Y124.295 E29.00194
G1 X82.377 Y123.864 E29.05208
G1 X81.826 Y123.46 E29.10662
G1 X81.187 Y123.105 E29.16497
G1 X80.555 Y122.859 E29.21911
G1 X79.873 Y122.689 E29.27521
G1 X78.938 Y122.601 E29.35018
G1 X78.631 Y122.6 E29.37468
G1 X78.263 Y122.578 E29.40411
G1 X77.9 Y122.519 E29.43347
G1 X77.482 Y122.384 E29.46853
G1 X77.089 Y122.174 E29.5041
G1 X76.765 Y121.925 E29.53672
G1 X76.473 Y121.617 E29.5706
G1 X76.231 Y121.253 E29.60549
G1 X76.061 Y120.879 E29.63828
G1 X75.96 Y120.504 E29.66928
G1 X75.9 Y120.049 E29.70592
G1 X75.885 Y115.096 E30.10129
G1 X75.9 Y115.083 E30.10288
G1 X75.919 Y114.773 E30.12767
G1 X75.989 Y114.36 E30.16111
G1 X76.117 Y113.98 E30.19311
G1 X76.326 Y113.59 E30.22843
G1 X76.556 Y113.29 E30.25861
G1 X76.881 Y112.976 E30.29468
G1 X77.214 Y112.754 E30.32663
G1 X77.622 Y112.561 E30.36266
G1 X77.999 Y112.459 E30.39383
G1 X78.392 Y112.408 E30.42547
G1 X78.933 Y112.4 E30.46866
G1 X79.558 Y112.36 E30.51865
G1 X80.269 Y112.224 E30.57643
G1 X80.923 Y112.008 E30.63141
G1 X81.517 Y111.726 E30.6839
