;FLAVOR:Marlin
;TIME:1033
;Filament used: 1.88686m
;Layer height: 0.4
;MINX:76.981
;MINY:76.22
;MINZ:0.24
;MAXX:158.01
;MAXY:158.766
;MAXZ:6.59
;Generated with Cura_SteamEngine 5.3.1
M140 S60
M105
M190 S60
M104 S200
M105
M109 S200
M82 ;absolute extrusion mode
; Ender 3 Custom Start G-code
G92 E0 ; Reset Extruder
G28 ; Home all axes
G1 Z2.0 F3000 ; Move Z Axis up little to prevent scratching of Heat Bed
G1 X0.1 Y20 Z0.3 F5000.0 ; Move to start position
G1 X0.1 Y200.0 Z0.3 F1500.0 E15 ; Draw the first line
G1 X0.4 Y200.0 Z0.3 F5000.0 ; Move to side a little
G1 X0.4 Y20 Z0.3 F1500.0 E30 ; Draw the second line
G92 E0 ; Reset Extruder
G1 Z2.0 F3000 ; Move Z Axis up little to prevent scratching of Heat Bed
G1 X5 Y20 Z0.3 F5000.0 ; Move over to prevent blob squish
G92 E0
G92 E0
G1 F2700 E-5
;LAYER_COUNT:13
;LAYER:-5
M107
G0 F15000 X94.663 Y92.808 Z0.24
;TYPE:SUPPORT-INTERFACE
G1 F2700 E0
G1 F2250 X94.678 Y92.808 E0.0012
G1 X95.436 Y92.102 E0.08388
G1 X95.855 Y91.729 E0.12866
G1 X96.777 Y90.956 E0.22471
G1 X97.394 Y90.47 E0.2874
G1 X98.231 Y89.839 E0.37107
G1 X99.082 Y89.241 E0.4541
G1 X99.602 Y88.89 E0.50418
G1 X100.557 Y88.285 E0.59442
G1 X101.72 Y87.607 E0.70188
G1 X102.957 Y86.938 E0.81414
G1 X102.971 Y86.945 E0.81539
G1 X103.823 Y86.527 E0.89114
G1 X104.867 Y86.054 E0.98263
G1 X105.999 Y85.59 E1.08029
G1 X106.589 Y85.366 E1.13067
G1 X107.936 Y84.889 E1.24473
G1 X107.948 Y84.897 E1.24588
G1 X108.797 Y84.633 E1.31686
G1 X109.533 Y84.429 E1.37782
G1 X110.129 Y84.224 E1.42813
G1 X110.749 Y83.922 E1.48318
G1 X111.359 Y83.519 E1.54154
G1 X111.85 Y83.097 E1.59322
G1 X112.309 Y82.589 E1.64787
G1 X112.694 Y82.036 E1.70166
G1 X113.02 Y81.41 E1.758
G1 X113.254 Y80.778 E1.8118
G1 X113.411 Y80.077 E1.86914
G1 X113.48 Y79.259 E1.93467
G1 X113.469 Y78.903 E1.9631
G1 X113.482 Y78.891 E1.96451
G1 X113.5 Y78.593 E1.98834
G1 X113.57 Y78.18 E2.02178
G1 X113.698 Y77.8 E2.05379
G1 X113.907 Y77.41 E2.08911
G1 X114.137 Y77.11 E2.11928
G1 X114.462 Y76.796 E2.15536
G1 X114.795 Y76.574 E2.1873
G1 X115.203 Y76.381 E2.22333
G1 X115.58 Y76.279 E2.25451
G1 X116.032 Y76.22 E2.29089
G1 X120.95 Y76.22 E2.68347
G1 X121.318 Y76.242 E2.7129
G1 X121.681 Y76.301 E2.74226
G1 X122.07 Y76.428 E2.77492
G1 X122.49 Y76.645 E2.81266
G1 X122.819 Y76.898 E2.84579
G1 X123.105 Y77.201 E2.87905
G1 X123.327 Y77.531 E2.91079
G1 X123.522 Y77.944 E2.94725
G1 X123.621 Y78.315 E2.9779
G1 X123.673 Y78.709 E3.00963
G1 X123.681 Y79.26 E3.05361
G1 X123.721 Y79.88 E3.10321
G1 X123.858 Y80.596 E3.1614
G1 X124.067 Y81.231 E3.21476
G1 X124.354 Y81.837 E3.26829
G1 X124.741 Y82.437 E3.32528
G1 X125.175 Y82.952 E3.37904
G1 X125.688 Y83.425 E3.43474
G1 X126.197 Y83.789 E3.48469
G1 X126.847 Y84.141 E3.5437
G1 X127.654 Y84.432 E3.61217
G1 X128.987 Y84.824 E3.72309
G1 X129.607 Y85.024 E3.77509
G1 X131.046 Y85.533 E3.89693
G1 X131.05 Y85.547 E3.89809
G1 X132.369 Y86.086 E4.01183
G1 X133.527 Y86.617 E4.11352
G1 X134.499 Y87.099 E4.20013
G1 X135.114 Y87.427 E4.25577
G1 X136.1 Y87.985 E4.3462
G1 X137.128 Y88.613 E4.44236
G1 X137.664 Y88.961 E4.49337
G1 X138.808 Y89.736 E4.60368
G1 X138.81 Y89.75 E4.6048
G1 X139.114 Y89.972 E4.63485
G1 X140.138 Y90.759 E4.73795
G1 X141.021 Y91.487 E4.8293
G1 X141.946 Y92.301 E4.92765
G1 X142.346 Y92.674 E4.97131
G1 X143.263 Y93.577 E5.07404
G1 X144.05 Y94.403 E5.16511
G1 X144.505 Y94.904 E5.21914
G1 X145.221 Y95.743 E5.30718
G1 X145.653 Y96.271 E5.36164
G1 X145.982 Y96.697 E5.40461
G1 X146.741 Y97.718 E5.50616
G1 X147.39 Y98.659 E5.59741
G1 X147.732 Y99.184 E5.64742
G1 X148.1 Y99.772 E5.70279
G1 X148.64 Y100.689 E5.78774
G1 X149.198 Y101.71 E5.88062
G1 X149.531 Y102.356 E5.93863
G1 X150.031 Y103.399 E6.03096
G1 X150.253 Y103.892 E6.07412
G1 X150.761 Y105.108 E6.17932
G1 X150.987 Y105.699 E6.22983
G1 X151.398 Y106.861 E6.32821
G1 X151.721 Y107.875 E6.41316
G1 X151.908 Y108.523 E6.467
G1 X152.152 Y109.446 E6.54321
G1 X152.396 Y110.511 E6.63042
G1 X152.57 Y111.34 E6.69804
G1 X152.719 Y112.202 E6.76787
G1 X152.878 Y113.257 E6.85303
G1 X153.017 Y114.448 E6.94875
G1 X153.057 Y114.892 E6.98434
G1 X153.149 Y116.349 E7.10087
G1 X153.178 Y117.44 E7.18799
G1 X153.172 Y118.587 E7.27955
G1 X153.12 Y119.847 E7.38021
G1 X153.026 Y121.091 E7.4798
G1 X152.901 Y122.209 E7.5696
G1 X152.849 Y122.912 E7.62587
G1 X152.881 Y123.581 E7.67933
G1 X152.996 Y124.241 E7.73281
G1 X153.192 Y124.877 E7.78593
G1 X153.471 Y125.497 E7.84021
G1 X153.858 Y126.125 E7.89909
G1 X154.287 Y126.648 E7.95309
G1 X154.76 Y127.1 E8.00531
G1 X155.308 Y127.507 E8.0598
G1 X156.167 Y127.958 E8.13724
G1 X156.438 Y128.071 E8.16068
G1 X156.765 Y128.236 E8.18992
G1 X157.118 Y128.494 E8.22482
G1 X157.41 Y128.792 E8.25812
G1 X157.665 Y129.164 E8.29413
G1 X157.841 Y129.533 E8.32676
G1 X157.959 Y129.937 E8.36036
G1 X158.01 Y130.366 E8.39484
G1 X157.999 Y130.77 E8.4271
G1 X157.307 Y135.642 E8.81991
G1 X157.233 Y136.007 E8.84964
G1 X157.131 Y136.333 E8.87691
G1 X156.928 Y136.752 E8.91407
G1 X156.657 Y137.113 E8.9501
G1 X156.349 Y137.41 E8.98426
G1 X156.053 Y137.617 E9.01309
G1 X155.641 Y137.822 E9.04982
G1 X155.286 Y137.926 E9.07935
G1 X154.801 Y137.992 E9.11842
G1 X154.496 Y137.995 E9.14277
G1 X154.49 Y137.987 E9.14357
G1 X150.201 Y137.385 E9.48929
G1 X149.506 Y137.334 E9.54492
G1 X148.851 Y137.365 E9.59726
G1 X148.2 Y137.477 E9.64999
G1 X147.499 Y137.696 E9.70862
G1 X146.92 Y137.959 E9.75938
G1 X146.24 Y138.387 E9.82352
G1 X146.032 Y138.536 E9.84394
G1 X145.702 Y138.706 E9.87357
G1 X145.258 Y138.847 E9.91076
G1 X144.922 Y138.899 E9.9379
G1 X144.578 Y138.919 E9.96541
G1 X141.69 Y138.92 E10.19594
G1 X141.322 Y138.898 E10.22537
G1 X140.963 Y138.839 E10.25441
G1 X140.791 Y138.785 E10.2688
G1 X140.141 Y138.609 E10.32255
G1 X139.466 Y138.513 E10.37698
G1 X138.763 Y138.503 E10.4331
G1 X138.843 Y138.24 E10.45504
G1 X138.958 Y137.614 E10.50585
G1 X138.998 Y136.931 E10.56046
G1 X138.97 Y136.346 E10.60721
G1 X139.001 Y135.918 E10.64147
G1 X139.084 Y135.56 E10.6708
G1 X139.258 Y135.125 E10.7082
G1 X139.437 Y134.826 E10.73602
G1 X140.163 Y133.874 E10.83159
G1 X140.634 Y133.221 E10.89586
G1 X140.877 Y132.87 E10.92993
G1 X141.471 Y131.948 E11.01748
G1 X141.854 Y131.308 E11.07702
G1 X142.117 Y130.849 E11.11925
G1 X142.556 Y130.015 E11.19448
G1 X142.957 Y129.191 E11.26763
G1 X143.522 Y127.905 E11.37976
G1 X143.92 Y126.852 E11.46961
G1 X144.249 Y125.837 E11.55479
G1 X144.245 Y125.831 E11.55536
G1 X144.609 Y124.615 E11.65668
G1 X144.706 Y124.226 E11.68869
G1 X144.992 Y122.935 E11.79424
G1 X145.151 Y122.02 E11.86837
G1 X145.233 Y121.451 E11.91426
G1 X145.338 Y120.576 E11.98461
G1 X145.39 Y120.018 E12.02934
G1 X145.45 Y119.088 E12.10373
G1 X145.464 Y118.715 E12.13353
G1 X145.48 Y117.64 E12.21935
G1 X145.45 Y116.447 E12.31461
G1 X145.363 Y115.316 E12.40516
G1 X145.323 Y114.903 E12.43828
G1 X145.192 Y113.879 E12.52069
G1 X145.003 Y112.764 E12.61096
G1 X144.908 Y112.278 E12.65049
G1 X144.645 Y111.163 E12.74194
G1 X144.436 Y110.397 E12.80532
G1 X144.302 Y109.941 E12.84326
G1 X143.981 Y108.956 E12.92595
G1 X143.807 Y108.482 E12.96626
G1 X143.519 Y107.737 E13.03002
G1 X143.089 Y106.727 E13.11764
G1 X142.925 Y106.372 E13.14886
G1 X142.475 Y105.465 E13.22968
G1 X142.281 Y105.095 E13.26303
G1 X141.832 Y104.291 E13.33654
G1 X141.645 Y103.974 E13.36591
G1 X141.159 Y103.197 E13.43907
G1 X140.619 Y102.398 E13.51605
G1 X140.063 Y101.632 E13.59161
G1 X139.284 Y100.645 E13.69198
G1 X138.534 Y99.781 E13.7833
G1 X138.256 Y99.476 E13.81625
G1 X137.691 Y98.887 E13.8814
G1 X136.803 Y98.032 E13.9798
G1 X136.478 Y97.738 E14.01478
G1 X135.756 Y97.118 E14.09075
G1 X134.845 Y96.392 E14.18373
G1 X134.084 Y95.838 E14.25887
G1 X133.253 Y95.274 E14.33904
G1 X132.381 Y94.728 E14.42117
G1 X131.643 Y94.306 E14.48903
G1 X130.652 Y93.781 E14.57855
G1 X129.966 Y93.449 E14.63939
G1 X129.115 Y93.068 E14.71381
G1 X128.094 Y92.659 E14.80161
G1 X127.102 Y92.316 E14.8854
G1 X127.097 Y92.32 E14.88591
G1 X126.493 Y92.111 E14.93693
G1 X125.329 Y91.781 E15.0335
G1 X124.691 Y91.623 E15.08597
G1 X123.71 Y91.414 E15.16603
G1 X122.846 Y91.26 E15.23609
G1 X122.147 Y91.159 E15.29247
G1 X121.547 Y91.083 E15.34074
G1 X120.514 Y91.001 E15.42346
G1 X120.502 Y90.987 E15.42493
G1 X119.801 Y90.95 E15.48097
G1 X118.948 Y90.923 E15.54909
G1 X118.431 Y90.921 E15.59036
G1 X117.654 Y90.932 E15.65239
G1 X116.746 Y90.983 E15.72499
G1 X115.618 Y91.085 E15.8154
G1 X114.827 Y91.183 E15.87902
G1 X114.261 Y91.269 E15.92472
G1 X113.322 Y91.44 E16.00091
G1 X112.508 Y91.614 E16.06735
G1 X112.011 Y91.735 E16.10818
G1 X111.203 Y91.952 E16.17497
G1 X110.123 Y92.285 E16.26518
G1 X109.43 Y92.526 E16.32375
G1 X108.313 Y92.955 E16.41926
G1 X107.268 Y93.415 E16.5104
G1 X106.376 Y93.85 E16.58962
G1 X105.5 Y94.313 E16.66871
G1 X104.752 Y94.748 E16.73779
G1 X103.804 Y95.341 E16.82704
G1 X103.44 Y95.585 E16.86203
G1 X102.797 Y96.038 E16.92481
G1 X102.3 Y96.406 E16.97418
G1 X101.542 Y97.003 E17.0512
G1 X101.212 Y97.278 E17.08548
G1 X100.583 Y97.83 E17.15229
G1 X99.802 Y98.56 E17.23762
G1 X99.01 Y99.381 E17.32868
G1 X98.502 Y99.92 E17.38781
G1 X97.876 Y100.645 E17.46427
G1 X97.608 Y100.975 E17.4982
G1 X97.006 Y101.754 E17.57679
G1 X96.765 Y102.082 E17.60928
G1 X96.265 Y102.8 E17.67912
G1 X96.047 Y103.127 E17.71049
G1 X95.53 Y103.956 E17.78848
G1 X94.861 Y105.15 E17.89773
G1 X94.865 Y105.156 E17.89831
G1 X94.3 Y106.27 E17.99801
G1 X93.91 Y107.127 E18.07317
G1 X93.915 Y107.133 E18.0738
G1 X93.597 Y107.849 E18.13634
G1 X93.306 Y108.613 E18.2016
G1 X93.07 Y109.293 E18.25905
G1 X92.762 Y110.276 E18.34128
G1 X92.485 Y111.297 E18.42573
G1 X92.27 Y112.21 E18.5006
G1 X92.178 Y112.665 E18.53766
G1 X92.015 Y113.578 E18.61169
G1 X91.921 Y114.218 E18.66332
G1 X91.872 Y114.617 E18.69541
G1 X91.77 Y115.631 E18.77676
G1 X91.711 Y116.574 E18.85218
G1 X91.684 Y117.475 E18.92414
G1 X91.689 Y118.42 E18.99957
G1 X91.714 Y119.208 E19.06251
G1 X91.742 Y119.655 E19.09826
G1 X91.828 Y120.609 E19.17472
G1 X91.925 Y121.456 E19.24277
G1 X92.031 Y122.152 E19.29897
G1 X92.2 Y123.076 E19.37395
G1 X92.327 Y123.683 E19.42345
G1 X92.498 Y124.409 E19.48299
G1 X92.723 Y125.232 E19.5511
G1 X92.842 Y125.637 E19.58479
G1 X93.137 Y126.549 E19.66131
G1 X93.293 Y126.992 E19.6988
G1 X93.594 Y127.758 E19.7645
G1 X93.587 Y127.772 E19.76574
G1 X93.853 Y128.408 E19.82077
G1 X94.242 Y129.274 E19.89656
G1 X94.552 Y129.889 E19.95153
G1 X94.545 Y129.903 E19.95278
G1 X95.12 Y130.98 E20.05024
G1 X95.496 Y131.63 E20.11018
G1 X95.976 Y132.4 E20.18261
G1 X96.536 Y133.232 E20.26267
G1 X97.083 Y133.991 E20.33735
G1 X97.458 Y134.477 E20.38635
G1 X98.04 Y135.187 E20.45963
G1 X98.668 Y135.903 E20.53565
G1 X99.204 Y136.478 E20.5984
G1 X100.555 Y137.787 E20.74856
G1 X101.015 Y138.193 E20.79754
G1 X101.621 Y138.699 E20.86056
G1 X102.484 Y139.371 E20.94787
G1 X103.123 Y139.834 E21.01086
G1 X103.886 Y140.35 E21.08438
G1 X104.834 Y140.94 E21.17352
G1 X105.495 Y141.321 E21.23442
G1 X106.353 Y141.777 E21.31198
G1 X106.908 Y142.054 E21.36149
G1 X107.659 Y142.403 E21.4276
G1 X108.07 Y142.584 E21.46345
G1 X109.044 Y142.971 E21.54711
G1 X109.784 Y143.239 E21.60993
G1 X110.729 Y143.549 E21.68932
G1 X111.761 Y143.83 E21.7747
G1 X111.765 Y143.839 E21.77548
G1 X112.203 Y143.953 E21.81161
G1 X113.353 Y144.208 E21.90564
G1 X114.388 Y144.393 E21.98957
G1 X115.597 Y144.556 E22.08695
G1 X116.296 Y144.622 E22.14299
G1 X117.325 Y144.69 E22.22531
G1 X118.223 Y144.716 E22.29702
G1 X119.049 Y144.715 E22.36296
G1 X119.81 Y144.695 E22.42373
G1 X121.035 Y144.605 E22.52178
G1 X121.985 Y144.503 E22.59804
G1 X122.897 Y144.371 E22.6716
G1 X123.851 Y144.198 E22.749
G1 X124.408 Y144.082 E22.79441
G1 X125.168 Y143.903 E22.85674
G1 X125.722 Y143.747 E22.90268
G1 X125.735 Y143.756 E22.90394
G1 X127.022 Y143.359 E23.01145
G1 X127.864 Y143.066 E23.08262
G1 X128.667 Y142.757 E23.1513
G1 X129.046 Y142.602 E23.18399
G1 X129.934 Y142.207 E23.26157
G1 X130.235 Y142.094 E23.28723
G1 X130.668 Y141.985 E23.32287
G1 X131.078 Y141.952 E23.35571
G1 X131.517 Y141.989 E23.39087
G1 X131.834 Y142.065 E23.4169
G1 X132.548 Y142.254 E23.47585
G1 X133.223 Y142.346 E23.53023
G1 X133.876 Y142.349 E23.58236
G1 X133.807 Y142.571 E23.60092
G1 X133.682 Y143.24 E23.65524
G1 X133.643 Y143.864 E23.70515
G1 X133.681 Y144.658 E23.7686
G1 X133.681 Y147.147 E23.96729
G1 X133.659 Y147.515 E23.99671
G1 X133.6 Y147.878 E24.02607
G1 X133.468 Y148.283 E24.06007
G1 X133.201 Y149.02 E24.12265
G1 X133.07 Y149.627 E24.17221
G1 X133.005 Y150.316 E24.22746
G1 X133.05 Y151.195 E24.29772
G1 X133.588 Y154.983 E24.60312
G1 X133.617 Y155.36 E24.63331
G1 X133.603 Y155.775 E24.66645
G1 X133.521 Y156.184 E24.69975
G1 X133.376 Y156.572 E24.73281
G1 X133.162 Y156.946 E24.76721
G1 X132.912 Y157.257 E24.79906
G1 X132.605 Y157.534 E24.83207
G1 X132.207 Y157.783 E24.86954
G1 X131.848 Y157.935 E24.90066
G1 X131.44 Y158.044 E24.93438
G1 X126.574 Y158.736 E25.32671
G1 X126.204 Y158.766 E25.35634
G1 X125.781 Y158.752 E25.39012
G1 X125.4 Y158.68 E25.42108
G1 X125.034 Y158.547 E25.45216
G1 X124.647 Y158.335 E25.48738
G1 X124.325 Y158.083 E25.52002
G1 X124.016 Y157.746 E25.55652
G1 X123.778 Y157.365 E25.59238
G1 X123.617 Y156.987 E25.62518
G1 X123.473 Y156.488 E25.66663
G1 X123.48 Y156.475 E25.66781
G1 X123.389 Y156.148 E25.69491
G1 X123.145 Y155.53 E25.74794
G1 X122.823 Y154.94 E25.8016
G1 X122.427 Y154.39 E25.8557
G1 X121.944 Y153.876 E25.912
G1 X121.409 Y153.436 E25.96729
G1 X120.828 Y153.07 E26.02211
G1 X120.258 Y152.803 E26.07235
G1 X119.557 Y152.577 E26.13114
G1 X118.939 Y152.461 E26.18134
G1 X118.391 Y152.419 E26.22521
G1 X117.116 Y152.389 E26.32701
G1 X115.639 Y152.306 E26.4451
G1 X115.627 Y152.293 E26.44651
G1 X114.43 Y152.168 E26.54258
G1 X113.26 Y152.019 E26.63673
G1 X113.25 Y152.003 E26.63824
G1 X111.878 Y151.763 E26.74942
G1 X110.713 Y151.513 E26.84453
G1 X109.438 Y151.198 E26.94937
G1 X109.43 Y151.184 E26.95065
G1 X108.339 Y150.871 E27.04125
G1 X107.327 Y150.538 E27.1263
G1 X106.377 Y150.208 E27.20658
G1 X106.373 Y150.194 E27.20774
G1 X105.045 Y149.662 E27.32193
G1 X104.454 Y149.403 E27.37344
G1 X103.366 Y148.893 E27.46936
G1 X102.878 Y148.65 E27.51288
G1 X101.705 Y148.024 E27.61901
G1 X101.214 Y147.745 E27.66409
G1 X100.248 Y147.163 E27.75411
G1 X99.253 Y146.517 E27.84881
G1 X98.186 Y145.782 E27.95223
G1 X98.184 Y145.768 E27.95336
G1 X97.71 Y145.415 E28.00054
G1 X96.835 Y144.731 E28.08919
G1 X96.389 Y144.366 E28.1352
G1 X95.442 Y143.544 E28.2353
G1 X94.618 Y142.777 E28.32516
G1 X93.775 Y141.937 E28.42015
G1 X93.315 Y141.456 E28.47328
G1 X92.571 Y140.638 E28.56155
G1 X91.77 Y139.69 E28.66061
G1 X91.351 Y139.164 E28.7143
G1 X90.688 Y138.291 E28.8018
G1 X89.919 Y137.198 E28.90848
G1 X89.272 Y136.209 E29.00282
G1 X88.672 Y135.214 E29.09557
G1 X88.37 Y134.686 E29.14412
G1 X87.878 Y133.77 E29.22712
G1 X87.272 Y132.545 E29.33622
G1 X86.786 Y131.465 E29.43075
G1 X86.261 Y130.169 E29.54237
G1 X85.744 Y128.722 E29.66503
G1 X85.596 Y128.275 E29.70261
G1 X85.2 Y126.917 E29.81553
G1 X84.973 Y126.252 E29.87162
G1 X84.672 Y125.641 E29.92599
G1 X84.323 Y125.105 E29.97705
G1 X83.859 Y124.558 E30.0343
G1 X83.369 Y124.11 E30.0873
G1 X82.797 Y123.71 E30.14302
G1 X82.196 Y123.392 E30.19729
G1 X81.554 Y123.153 E30.25198
G1 X80.925 Y123.003 E30.3036
G1 X80.017 Y122.921 E30.37637
G1 X79.712 Y122.92 E30.40072
G1 X79.344 Y122.898 E30.43015
G1 X78.981 Y122.839 E30.4595
G1 X78.563 Y122.704 E30.49457
G1 X78.17 Y122.494 E30.53013
G1 X77.847 Y122.246 E30.56264
G1 X77.578 Y121.961 E30.59392
G1 X77.334 Y121.605 E30.62838
G1 X77.141 Y121.198 E30.66433
G1 X77.041 Y120.824 E30.69523
G1 X76.982 Y120.37 E30.73178
G1 X76.981 Y115.451 E31.12444
G1 X77.003 Y115.079 E31.15418
G1 X77.07 Y114.68 E31.18648
G1 X77.198 Y114.3 E31.21849
G1 X77.41 Y113.905 E31.25427
G1 X77.653 Y113.587 E31.28622
G1 X77.962 Y113.296 E31.3201
G1 X78.295 Y113.074 E31.35205
G1 X78.703 Y112.881 E31.38807
G1 X79.08 Y112.779 E31.41925
G1 X79.473 Y112.728 E31.45088
G1 X80.014 Y112.72 E31.49407
G1 X80.639 Y112.68 E31.54407
G1 X81.337 Y112.548 E31.60077
G1 X81.993 Y112.332 E31.6559
G1 X82.592 Y112.049 E31.70878
G1 X83.197 Y111.659 E31.76624
G1 X83.716 Y111.222 E31.8204
G1 X84.165 Y110.738 E31.8731
G1 X84.548 Y110.204 E31.92556
G1 X84.892 Y109.574 E31.98286
G1 X85.104 Y109.034 E32.02916
G1 X85.392 Y108.042 E32.11162
