;FLAVOR:Marlin
;TIME:6885
;Filament used: 13.1298m
;Layer height: 0.4
;MINX:53.626
;MINY:84.633
;MINZ:0.24
;MAXX:176.212
;MAXY:154.833
;MAXZ:26.59
;Generated with Cura_SteamEngine 5.3.1
M140 S60
M105
M190 S60
M104 S230
M105
M109 S230
M82 ;absolute extrusion mode
; Ender 3 Custom Start G-code
G92 E0 ; Reset Extruder
G28 ; Home all axes
G1 Z2.0 F3000 ; Move Z Axis up little to prevent scratching of Heat Bed
G1 X0.1 Y20 Z0.3 F5000.0 ; Move to start position
G1 X0.1 Y200.0 Z0.3 F1500.0 E15 ; Draw the first line
G1 X0.4 Y200.0 Z0.3 F5000.0 ; Move to side a little
G1 X0.4 Y20 Z0.3 F1500.0 E30 ; Draw the second line
G92 E0 ; Reset Extruder
G1 Z2.0 F3000 ; Move Z Axis up little to prevent scratching of Heat Bed
G1 X5 Y20 Z0.3 F5000.0 ; Move over to prevent blob squish
G92 E0
G92 E0
G1 F2700 E-5
;LAYER_COUNT:63
;LAYER:-5
M107
G0 F15000 X145.881 Y115.486 Z0.24
;TYPE:SUPPORT-INTERFACE
G1 F2700 E0
G1 F2250 X145.616 Y116.218 E0.06214
G1 X145.499 Y116.591 E0.09335
G1 X145.39 Y116.974 E0.12513
G1 X145.184 Y117.953 E0.20499
G1 X145.099 Y118.534 E0.25187
G1 X145.04 Y119.213 E0.30627
G1 X145.023 Y119.608 E0.33783
G1 X145.018 Y120.018 E0.37056
G1 X145.029 Y120.469 E0.40657
G1 X145.066 Y120.996 E0.44874
G1 X145.119 Y121.457 E0.48578
G1 X145.173 Y121.843 E0.5169
G1 X145.378 Y122.818 E0.59643
G1 X145.6 Y123.559 E0.65817
G1 X145.834 Y124.217 E0.71392
G1 X146.149 Y124.941 E0.77695
G1 X146.543 Y125.706 E0.84564
G1 X146.741 Y126.038 E0.87649
G1 X147.077 Y126.56 E0.92605
G1 X147.433 Y127.049 E0.97433
G1 X147.823 Y127.535 E1.02407
G1 X148.097 Y127.842 E1.05692
G1 X148.562 Y128.325 E1.11044
G1 X148.823 Y128.57 E1.13901
G1 X149.431 Y129.093 E1.20303
G1 X149.714 Y129.296 E1.23083
G1 X149.717 Y129.308 E1.23182
G1 X150.299 Y129.722 E1.28883
G1 X150.63 Y129.932 E1.32012
G1 X151.146 Y130.231 E1.36773
G1 X151.508 Y130.419 E1.40029
G1 X151.877 Y130.596 E1.43296
G1 X152.228 Y130.75 E1.46355
G1 X153.088 Y131.071 E1.53683
G1 X153.411 Y131.172 E1.56384
G1 X153.989 Y131.33 E1.61167
G1 X154.577 Y131.454 E1.65964
G1 X155.367 Y131.567 E1.72335
G1 X155.372 Y131.574 E1.72403
G1 X155.656 Y131.61 E1.74688
G1 X156.079 Y131.64 E1.78073
G1 X156.458 Y131.656 E1.81101
G1 X156.818 Y131.661 E1.83975
G1 X157.323 Y131.651 E1.88007
G1 X157.822 Y131.615 E1.92001
G1 X158.28 Y131.567 E1.95677
G1 X158.708 Y131.501 E1.99134
G1 X159.101 Y131.428 E2.02325
G1 X159.71 Y131.285 E2.07318
G1 X160.22 Y131.133 E2.11566
G1 X160.236 Y131.143 E2.11717
G1 X160.919 Y130.904 E2.17493
G1 X161.374 Y130.72 E2.21411
G1 X161.766 Y130.544 E2.24841
G1 X162.101 Y130.371 E2.2785
G1 X162.115 Y130.379 E2.27979
G1 X162.539 Y130.147 E2.31837
G1 X162.892 Y129.939 E2.35108
G1 X163.233 Y129.722 E2.38334
G1 X163.594 Y129.474 E2.4183
G1 X163.9 Y129.247 E2.44872
G1 X164.251 Y128.969 E2.48446
G1 X164.677 Y128.596 E2.52966
G1 X164.875 Y128.412 E2.55123
G1 X165.302 Y127.987 E2.59932
G1 X165.696 Y127.547 E2.64647
G1 X166.016 Y127.156 E2.6868
G1 X166.283 Y126.799 E2.72239
G1 X166.582 Y126.37 E2.76413
G1 X166.767 Y126.079 E2.79165
G1 X166.972 Y125.732 E2.82382
G1 X167.172 Y125.365 E2.85719
G1 X167.459 Y124.782 E2.90906
G1 X167.622 Y124.412 E2.94133
G1 X167.914 Y123.59 E3.01097
G1 X168.03 Y123.219 E3.04199
G1 X168.026 Y123.214 E3.0425
G1 X168.145 Y122.845 E3.07345
G1 X168.282 Y122.247 E3.12243
G1 X168.355 Y121.853 E3.15441
G1 X168.468 Y121.007 E3.22254
G1 X168.515 Y119.985 E3.30421
G1 X168.513 Y119.546 E3.33925
G1 X168.456 Y118.745 E3.40335
G1 X168.415 Y118.389 E3.43196
G1 X168.353 Y117.953 E3.46711
G1 X168.237 Y117.371 E3.51448
G1 X168.14 Y116.962 E3.54804
G1 X167.958 Y116.342 E3.59962
G1 X167.847 Y116.006 E3.62786
G1 X167.634 Y115.449 E3.67547
G1 X167.449 Y115.024 E3.71247
G1 X167.235 Y114.589 E3.75116
G1 X166.963 Y114.082 E3.79709
G1 X166.784 Y113.779 E3.82518
G1 X166.542 Y113.395 E3.86142
G1 X166.341 Y113.103 E3.88971
G1 X166.053 Y112.713 E3.92841
G1 X165.835 Y112.444 E3.95605
G1 X165.277 Y111.808 E4.02359
G1 X164.72 Y111.266 E4.08563
G1 X164.416 Y110.997 E4.11803
G1 X164.099 Y110.735 E4.15086
G1 X163.778 Y110.488 E4.18319
G1 X163.422 Y110.231 E4.21824
G1 X162.899 Y109.891 E4.26803
G1 X162.116 Y109.461 E4.33934
G1 X162.108 Y109.466 E4.34009
G1 X161.648 Y109.227 E4.38147
G1 X161.389 Y109.11 E4.40416
G1 X160.848 Y108.886 E4.4509
G1 X160.314 Y108.713 E4.49571
G1 X159.702 Y108.538 E4.54652
G1 X159.158 Y108.411 E4.59111
G1 X158.403 Y108.278 E4.6523
G1 X157.818 Y108.221 E4.69922
G1 X157.807 Y108.208 E4.70058
G1 X157.082 Y108.168 E4.75854
G1 X156.647 Y108.165 E4.79327
G1 X156.041 Y108.184 E4.84166
G1 X155.652 Y108.218 E4.87283
G1 X155.206 Y108.277 E4.90875
G1 X155.194 Y108.266 E4.91005
G1 X154.409 Y108.403 E4.97366
G1 X153.89 Y108.529 E5.01629
G1 X153.877 Y108.52 E5.01755
G1 X153.267 Y108.705 E5.06843
G1 X153.253 Y108.696 E5.06976
G1 X152.825 Y108.844 E5.10591
G1 X152.3 Y109.045 E5.15078
G1 X151.9 Y109.219 E5.1856
G1 X151.515 Y109.401 E5.2196
G1 X151.161 Y109.586 E5.25148
G1 X150.56 Y109.934 E5.30692
G1 X150.119 Y110.223 E5.34901
G1 X149.836 Y110.425 E5.37676
G1 X149.458 Y110.712 E5.41465
G1 X149.155 Y110.963 E5.44605
G1 X148.816 Y111.275 E5.48283
G1 X148.801 Y111.275 E5.48403
G1 X148.387 Y111.674 E5.52993
G1 X147.971 Y112.124 E5.57884
G1 X147.44 Y112.766 E5.64535
G1 X147.116 Y113.209 E5.68916
G1 X146.641 Y113.955 E5.75976
G1 X146.448 Y114.298 E5.79117
G1 X146.16 Y114.859 E5.84151
G1 X146.042 Y115.109 E5.86358
G1 X145.881 Y115.486 E5.8963
G1 F2700 E0.8963
G1 F300 Z0.44
G0 F15000 X138.543 Y113.081 Z0.44
G1 F300 Z0.24
G1 F2700 E5.8963
G1 F2250 X138.557 Y113.076 E5.89749
G1 X139.062 Y111.857 E6.00281
G1 X139.261 Y111.436 E6.03998
G1 X139.565 Y110.836 E6.09367
G1 X140.052 Y109.969 E6.17305
G1 X140.448 Y109.33 E6.23306
G1 X140.831 Y108.756 E6.28814
G1 X141.219 Y108.224 E6.3407
G1 X141.675 Y107.647 E6.39941
G1 X142.101 Y107.139 E6.45233
G1 X142.549 Y106.639 E6.50592
G1 X143.019 Y106.155 E6.55978
G1 X143.465 Y105.723 E6.60934
G1 X144.275 Y105.005 E6.69574
G1 X144.808 Y104.574 E6.75046
G1 X145.556 Y104.02 E6.82476
G1 X146.17 Y103.603 E6.88401
G1 X146.542 Y103.369 E6.91909
G1 X147.099 Y103.037 E6.97085
G1 X147.898 Y102.601 E7.04351
G1 X148.501 Y102.307 E7.09706
G1 X149.158 Y102.013 E7.15451
G1 X150.005 Y101.679 E7.22719
G1 X150.76 Y101.411 E7.29114
G1 X151.981 Y101.056 E7.39265
G1 X153.143 Y100.805 E7.48754
G1 X153.851 Y100.684 E7.54488
G1 X154.53 Y100.585 E7.59965
G1 X154.538 Y100.593 E7.60055
G1 X155.271 Y100.512 E7.65942
G1 X155.282 Y100.523 E7.66066
G1 X155.747 Y100.491 E7.69787
G1 X156.369 Y100.468 E7.74755
G1 X157.138 Y100.468 E7.80894
G1 X157.793 Y100.491 E7.86125
G1 X158.244 Y100.517 E7.89731
G1 X158.997 Y100.58 E7.95763
G1 X159.008 Y100.594 E7.95905
G1 X159.79 Y100.7 E8.02205
G1 X160.472 Y100.82 E8.07732
G1 X161.548 Y101.061 E8.16534
G1 X162.48 Y101.322 E8.2426
G1 X163.387 Y101.616 E8.31871
G1 X163.394 Y101.634 E8.32025
G1 X163.83 Y101.792 E8.35727
G1 X164.413 Y102.03 E8.40754
G1 X165.358 Y102.452 E8.49015
G1 X165.362 Y102.468 E8.49147
G1 X166.372 Y102.997 E8.58248
G1 X167.113 Y103.443 E8.65152
G1 X167.619 Y103.773 E8.69974
G1 X167.973 Y104.016 E8.73401
G1 X168.437 Y104.355 E8.77988
G1 X168.962 Y104.76 E8.83281
G1 X169.486 Y105.2 E8.88743
G1 X169.95 Y105.614 E8.93707
G1 X170.557 Y106.2 E9.00442
G1 X170.958 Y106.616 E9.05054
G1 X171.485 Y107.2 E9.11333
G1 X171.848 Y107.632 E9.15837
G1 X172.279 Y108.181 E9.21409
G1 X172.727 Y108.802 E9.27521
G1 X173.091 Y109.343 E9.32726
G1 X173.595 Y110.157 E9.40369
G1 X173.964 Y110.829 E9.46488
G1 X174.281 Y111.455 E9.5209
G1 X174.64 Y112.243 E9.59002
G1 X174.954 Y113.024 E9.65721
G1 X175.139 Y113.533 E9.70044
G1 X175.377 Y114.261 E9.76158
G1 X175.618 Y115.129 E9.83349
G1 X175.869 Y116.26 E9.92597
G1 X175.995 Y116.992 E9.98526
G1 X176.094 Y117.648 E10.03821
G1 X176.084 Y117.658 E10.03934
G1 X176.159 Y118.447 E10.10261
G1 X176.191 Y118.944 E10.14236
G1 X176.211 Y119.522 E10.18853
G1 X176.212 Y120.285 E10.24944
G1 X176.168 Y121.405 E10.33891
G1 X176.154 Y121.418 E10.34043
G1 X176.081 Y122.223 E10.40495
G1 X175.976 Y122.958 E10.46422
G1 X175.858 Y123.629 E10.51861
G1 X175.618 Y124.694 E10.60575
G1 X175.385 Y125.535 E10.67541
G1 X175.229 Y126.057 E10.7189
G1 X175.216 Y126.063 E10.72004
G1 X174.904 Y126.935 E10.79397
G1 X174.669 Y127.512 E10.8437
G1 X174.412 Y128.091 E10.89427
G1 X174.06 Y128.811 E10.95824
G1 X173.642 Y129.584 E11.02839
G1 X173.297 Y130.165 E11.08233
G1 X173.091 Y130.487 E11.11284
G1 X172.621 Y131.176 E11.17942
G1 X172.075 Y131.91 E11.25244
G1 X171.654 Y132.427 E11.30567
G1 X171.239 Y132.906 E11.35626
G1 X170.572 Y133.61 E11.43367
G1 X169.905 Y134.266 E11.50835
G1 X169.89 Y134.266 E11.50955
G1 X169.483 Y134.629 E11.55308
G1 X169.017 Y135.018 E11.60153
G1 X168.437 Y135.471 E11.66028
G1 X167.662 Y136.022 E11.73619
G1 X166.836 Y136.551 E11.81448
G1 X166.17 Y136.937 E11.87593
G1 X165.636 Y137.223 E11.92428
G1 X164.962 Y137.55 E11.98408
G1 X164.21 Y137.882 E12.0497
G1 X163.792 Y138.055 E12.08581
G1 X162.983 Y138.353 E12.15463
G1 X162.971 Y138.346 E12.15574
G1 X162.484 Y138.503 E12.19659
G1 X161.835 Y138.691 E12.25052
G1 X160.976 Y138.915 E12.32138
G1 X160.962 Y138.903 E12.32286
G1 X160.659 Y138.978 E12.34777
G1 X160.649 Y138.969 E12.34885
G1 X160.112 Y139.071 E12.39248
G1 X159.243 Y139.213 E12.46277
G1 X159.231 Y139.202 E12.46407
G1 X158.441 Y139.29 E12.52752
G1 X157.858 Y139.33 E12.57416
G1 X157.371 Y139.353 E12.61308
G1 X156.762 Y139.362 E12.6617
G1 X156.036 Y139.349 E12.71966
G1 X155.087 Y139.291 E12.79556
G1 X154.24 Y139.208 E12.86349
G1 X154.23 Y139.195 E12.8648
G1 X153.601 Y139.113 E12.91544
G1 X153.591 Y139.097 E12.91694
G1 X152.637 Y138.919 E12.99441
G1 X151.781 Y138.713 E13.06469
G1 X151.435 Y138.62 E13.09329
G1 X150.633 Y138.381 E13.16009
G1 X150.626 Y138.366 E13.16141
G1 X149.48 Y137.955 E13.25859
G1 X149.474 Y137.938 E13.26003
G1 X148.538 Y137.535 E13.34138
G1 X147.888 Y137.217 E13.39914
G1 X147.352 Y136.932 E13.4476
G1 X146.798 Y136.613 E13.49863
G1 X145.837 Y136 E13.58962
G1 X145.284 Y135.61 E13.64364
G1 X144.721 Y135.183 E13.70004
G1 X144.271 Y134.817 E13.74634
G1 X143.444 Y134.093 E13.83408
G1 X143.443 Y134.078 E13.83528
G1 X142.613 Y133.265 E13.92802
G1 X142.613 Y133.25 E13.92922
G1 X142.311 Y132.927 E13.96452
G1 X141.863 Y132.411 E14.01907
G1 X141.419 Y131.862 E14.07543
G1 X140.863 Y131.109 E14.15015
G1 X140.425 Y130.458 E14.21278
G1 X140.046 Y129.844 E14.27038
G1 X139.621 Y129.094 E14.33919
G1 X139.271 Y128.415 E14.40017
G1 X138.887 Y127.567 E14.47447
G1 X138.522 Y126.683 E14.55082
G1 X138.529 Y126.67 E14.55199
G1 X138.318 Y126.107 E14.59999
G1 X138.328 Y126.092 E14.60143
G1 X138.145 Y125.533 E14.64838
G1 X138.006 Y125.069 E14.68704
G1 X137.755 Y124.023 E14.77291
G1 X137.608 Y123.267 E14.83439
G1 X137.473 Y122.459 E14.89978
G1 X137.485 Y122.445 E14.90125
G1 X137.418 Y121.886 E14.94619
G1 X137.364 Y121.251 E14.99706
G1 X137.329 Y120.619 E15.04759
G1 X137.317 Y119.92 E15.1034
G1 X137.328 Y119.258 E15.15625
G1 X137.357 Y118.623 E15.20699
G1 X137.459 Y117.468 E15.29954
G1 X137.474 Y117.457 E15.30103
G1 X137.6 Y116.611 E15.36931
G1 X137.7 Y116.011 E15.41786
G1 X137.714 Y116.002 E15.41919
G1 X138.01 Y114.732 E15.52328
G1 X138.024 Y114.723 E15.52461
G1 X138.182 Y114.174 E15.57021
G1 X138.543 Y113.081 E15.6621
G1 F2700 E10.6621
G1 F300 Z0.44
G0 F15000 X54.955 Y84.987 Z0.44
G1 F300 Z0.24
G1 F2700 E15.6621
G1 F2250 X55.363 Y84.794 E15.69813
G1 X55.74 Y84.692 E15.7293
G1 X56.192 Y84.633 E15.76569
G1 X121.11 Y84.633 E20.94772
G1 X121.478 Y84.655 E20.97715
G1 X121.841 Y84.714 E21.00651
G1 X122.23 Y84.841 E21.03917
G1 X122.65 Y85.058 E21.07691
G1 X122.979 Y85.311 E21.11004
G1 X123.265 Y85.614 E21.1433
G1 X123.487 Y85.944 E21.17505
G1 X123.682 Y86.357 E21.2115
G1 X123.781 Y86.728 E21.24216
G1 X123.841 Y87.181 E21.27863
G1 X123.841 Y152.093 E26.46019
G1 X123.819 Y152.471 E26.49041
G1 X123.76 Y152.833 E26.51969
G1 X123.626 Y153.248 E26.5545
G1 X123.416 Y153.643 E26.59021
G1 X123.169 Y153.965 E26.62261
G1 X122.884 Y154.234 E26.65389
G1 X122.503 Y154.496 E26.6908
G1 X122.151 Y154.657 E26.7217
G1 X121.74 Y154.775 E26.75583
G1 X121.29 Y154.832 E26.79204
G1 X56.372 Y154.833 E31.97407
G1 X56.004 Y154.811 E32.0035
G1 X55.641 Y154.752 E32.03286
G1 X55.223 Y154.617 E32.06792
G1 X54.83 Y154.407 E32.10349
G1 X54.507 Y154.159 E32.136
G1 X54.238 Y153.874 E32.16728
G1 X53.99 Y153.511 E32.20237
G1 X53.802 Y153.113 E32.23751
G1 X53.701 Y152.737 E32.26859
G1 X53.642 Y152.282 E32.30521
G1 X53.626 Y87.33 E37.48996
G1 X53.641 Y87.317 E37.49155
G1 X53.66 Y87.006 E37.51642
G1 X53.73 Y86.593 E37.54985
G1 X53.858 Y86.213 E37.58186
G1 X54.067 Y85.823 E37.61718
G1 X54.297 Y85.523 E37.64736
G1 X54.622 Y85.209 E37.68343
G1 X54.955 Y84.987 E37.71538
G0 F15000 X55.7 Y85.116
G1 F2250 X123.358 Y152.773 E45.35314
G1 F2700 E40.35314
G1 F300 Z0.44
G0 F15000 X122.401 Y154.079 Z0.44
G1 F300 Z0.24
G1 F2700 E45.35314
G1 F2250 X54.389 Y86.067 E53.03092
G1 F2700 E48.03092
G1 F300 Z0.44
G0 F15000 X54.025 Y87.966 Z0.44
G1 F300 Z0.24
G1 F2700 E53.03092
G1 F2250 X120.49 Y154.431 E60.53407
G1 F2700 E55.53407
G1 F300 Z0.44
G0 F15000 X118.227 Y154.431 Z0.44
G1 F300 Z0.24
G1 F2700 E60.53407
G1 F2250 X54.026 Y90.23 E67.78163
G1 F2700 E62.78163
G1 F300 Z0.44
G0 F15000 X54.026 Y92.493 Z0.44
G1 F300 Z0.24
G1 F2700 E67.78163
G1 F2250 X115.964 Y154.431 E74.77373
G1 F2700 E69.77373
G1 F300 Z0.44
G0 F15000 X113.702 Y154.431 Z0.44
G1 F300 Z0.24
G1 F2700 E74.77373
G1 F2250 X54.027 Y94.756 E81.51036
G1 F2700 E76.51036
G1 F300 Z0.44
G0 F15000 X54.027 Y97.02 Z0.44
G1 F300 Z0.24
G1 F2700 E81.51036
G1 F2250 X111.439 Y154.431 E87.99146
G1 F2700 E82.99146
G1 F300 Z0.44
G0 F15000 X109.176 Y154.431 Z0.44
G1 F300 Z0.24
G1 F2700 E87.99146
G1 F2250 X54.028 Y99.283 E94.21705
G1 F2700 E89.21705
G1 F300 Z0.44
G0 F15000 X54.029 Y101.546 Z0.44
G1 F300 Z0.24
G1 F2700 E94.21705
G1 F2250 X106.913 Y154.431 E100.18711
G1 F2700 E95.18711
G1 F300 Z0.44
G0 F15000 X104.651 Y154.431 Z0.44
G1 F300 Z0.24
G1 F2700 E100.18711
G1 F2250 X54.029 Y103.809 E105.90175
G1 F2700 E100.90175
G1 F300 Z0.44
G0 F15000 X54.03 Y106.073 Z0.44
G1 F300 Z0.24
G1 F2700 E105.90175
G1 F2250 X102.388 Y154.431 E111.36082
G1 F2700 E106.36082
G1 F300 Z0.44
G0 F15000 X100.125 Y154.431 Z0.44
G1 F300 Z0.24
G1 F2700 E111.36082
G1 F2250 X54.03 Y108.336 E116.56443
G1 F2700 E111.56443
G1 F300 Z0.44
G0 F15000 X54.031 Y110.599 Z0.44
G1 F300 Z0.24
G1 F2700 E116.56443
G1 F2250 X97.862 Y154.431 E121.5125
G1 F2700 E116.5125
G1 F300 Z0.44
G0 F15000 X95.6 Y154.431 Z0.44
G1 F300 Z0.24
G1 F2700 E121.5125
G1 F2250 X54.032 Y112.863 E126.20506
G1 F2700 E121.20506
G1 F300 Z0.44
G0 F15000 X54.032 Y115.126 Z0.44
G1 F300 Z0.24
G1 F2700 E126.20506
G1 F2250 X93.337 Y154.431 E130.64215
G1 F2700 E125.64215
G1 F300 Z0.44
G0 F15000 X91.074 Y154.431 Z0.44
G1 F300 Z0.24
G1 F2700 E130.64215
G1 F2250 X54.032 Y117.389 E134.82377
G1 F2700 E129.82377
G1 F300 Z0.44
G0 F15000 X54.033 Y119.653 Z0.44
G1 F300 Z0.24
G1 F2700 E134.82377
G1 F2250 X88.811 Y154.431 E138.74981
G1 F2700 E133.74981
G1 F300 Z0.44
G0 F15000 X86.549 Y154.431 Z0.44
G1 F300 Z0.24
G1 F2700 E138.74981
G1 F2250 X54.034 Y121.916 E142.42038
G1 F2700 E137.42038
G1 F300 Z0.44
G0 F15000 X54.034 Y124.179 Z0.44
G1 F300 Z0.24
G1 F2700 E142.42038
G1 F2250 X84.286 Y154.431 E145.83549
G1 F2700 E140.83549
G1 F300 Z0.44
G0 F15000 X82.023 Y154.431 Z0.44
G1 F300 Z0.24
G1 F2700 E145.83549
G1 F2250 X54.034 Y126.442 E148.99513
G1 F2700 E143.99513
G1 F300 Z0.44
G0 F15000 X54.035 Y128.706 Z0.44
G1 F300 Z0.24
G1 F2700 E148.99513
G1 F2250 X79.76 Y154.431 E151.89919
G1 F2700 E146.89919
G1 F300 Z0.44
G0 F15000 X77.498 Y154.431 Z0.44
G1 F300 Z0.24
G1 F2700 E151.89919
G1 F2250 X54.036 Y130.969 E154.54778
G1 F2700 E149.54778
G1 F300 Z0.44
G0 F15000 X54.037 Y133.233 Z0.44
G1 F300 Z0.24
G1 F2700 E154.54778
G1 F2250 X75.235 Y154.431 E156.9408
G1 F2700 E151.9408
G1 F300 Z0.44
G0 F15000 X72.972 Y154.431 Z0.44
G1 F300 Z0.24
G1 F2700 E156.9408
G1 F2250 X54.037 Y135.496 E159.07834
G1 F2700 E154.07834
G1 F300 Z0.44
G0 F15000 X54.037 Y137.759 Z0.44
G1 F300 Z0.24
G1 F2700 E159.07834
G1 F2250 X70.709 Y154.431 E160.96042
G1 F2700 E155.96042
G1 F300 Z0.44
G0 F15000 X68.447 Y154.431 Z0.44
G1 F300 Z0.24
G1 F2700 E160.96042
G1 F2250 X54.038 Y140.022 E162.58704
G1 F2700 E157.58704
