;FLAVOR:Marlin
;TIME:320
;Filament used: 0.451723m
;Layer height: 0.4
;MINX:109.885
;MINY:104.9
;MINZ:0.24
;MAXX:125.1
;MAXY:130.1
;MAXZ:6.59
;Generated with Cura_SteamEngine 5.3.1
M140 S60
M105
M190 S60
M104 S230
M105
M109 S230
M82 ;absolute extrusion mode
; Ender 3 Custom Start G-code
G92 E0 ; Reset Extruder
G28 ; Home all axes
G1 Z2.0 F3000 ; Move Z Axis up little to prevent scratching of Heat Bed
G1 X0.1 Y20 Z0.3 F5000.0 ; Move to start position
G1 X0.1 Y200.0 Z0.3 F1500.0 E15 ; Draw the first line
G1 X0.4 Y200.0 Z0.3 F5000.0 ; Move to side a little
G1 X0.4 Y20 Z0.3 F1500.0 E30 ; Draw the second line
G92 E0 ; Reset Extruder
G1 Z2.0 F3000 ; Move Z Axis up little to prevent scratching of Heat Bed
G1 X5 Y20 Z0.3 F5000.0 ; Move over to prevent blob squish
G92 E0
G92 E0
G1 F2700 E-5
;LAYER_COUNT:13
;LAYER:-5
M106 S255
G0 F15000 X110.556 Y105.79 Z0.24
;TYPE:SUPPORT-INTERFACE
G1 F2700 E0
G1 F2250 X110.881 Y105.476 E0.03607
G1 X111.214 Y105.254 E0.06802
G1 X111.622 Y105.061 E0.10405
G1 X111.999 Y104.959 E0.13522
G1 X112.451 Y104.9 E0.17161
G1 X122.369 Y104.9 E0.96331
G1 X122.737 Y104.922 E0.99274
G1 X123.1 Y104.981 E1.02209
G1 X123.489 Y105.108 E1.05476
G1 X123.909 Y105.325 E1.09249
G1 X124.238 Y105.578 E1.12562
G1 X124.524 Y105.881 E1.15888
G1 X124.746 Y106.211 E1.19063
G1 X124.941 Y106.624 E1.22709
G1 X125.04 Y106.995 E1.25774
G1 X125.1 Y107.448 E1.29422
G1 X125.1 Y127.36 E2.88368
G1 X125.078 Y127.738 E2.9139
G1 X125.019 Y128.1 E2.94318
G1 X124.885 Y128.515 E2.97799
G1 X124.675 Y128.91 E3.0137
G1 X124.428 Y129.232 E3.0461
G1 X124.143 Y129.501 E3.07738
G1 X123.762 Y129.763 E3.11429
G1 X123.41 Y129.924 E3.14519
G1 X122.999 Y130.042 E3.17932
G1 X122.549 Y130.099 E3.21553
G1 X112.631 Y130.1 E4.00723
G1 X112.263 Y130.078 E4.03665
G1 X111.9 Y130.019 E4.06601
G1 X111.482 Y129.884 E4.10107
G1 X111.089 Y129.674 E4.13664
G1 X110.766 Y129.426 E4.16915
G1 X110.497 Y129.141 E4.20043
G1 X110.249 Y128.778 E4.23553
G1 X110.061 Y128.38 E4.27066
G1 X109.96 Y128.004 E4.30174
G1 X109.9 Y127.549 E4.33837
G1 X109.885 Y107.597 E5.93103
G1 X109.9 Y107.584 E5.93261
G1 X109.919 Y107.273 E5.95749
G1 X109.989 Y106.86 E5.99092
G1 X110.117 Y106.48 E6.02293
G1 X110.326 Y106.09 E6.05825
G1 X110.556 Y105.79 E6.08843
G0 F15000 X110.735 Y106.21
G1 F2250 X124.699 Y120.174 E7.6648
G1 F2700 E2.6648
G1 F300 Z0.44
G0 F15000 X124.699 Y122.436 Z0.44
G1 F300 Z0.24
G1 F2700 E7.6648
G1 F2250 X110.284 Y108.021 E9.29209
G1 F2700 E4.29209
G1 F300 Z0.44
G0 F15000 X110.286 Y110.286 Z0.44
G1 F300 Z0.24
G1 F2700 E9.29209
G1 F2250 X124.699 Y124.699 E10.91916
G1 F2700 E5.91916
G1 F300 Z0.44
G0 F15000 X124.699 Y126.962 Z0.44
G1 F300 Z0.24
G1 F2700 E10.91916
G1 F2250 X110.288 Y112.55 E12.54605
G1 F2700 E7.54605
G1 F300 Z0.44
G0 F15000 X110.289 Y114.815 Z0.44
G1 F300 Z0.24
G1 F2700 E12.54605
G1 F2250 X124.263 Y128.788 E14.1235
G1 F2700 E9.1235
G1 F300 Z0.44
G0 F15000 X122.866 Y129.654 Z0.44
G1 F300 Z0.24
G1 F2700 E14.1235
G1 F2250 X110.291 Y117.079 E15.54308
G1 F2700 E10.54308
G1 F300 Z0.44
G0 F15000 X110.293 Y119.344 Z0.44
G1 F300 Z0.24
G1 F2700 E15.54308
G1 F2250 X120.647 Y129.698 E16.71192
G1 F2700 E11.71192
G1 F300 Z0.44
G0 F15000 X118.384 Y129.698 Z0.44
G1 F300 Z0.24
G1 F2700 E16.71192
G1 F2250 X110.295 Y121.608 E17.62514
G1 F2700 E12.62514
G1 F300 Z0.44
G0 F15000 X110.296 Y123.873 Z0.44
G1 F300 Z0.24
G1 F2700 E17.62514
G1 F2250 X116.121 Y129.698 E18.28271
G1 F2700 E13.28271
G1 F300 Z0.44
G0 F15000 X113.859 Y129.698 Z0.44
G1 F300 Z0.24
G1 F2700 E18.28271
G1 F2250 X110.298 Y126.137 E18.68471
G1 F2700 E13.68471
G1 F300 Z0.44
G0 F15000 X124.699 Y117.911 Z0.44
G1 F300 Z0.24
G1 F2700 E18.68471
G1 F2250 X112.132 Y105.344 E20.10338
G1 F2700 E15.10338
G1 F300 Z0.44
G0 F15000 X114.351 Y105.3 Z0.44
G1 F300 Z0.24
G1 F2700 E20.10338
G1 F2250 X124.699 Y115.648 E21.27155
G1 F2700 E16.27155
G1 F300 Z0.44
G0 F15000 X124.699 Y113.385 Z0.44
G1 F300 Z0.24
G1 F2700 E21.27155
G1 F2250 X116.613 Y105.3 E22.18431
G1 F2700 E17.18431
G1 F300 Z0.44
G0 F15000 X118.876 Y105.3 Z0.44
G1 F300 Z0.24
G1 F2700 E22.18431
G1 F2250 X124.699 Y111.123 E22.84166
G1 F2700 E17.84166
G1 F300 Z0.44
G0 F15000 X124.699 Y108.86 Z0.44
G1 F300 Z0.24
G1 F2700 E22.84166
G1 F2250 X121.139 Y105.3 E23.24355
G1 F2700 E18.24355
G1 F300 Z0.44
G0 F15000 X112.422 Y105.305 Z0.44
;TIME_ELAPSED:19.708228
;LAYER:-4
M107
G0 X112.422 Y105.305 Z1.04
;TYPE:SUPPORT
G1 F300 Z0.84
G1 F2700 E23.24355
G1 F2250 X112.124 Y105.339 E23.3034
G1 X111.732 Y105.45 E23.38471
G1 X111.42 Y105.595 E23.45337
G1 X111.116 Y105.802 E23.52676
G1 X110.862 Y106.045 E23.59691
G1 X110.653 Y106.324 E23.66648
G1 X110.479 Y106.657 E23.74146
G1 X110.372 Y106.986 E23.8105
G1 X110.317 Y107.314 E23.87687
G1 X110.307 Y107.48 E23.91005
G1 X112.484 Y105.304 E24.52431
G1 X113.899 Y105.303 E24.80669
G1 X110.299 Y108.903 E25.82268
G1 X110.299 Y110.317 E26.10486
G1 X115.314 Y105.303 E27.52006
G1 X116.729 Y105.302 E27.80244
G1 X110.299 Y111.732 E29.61713
G1 X110.299 Y113.146 E29.89931
G1 X118.144 Y105.301 E32.11333
G1 X119.559 Y105.3 E32.39571
G1 X110.299 Y114.56 E35.00909
G1 X110.299 Y115.974 E35.29126
G1 X120.973 Y105.3 E38.3037
G1 X122.387 Y105.3 E38.58588
G1 X110.299 Y117.388 E41.99737
G1 X110.299 Y118.803 E42.27975
G1 X123.527 Y105.575 E46.01298
G1 X123.672 Y105.651 E46.04565
G1 X123.986 Y105.894 E46.12488
G1 X124.295 Y106.221 E46.21466
G1 X110.299 Y120.217 E50.16464
G1 X110.299 Y121.631 E50.44682
G1 X124.674 Y107.256 E54.50375
G1 X124.699 Y107.466 E54.54596
G1 X124.699 Y108.645 E54.78124
G1 X110.299 Y123.045 E58.84523
G1 X110.299 Y124.459 E59.12741
G1 X124.699 Y110.059 E63.1914
G1 X124.699 Y111.473 E63.47358
G1 X110.299 Y125.874 E67.53771
G1 X110.299 Y127.288 E67.81989
G1 X124.699 Y112.888 E71.88388
G1 X124.699 Y114.302 E72.16606
G1 X110.529 Y128.472 E76.16514
G1 X110.803 Y128.884 E76.26388
G1 X111.045 Y129.136 E76.3336
G1 X111.179 Y129.237 E76.36709
G1 X124.699 Y115.716 E80.18287
G1 X124.699 Y117.13 E80.46505
G1 X112.157 Y129.672 E84.00467
G1 X112.634 Y129.699 E84.10001
G1 X113.545 Y129.699 E84.28181
G1 X124.699 Y118.545 E87.42971
G1 X124.699 Y119.959 E87.71189
G1 X114.96 Y129.698 E90.46045
G1 X116.374 Y129.698 E90.74263
G1 X124.699 Y121.373 E93.09212
G1 X124.699 Y122.787 E93.3743
G1 X117.789 Y129.697 E95.32445
G1 X119.204 Y129.696 E95.60683
G1 X124.699 Y124.201 E97.15764
G1 X124.699 Y125.616 E97.44002
G1 X120.619 Y129.696 E98.59148
G1 X122.034 Y129.695 E98.87386
G1 X124.699 Y127.03 E99.62598
G1 X124.7 Y127.363 E99.69243
G1 X124.682 Y127.684 E99.75659
G1 X124.626 Y128.012 E99.823
G1 X124.52 Y128.341 E99.89198
G1 X124.346 Y128.675 E99.96713
G1 X124.137 Y128.954 E100.0367
G1 X123.882 Y129.196 E100.10686
G1 X123.585 Y129.4 E100.17876
G1 X123.226 Y129.564 E100.25752
G1 X122.922 Y129.647 E100.32041
G1 X122.567 Y129.694 E100.39187
G1 F2700 E95.39187
G1 F300 Z1.04
G0 F15000 X112.11 Y129.646 Z1.04
;TIME_ELAPSED:32.876573
;LAYER:-3
;TYPE:SUPPORT-INTERFACE
G1 F300 Z1.04
G1 F2700 E100.39187
G1 F3000 X110.34 Y127.876 E100.47513
G1 X110.432 Y128.22 E100.48697
G1 X110.57 Y128.534 E100.49838
G1 X110.803 Y128.884 E100.51236
G1 X111.045 Y129.136 E100.52398
G1 X111.324 Y129.345 E100.53558
G1 X111.657 Y129.519 E100.54808
G1 X111.986 Y129.626 E100.55958
G1 X112.314 Y129.681 E100.57064
G1 X112.728 Y129.698 E100.58443
G1 X110.299 Y127.27 E100.69865
G1 X110.299 Y126.704 E100.71748
G1 X113.294 Y129.698 E100.85833
G1 X113.859 Y129.698 E100.87712
G1 X110.299 Y126.138 E101.04458
G1 X110.299 Y125.572 E101.0634
G1 X114.424 Y129.698 E101.25745
G1 X114.99 Y129.698 E101.27628
G1 X110.299 Y125.007 E101.49693
G1 X110.299 Y124.441 E101.51575
G1 X115.555 Y129.697 E101.76298
G1 X116.121 Y129.697 E101.7818
G1 X110.299 Y123.875 E102.05565
G1 X110.299 Y123.31 E102.07444
G1 X116.686 Y129.697 E102.37487
G1 X117.251 Y129.696 E102.39366
G1 X110.299 Y122.744 E102.72066
G1 X110.299 Y122.178 E102.73949
G1 X117.817 Y129.696 E103.09311
G1 X118.382 Y129.696 E103.1119
G1 X110.299 Y121.613 E103.4921
G1 X110.299 Y121.047 E103.51093
G1 X118.948 Y129.696 E103.91775
G1 X119.513 Y129.696 E103.93654
G1 X110.299 Y120.481 E104.36996
G1 X110.299 Y119.916 E104.38876
G1 X120.078 Y129.695 E104.84873
G1 X120.644 Y129.695 E104.86756
G1 X110.299 Y119.35 E105.35415
G1 X110.299 Y118.784 E105.37298
G1 X121.209 Y129.694 E105.88615
G1 X121.775 Y129.694 E105.90498
G1 X110.299 Y118.219 E106.44475
G1 X110.299 Y117.653 E106.46357
G1 X122.34 Y129.694 E107.02995
G1 X122.567 Y129.694 E107.0375
G1 X122.866 Y129.654 E107.04753
G1 X110.299 Y117.087 E107.63864
G1 X110.299 Y116.522 E107.65743
G1 X123.305 Y129.527 E108.26917
G1 X123.694 Y129.351 E108.28337
G1 X110.299 Y115.956 E108.91343
G1 X110.299 Y115.39 E108.93226
G1 X123.996 Y129.087 E109.57652
G1 X124.262 Y128.788 E109.58983
G1 X110.299 Y114.824 E110.24663
G1 X110.299 Y114.259 E110.26543
G1 X124.486 Y128.446 E110.93274
G1 X124.625 Y128.019 E110.94767
G1 X110.299 Y113.693 E111.62153
G1 X110.299 Y113.127 E111.64035
G1 X124.7 Y127.529 E112.31775
G1 X124.7 Y126.963 E112.33658
G1 X110.299 Y112.562 E113.01396
G1 X110.299 Y111.996 E113.03278
G1 X124.7 Y126.397 E113.71016
G1 X124.7 Y125.831 E113.72899
G1 X110.299 Y111.43 E114.40637
G1 X110.299 Y110.865 E114.42516
G1 X124.7 Y125.266 E115.10254
G1 X124.7 Y124.7 E115.12136
G1 X110.299 Y110.299 E115.79874
G1 X110.299 Y109.733 E115.81757
G1 X124.7 Y124.134 E116.49495
G1 X124.7 Y123.569 E116.51374
G1 X110.299 Y109.168 E117.19112
G1 X110.299 Y108.602 E117.20994
G1 X124.7 Y123.003 E117.88732
G1 X124.7 Y122.437 E117.90615
G1 X110.299 Y108.036 E118.58352
G1 X110.299 Y107.47 E118.60235
G1 X124.7 Y121.871 E119.27973
G1 X124.7 Y121.306 E119.29852
G1 X110.373 Y106.979 E119.97242
G1 X110.513 Y106.553 E119.98733
G1 X124.7 Y120.74 E120.65465
G1 X124.7 Y120.174 E120.67347
G1 X110.737 Y106.211 E121.33025
G1 X111.003 Y105.911 E121.34358
G1 X124.7 Y119.609 E121.98787
G1 X124.7 Y119.043 E122.0067
G1 X111.305 Y105.648 E122.63676
G1 X111.691 Y105.469 E122.65091
G1 X124.7 Y118.477 E123.26279
G1 X124.7 Y117.912 E123.28158
G1 X112.127 Y105.339 E123.87298
G1 X112.635 Y105.281 E123.88998
G1 X124.7 Y117.346 E124.45748
G1 X124.7 Y116.78 E124.47631
G1 X113.224 Y105.305 E125.01608
G1 X113.79 Y105.305 E125.0349
G1 X124.7 Y116.215 E125.54808
G1 X124.7 Y115.649 E125.5669
G1 X114.355 Y105.304 E126.0535
G1 X114.921 Y105.304 E126.07233
G1 X124.7 Y115.083 E126.5323
G1 X124.7 Y114.518 E126.55109
G1 X115.486 Y105.303 E126.98451
G1 X116.051 Y105.303 E127.00331
G1 X124.7 Y113.952 E127.41013
G1 X124.7 Y113.386 E127.42895
G1 X116.617 Y105.303 E127.80915
G1 X117.182 Y105.303 E127.82794
G1 X124.7 Y112.821 E128.18157
G1 X124.7 Y112.255 E128.20039
G1 X117.748 Y105.303 E128.52739
G1 X118.313 Y105.302 E128.54619
G1 X124.7 Y111.689 E128.84661
G1 X124.7 Y111.123 E128.86544
G1 X118.878 Y105.302 E129.13926
G1 X119.444 Y105.302 E129.15809
G1 X124.7 Y110.558 E129.40531
G1 X124.7 Y109.992 E129.42414
G1 X120.009 Y105.301 E129.64479
G1 X120.575 Y105.301 E129.66361
G1 X124.7 Y109.426 E129.85764
G1 X124.7 Y108.861 E129.87643
G1 X121.14 Y105.3 E130.04391
G1 X121.705 Y105.3 E130.0627
G1 X124.7 Y108.295 E130.20358
G1 X124.7 Y107.729 E130.2224
G1 X122.271 Y105.3 E130.33665
G1 X122.684 Y105.317 E130.3504
G1 X122.888 Y105.352 E130.35729
G1 F2700 E125.35729
G1 F300 Z1.24
G0 F15000 X124.52 Y128.341 Z1.24
;TIME_ELAPSED:57.769003
;LAYER:-2
;TYPE:SUPPORT-INTERFACE
G1 F300 Z1.24
G1 F2700 E130.35729
G1 F3000 X123.356 Y129.505 E130.41204
G1 X123.585 Y129.4 E130.42042
G1 X123.882 Y129.196 E130.4324
G1 X124.137 Y128.954 E130.44409
G1 X124.346 Y128.675 E130.45569
G1 X124.52 Y128.341 E130.46821
G1 X124.626 Y128.012 E130.47971
G1 X124.697 Y127.598 E130.49368
G1 X122.605 Y129.689 E130.59206
G1 X122.034 Y129.695 E130.61105
G1 X124.699 Y127.03 E130.7364
G1 X124.699 Y126.464 E130.75523
G1 X121.468 Y129.695 E130.90721
G1 X120.902 Y129.696 E130.92603
G1 X124.699 Y125.898 E131.10465
G1 X124.699 Y125.333 E131.12345
G1 X120.336 Y129.696 E131.32867
G1 X119.771 Y129.696 E131.34746
G1 X124.699 Y124.767 E131.57928
G1 X124.699 Y124.201 E131.59811
G1 X119.204 Y129.696 E131.85657
G1 X118.639 Y129.696 E131.87537
G1 X124.699 Y123.636 E132.16041
G1 X124.699 Y123.07 E132.17924
G1 X118.072 Y129.697 E132.49095
G1 X117.507 Y129.697 E132.50974
G1 X124.699 Y122.504 E132.84805
G1 X124.699 Y121.939 E132.86685
G1 X116.941 Y129.697 E133.23176
G1 X116.374 Y129.698 E133.25062
G1 X124.699 Y121.373 E133.6422
G1 X124.699 Y120.807 E133.66103
G1 X115.809 Y129.698 E134.07921
G1 X115.242 Y129.698 E134.09807
G1 X124.699 Y120.242 E134.54287
G1 X124.699 Y119.676 E134.5617
G1 X114.677 Y129.698 E135.0331
G1 X114.111 Y129.698 E135.05193
G1 X124.699 Y119.11 E135.54995
G1 X124.699 Y118.545 E135.56874
G1 X113.545 Y129.699 E136.09339
G1 X112.979 Y129.699 E136.11222
G1 X124.699 Y117.979 E136.66349
G1 X124.699 Y117.413 E136.68232
G1 X112.415 Y129.698 E137.26014
G1 X111.93 Y129.617 E137.2765
G1 X124.699 Y116.847 E137.87714
G1 X124.699 Y116.282 E137.89593
G1 X111.529 Y129.452 E138.5154
G1 X111.179 Y129.237 E138.52907
G1 X124.699 Y115.716 E139.16503
G1 X124.699 Y115.15 E139.18385
G1 X110.868 Y128.982 E139.83445
G1 X110.643 Y128.641 E139.84803
G1 X124.699 Y114.585 E140.50918
G1 X124.699 Y114.019 E140.52801
G1 X110.446 Y128.272 E141.19843
G1 X110.327 Y127.826 E141.21378
G1 X124.699 Y113.453 E141.88982
G1 X124.699 Y112.888 E141.90861
G1 X110.299 Y127.288 E142.58594
G1 X110.299 Y126.722 E142.60477
G1 X124.699 Y112.322 E143.2821
G1 X124.699 Y111.756 E143.30092
G1 X110.299 Y126.157 E143.97828
G1 X110.299 Y125.591 E143.99711
G1 X124.699 Y111.191 E144.67444
G1 X124.699 Y110.625 E144.69326
G1 X110.299 Y125.025 E145.37059
G1 X110.299 Y124.459 E145.38942
G1 X124.699 Y110.059 E146.06675
G1 X124.699 Y109.494 E146.08554
G1 X110.299 Y123.894 E146.76288
G1 X110.299 Y123.328 E146.7817
G1 X124.699 Y108.928 E147.45903
G1 X124.699 Y108.362 E147.47786
G1 X110.299 Y122.762 E148.15519
G1 X110.299 Y122.197 E148.17398
G1 X124.699 Y107.797 E148.85131
G1 X124.699 Y107.466 E148.86232
G1 X124.674 Y107.256 E148.86936
G1 X110.299 Y121.631 E149.54551
G1 X110.299 Y121.065 E149.56434
G1 X124.576 Y106.788 E150.23588
G1 X124.393 Y106.406 E150.24997
G1 X110.299 Y120.5 E150.91291
G1 X110.299 Y119.934 E150.93174
G1 X124.157 Y106.076 E151.58357
G1 X123.866 Y105.801 E151.59689
G1 X110.299 Y119.368 E152.23504
G1 X110.299 Y118.803 E152.25383
G1 X123.527 Y105.575 E152.87604
G1 X123.127 Y105.409 E152.89044
G1 X110.299 Y118.237 E153.49383
G1 X110.299 Y117.671 E153.51266
G1 X122.655 Y105.315 E154.09384
G1 X122.365 Y105.3 E154.1035
G1 X122.105 Y105.3 E154.11215
G1 X110.299 Y117.106 E154.66747
G1 X110.299 Y116.54 E154.68629
G1 X121.539 Y105.3 E155.21499
G1 X120.973 Y105.3 E155.23381
G1 X110.299 Y115.974 E155.73589
G1 X110.299 Y115.409 E155.75468
G1 X120.407 Y105.3 E156.23015
G1 X119.841 Y105.3 E156.24898
G1 X110.299 Y114.843 E156.69783
G1 X110.299 Y114.277 E156.71665
G1 X119.275 Y105.301 E157.13885
G1 X118.709 Y105.301 E157.15768
G1 X110.299 Y113.711 E157.55326
G1 X110.299 Y113.146 E157.57205
G1 X118.144 Y105.301 E157.94106
G1 X117.577 Y105.302 E157.95992
G1 X110.299 Y112.58 E158.30225
G1 X110.299 Y112.014 E158.32108
G1 X117.012 Y105.302 E158.63681
G1 X116.445 Y105.303 E158.65567
G1 X110.299 Y111.449 E158.94476
G1 X110.299 Y110.883 E158.96358
G1 X115.879 Y105.303 E159.22605
G1 X115.314 Y105.303 E159.24484
G1 X110.299 Y110.317 E159.48071
G1 X110.299 Y109.752 E159.4995
G1 X114.747 Y105.303 E159.70874
G1 X114.182 Y105.303 E159.72754
G1 X110.299 Y109.186 E159.91018
G1 X110.299 Y108.62 E159.92901
G1 X113.615 Y105.304 E160.08498
G1 X113.05 Y105.304 E160.10377
G1 X110.299 Y108.055 E160.23317
G1 X110.299 Y107.488 E160.25203
G1 X112.491 Y105.297 E160.35511
G1 X112.124 Y105.339 E160.3674
G1 X111.789 Y105.433 E160.37897
G1 X110.438 Y106.785 E160.44254
G1 X110.479 Y106.657 E160.44701
G1 X110.653 Y106.324 E160.45951
G1 X110.862 Y106.045 E160.4711
G1 X111.116 Y105.802 E160.48279
G1 X111.42 Y105.595 E160.49503
G1 X111.732 Y105.45 E160.50647
G1 F2700 E155.50647
G1 F300 Z1.44
G0 F15000 X117.682 Y115.598 Z1.44
;TIME_ELAPSED:82.834584
;LAYER:0
G1 F300 Z1.94
;MESH:Shoulder_Cube_Holder_TestFit_V1.stl
G0 F6000 X117.682 Y115.598 Z1.94
;TYPE:WALL-INNER
G1 F300 Z1.74
G1 F2700 E160.50647
G1 F1200 X117.298 Y115.592 E160.51924
