;FLAVOR:Marlin
;TIME:4395
;Filament used: 8.28505m
;Layer height: 0.4
;MINX:76.4
;MINY:62.318
;MINZ:0.24
;MAXX:158.6
;MAXY:172.682
;MAXZ:11.39
;Generated with Cura_SteamEngine 5.3.1
M140 S60
M105
M190 S60
M104 S230
M105
M109 S230
M82 ;absolute extrusion mode
; Ender 3 Custom Start G-code
G92 E0 ; Reset Extruder
G28 ; Home all axes
G1 Z2.0 F3000 ; Move Z Axis up little to prevent scratching of Heat Bed
G1 X0.1 Y20 Z0.3 F5000.0 ; Move to start position
G1 X0.1 Y200.0 Z0.3 F1500.0 E15 ; Draw the first line
G1 X0.4 Y200.0 Z0.3 F5000.0 ; Move to side a little
G1 X0.4 Y20 Z0.3 F1500.0 E30 ; Draw the second line
G92 E0 ; Reset Extruder
G1 Z2.0 F3000 ; Move Z Axis up little to prevent scratching of Heat Bed
G1 X5 Y20 Z0.3 F5000.0 ; Move over to prevent blob squish
G92 E0
G92 E0
G1 F2700 E-5
;LAYER_COUNT:26
;LAYER:-5
M107
G0 F15000 X95.285 Y85.08 Z0.24
;TYPE:SUPPORT-INTERFACE
G1 F2700 E0
G1 F2250 X94.799 Y85.606 E0.05717
G1 X94.421 Y86.136 E0.10913
G1 X94.109 Y86.713 E0.16149
G1 X93.848 Y87.378 E0.21852
G1 X93.686 Y88.035 E0.27253
G1 X93.601 Y88.969 E0.3474
G1 X93.6 Y146.036 E4.90273
G1 X93.645 Y146.7 E4.95586
G1 X93.777 Y147.372 E5.01052
G1 X93.977 Y147.982 E5.06177
G1 X94.275 Y148.615 E5.11761
G1 X94.645 Y149.194 E5.17246
G1 X95.081 Y149.715 E5.22669
G1 X95.598 Y150.195 E5.28301
G1 X96.143 Y150.583 E5.33641
G1 X96.729 Y150.899 E5.38956
G1 X97.371 Y151.15 E5.44458
G1 X98.009 Y151.308 E5.49705
G1 X98.969 Y151.399 E5.57402
G1 X136.031 Y151.4 E8.53247
G1 X136.667 Y151.359 E8.58334
G1 X137.34 Y151.232 E8.63801
G1 X137.998 Y151.017 E8.69327
G1 X138.624 Y150.721 E8.74855
G1 X139.188 Y150.36 E8.802
G1 X139.715 Y149.92 E8.8568
G1 X140.186 Y149.413 E8.91204
G1 X140.579 Y148.864 E8.96594
G1 X140.891 Y148.287 E9.0183
G1 X141.152 Y147.622 E9.07532
G1 X141.314 Y146.965 E9.12934
G1 X141.399 Y146.027 E9.20452
G1 X141.4 Y88.964 E13.75953
G1 X141.36 Y88.344 E13.80913
G1 X141.223 Y87.628 E13.86732
G1 X141.023 Y87.018 E13.91856
G1 X140.725 Y86.385 E13.97441
G1 X140.355 Y85.806 E14.02926
G1 X139.92 Y85.285 E14.08344
G1 X139.407 Y84.809 E14.1393
G1 X138.869 Y84.424 E14.19211
G1 X138.287 Y84.109 E14.24494
G1 X137.608 Y83.844 E14.30312
G1 X136.953 Y83.685 E14.35692
G1 X136.031 Y83.601 E14.43083
G1 X98.969 Y83.6 E17.38927
G1 X98.307 Y83.644 E17.44223
G1 X97.637 Y83.774 E17.49671
G1 X96.991 Y83.987 E17.55101
G1 X96.381 Y84.277 E17.60493
G1 X95.786 Y84.66 E17.66141
G1 X95.285 Y85.08 E17.7136
G1 F2700 E12.7136
G1 F300 Z0.44
G0 F15000 X77.436 Y67.478 Z0.44
G1 F300 Z0.24
G1 F2700 E17.7136
G1 F2250 X77.828 Y67.136 E17.75512
G1 X78.231 Y66.869 E17.79371
G1 X78.702 Y66.647 E17.83528
G1 X79.199 Y66.494 E17.87679
G1 X79.779 Y66.406 E17.92361
G1 X80.461 Y66.255 E17.97937
G1 X81.066 Y66.039 E18.03065
G1 X81.686 Y65.728 E18.08602
G1 X82.282 Y65.323 E18.14354
G1 X82.768 Y64.894 E18.19529
G1 X83.174 Y64.438 E18.24402
G1 X83.395 Y64.163 E18.27219
G1 X83.638 Y63.905 E18.30048
G1 X83.964 Y63.611 E18.33552
G1 X84.167 Y63.447 E18.35635
G1 X84.666 Y63.083 E18.40566
G1 X85.077 Y62.818 E18.44469
G1 X85.439 Y62.627 E18.47736
G1 X85.896 Y62.463 E18.51612
G1 X86.353 Y62.375 E18.55327
G1 X86.781 Y62.332 E18.58761
G1 X87.045 Y62.318 E18.60871
G1 X89.267 Y62.318 E18.78608
G1 X89.735 Y62.344 E18.8235
G1 X90.982 Y62.328 E18.92305
G1 X91.483 Y62.385 E18.9633
G1 X91.97 Y62.515 E19.00353
G1 X92.447 Y62.718 E19.04491
G1 X92.905 Y62.992 E19.08751
G1 X93.707 Y63.585 E19.16713
G1 X93.928 Y63.772 E19.19024
G1 X94.133 Y63.971 E19.21305
G1 X94.413 Y64.308 E19.24802
G1 X94.86 Y64.817 E19.3021
G1 X95.37 Y65.267 E19.35639
G1 X95.939 Y65.652 E19.41123
G1 X96.55 Y65.963 E19.46596
G1 X97.198 Y66.192 E19.52082
G1 X97.861 Y66.339 E19.57503
G1 X98.651 Y66.399 E19.63827
G1 X137.032 Y66.4 E22.70201
G1 X137.676 Y66.358 E22.75352
G1 X138.363 Y66.226 E22.80937
G1 X139.002 Y66.016 E22.86306
G1 X139.612 Y65.728 E22.9169
G1 X140.196 Y65.354 E22.97226
G1 X140.737 Y64.899 E23.02869
G1 X141.232 Y64.357 E23.08728
G1 X141.38 Y64.17 E23.10632
G1 X141.63 Y63.906 E23.13534
G1 X141.957 Y63.611 E23.1705
G1 X142.159 Y63.447 E23.19127
G1 X142.658 Y63.083 E23.24057
G1 X143.068 Y62.818 E23.27954
G1 X143.432 Y62.628 E23.31232
G1 X143.902 Y62.458 E23.35221
G1 X144.391 Y62.357 E23.39207
G1 X144.906 Y62.322 E23.43327
G1 X145.329 Y62.353 E23.46713
G1 X146.265 Y62.341 E23.54185
G1 X146.602 Y62.319 E23.56881
G1 X148.28 Y62.319 E23.70275
G1 X148.76 Y62.347 E23.74114
G1 X149.147 Y62.4 E23.77232
G1 X149.631 Y62.54 E23.81253
G1 X150.035 Y62.731 E23.84821
G1 X150.563 Y63.038 E23.89696
G1 X151.299 Y63.585 E23.97016
G1 X151.52 Y63.772 E23.99327
G1 X151.808 Y64.053 E24.02539
G1 X152.108 Y64.44 E24.06448
G1 X152.548 Y64.938 E24.11752
G1 X153.064 Y65.392 E24.17238
G1 X153.645 Y65.783 E24.22829
G1 X154.204 Y66.065 E24.27826
G1 X154.9 Y66.314 E24.33727
G1 X155.85 Y66.511 E24.41472
G1 X156.244 Y66.625 E24.44746
G1 X156.701 Y66.831 E24.48747
G1 X157.125 Y67.099 E24.52751
G1 X157.522 Y67.437 E24.56913
G1 X157.864 Y67.828 E24.6106
G1 X158.137 Y68.242 E24.65018
G1 X158.353 Y68.701 E24.69068
G1 X158.504 Y69.192 E24.73168
G1 X158.569 Y69.619 E24.76616
G1 X158.6 Y70.093 E24.80408
G1 X158.6 Y164.881 E32.37047
G1 X158.572 Y165.361 E32.40885
G1 X158.518 Y165.751 E32.44027
G1 X158.374 Y166.245 E32.48135
G1 X158.169 Y166.7 E32.52119
G1 X157.901 Y167.125 E32.56129
G1 X157.563 Y167.522 E32.60291
G1 X157.171 Y167.865 E32.64449
G1 X156.773 Y168.128 E32.68257
G1 X156.299 Y168.353 E32.72445
G1 X155.907 Y168.473 E32.75718
G1 X155.481 Y168.555 E32.79181
G1 X154.809 Y168.705 E32.84677
G1 X154.16 Y168.94 E32.90187
G1 X153.601 Y169.222 E32.95185
G1 X153.014 Y169.617 E33.00832
G1 X152.501 Y170.07 E33.06295
G1 X152.067 Y170.562 E33.11532
G1 X151.864 Y170.821 E33.14159
G1 X151.606 Y171.094 E33.17158
G1 X151.279 Y171.389 E33.20673
G1 X151.077 Y171.553 E33.2275
G1 X150.578 Y171.917 E33.2768
G1 X150.171 Y172.18 E33.31549
G1 X149.804 Y172.373 E33.34859
G1 X149.348 Y172.537 E33.38727
G1 X148.891 Y172.625 E33.42442
G1 X148.463 Y172.668 E33.45875
G1 X148.199 Y172.682 E33.47986
G1 X144.998 Y172.682 E33.73538
G1 X144.518 Y172.653 E33.77376
G1 X144.131 Y172.6 E33.80494
G1 X143.647 Y172.46 E33.84516
G1 X143.243 Y172.269 E33.88083
G1 X142.715 Y171.961 E33.92963
G1 X141.974 Y171.411 E34.00329
G1 X141.759 Y171.229 E34.02577
G1 X141.469 Y170.945 E34.05817
G1 X141.282 Y170.703 E34.08259
G1 X140.82 Y170.177 E34.13847
G1 X140.305 Y169.725 E34.19317
G1 X139.742 Y169.345 E34.24739
G1 X139.148 Y169.043 E34.30058
G1 X138.485 Y168.807 E34.35676
G1 X137.822 Y168.661 E34.41095
G1 X137.035 Y168.601 E34.47395
G1 X98.681 Y168.599 E37.53554
G1 X98.001 Y168.643 E37.58993
G1 X97.346 Y168.768 E37.64316
G1 X96.686 Y168.984 E37.69859
G1 X96.063 Y169.279 E37.75362
G1 X95.489 Y169.648 E37.80809
G1 X94.967 Y170.084 E37.86238
G1 X94.46 Y170.637 E37.92226
G1 X94.315 Y170.82 E37.9409
G1 X94.056 Y171.094 E37.971
G1 X93.73 Y171.389 E38.00609
G1 X93.528 Y171.553 E38.02686
G1 X93.029 Y171.917 E38.07617
G1 X92.622 Y172.18 E38.11485
G1 X92.254 Y172.373 E38.14802
G1 X91.784 Y172.542 E38.18789
G1 X91.297 Y172.643 E38.22759
G1 X90.768 Y172.678 E38.26991
G1 X90.204 Y172.633 E38.31507
G1 X89.527 Y172.597 E38.36919
G1 X89.042 Y172.623 E38.40796
G1 X88.82 Y172.647 E38.42579
G1 X88.252 Y172.682 E38.47121
G1 X87.209 Y172.682 E38.55447
G1 X86.729 Y172.653 E38.59285
G1 X86.342 Y172.6 E38.62403
G1 X85.858 Y172.46 E38.66425
G1 X85.454 Y172.269 E38.69992
G1 X84.926 Y171.961 E38.74872
G1 X84.185 Y171.411 E38.82238
G1 X83.97 Y171.229 E38.84487
G1 X83.676 Y170.941 E38.87772
G1 X83.45 Y170.649 E38.90719
G1 X83.015 Y170.153 E38.95986
G1 X82.507 Y169.701 E39.01413
G1 X81.933 Y169.31 E39.06957
G1 X81.291 Y168.985 E39.12701
G1 X80.641 Y168.756 E39.18203
G1 X80.03 Y168.621 E39.23197
G1 X79.248 Y168.518 E39.29494
G1 X78.762 Y168.376 E39.33535
G1 X78.302 Y168.171 E39.37555
G1 X77.861 Y167.891 E39.41725
G1 X77.477 Y167.562 E39.45762
G1 X77.139 Y167.177 E39.49851
G1 X76.863 Y166.758 E39.53856
G1 X76.646 Y166.297 E39.57923
G1 X76.496 Y165.801 E39.6206
G1 X76.431 Y165.381 E39.65452
G1 X76.4 Y164.907 E39.69244
G1 X76.401 Y70.119 E47.25883
G1 X76.429 Y69.637 E47.29737
G1 X76.481 Y69.253 E47.3283
G1 X76.626 Y68.756 E47.36963
G1 X76.831 Y68.299 E47.40961
G1 X77.099 Y67.876 E47.44958
G1 X77.436 Y67.478 E47.49121
G0 F15000 X77.321 Y68.27
G1 F2250 X94.453 Y85.402 E49.42522
G1 F2700 E44.42522
G1 F300 Z0.44
G0 F15000 X95.607 Y84.294 Z0.44
G1 F300 Z0.24
G1 F2700 E49.42522
G1 F2250 X78.498 Y67.185 E51.35663
G1 F2700 E46.35663
G1 F300 Z0.44
G0 F15000 X80.282 Y66.706 Z0.44
G1 F300 Z0.24
G1 F2700 E51.35663
G1 F2250 X97.103 Y83.526 E53.25547
G1 F2700 E48.25547
G1 F300 Z0.44
G0 F15000 X99.039 Y83.2 Z0.44
G1 F300 Z0.24
G1 F2700 E53.25547
G1 F2250 X81.901 Y66.062 E55.19016
G1 F2700 E50.19016
G1 F300 Z0.44
G0 F15000 X83.157 Y65.055 Z0.44
G1 F300 Z0.24
G1 F2700 E55.19016
G1 F2250 X101.302 Y83.2 E57.23852
G1 F2700 E52.23852
G1 F300 Z0.44
G0 F15000 X103.564 Y83.2 Z0.44
G1 F300 Z0.24
G1 F2700 E57.23852
G1 F2250 X84.253 Y63.888 E59.41857
G1 F2700 E54.41857
G1 F300 Z0.44
G0 F15000 X85.615 Y62.988 Z0.44
G1 F300 Z0.24
G1 F2700 E59.41857
G1 F2250 X105.827 Y83.2 E61.70028
G1 F2700 E56.70028
G1 F300 Z0.44
G0 F15000 X108.09 Y83.2 Z0.44
G1 F300 Z0.24
G1 F2700 E61.70028
G1 F2250 X87.607 Y62.717 E64.01258
G1 F2700 E59.01258
G1 F300 Z0.44
G0 F15000 X89.895 Y62.742 Z0.44
G1 F300 Z0.24
G1 F2700 E64.01258
G1 F2250 X110.353 Y83.201 E66.32211
G1 F2700 E61.32211
G1 F300 Z0.44
G0 F15000 X112.616 Y83.201 Z0.44
G1 F300 Z0.24
G1 F2700 E66.32211
G1 F2250 X92.906 Y63.491 E68.54714
G1 F2700 E63.54714
G1 F300 Z0.44
G0 F15000 X98.463 Y66.784 Z0.44
G1 F300 Z0.24
G1 F2700 E68.54714
G1 F2250 X114.879 Y83.201 E70.40038
G1 F2700 E65.40038
G1 F300 Z0.44
G0 F15000 X117.142 Y83.201 Z0.44
G1 F300 Z0.24
G1 F2700 E70.40038
G1 F2250 X100.742 Y66.801 E72.25175
G1 F2700 E67.25175
G1 F300 Z0.44
G0 F15000 X103.004 Y66.801 Z0.44
G1 F300 Z0.24
G1 F2700 E72.25175
G1 F2250 X119.405 Y83.201 E74.10318
G1 F2700 E69.10318
G1 F300 Z0.44
G0 F15000 X121.668 Y83.201 Z0.44
G1 F300 Z0.24
G1 F2700 E74.10318
G1 F2250 X105.267 Y66.801 E75.95461
G1 F2700 E70.95461
G1 F300 Z0.44
G0 F15000 X107.53 Y66.801 Z0.44
G1 F300 Z0.24
G1 F2700 E75.95461
G1 F2250 X123.931 Y83.201 E77.80605
G1 F2700 E72.80605
G1 F300 Z0.44
G0 F15000 X126.193 Y83.201 Z0.44
G1 F300 Z0.24
G1 F2700 E77.80605
G1 F2250 X109.793 Y66.801 E79.65742
G1 F2700 E74.65742
G1 F300 Z0.44
G0 F15000 X112.055 Y66.8 Z0.44
G1 F300 Z0.24
G1 F2700 E79.65742
G1 F2250 X128.457 Y83.202 E81.50902
G1 F2700 E76.50902
G1 F300 Z0.44
G0 F15000 X130.72 Y83.202 Z0.44
G1 F300 Z0.24
G1 F2700 E81.50902
G1 F2250 X114.317 Y66.8 E83.36067
G1 F2700 E78.36067
G1 F300 Z0.44
G0 F15000 X116.58 Y66.8 Z0.44
G1 F300 Z0.24
G1 F2700 E83.36067
G1 F2250 X132.982 Y83.202 E85.21227
G1 F2700 E80.21227
G1 F300 Z0.44
G0 F15000 X135.245 Y83.202 Z0.44
G1 F300 Z0.24
G1 F2700 E85.21227
G1 F2250 X118.843 Y66.8 E87.06387
G1 F2700 E82.06387
G1 F300 Z0.44
G0 F15000 X121.106 Y66.8 Z0.44
G1 F300 Z0.24
G1 F2700 E87.06387
G1 F2250 X137.789 Y83.483 E88.94719
G1 F2700 E83.94719
G1 F300 Z0.44
G0 F15000 X141.501 Y87.195 Z0.44
G1 F300 Z0.24
G1 F2700 E88.94719
G1 F2250 X158.199 Y103.893 E90.83221
G1 F2700 E85.83221
G1 F300 Z0.44
G0 F15000 X158.199 Y101.631 Z0.44
G1 F300 Z0.24
G1 F2700 E90.83221
G1 F2250 X123.368 Y66.8 E94.76423
G1 F2700 E89.76423
G1 F300 Z0.44
G0 F15000 X125.63 Y66.799 Z0.44
G1 F300 Z0.24
G1 F2700 E94.76423
G1 F2250 X158.199 Y99.368 E98.4409
G1 F2700 E93.4409
G1 F300 Z0.44
G0 F15000 X158.199 Y97.105 Z0.44
G1 F300 Z0.24
G1 F2700 E98.4409
G1 F2250 X127.893 Y66.799 E101.86211
G1 F2700 E96.86211
G1 F300 Z0.44
G0 F15000 X130.156 Y66.799 Z0.44
G1 F300 Z0.24
G1 F2700 E101.86211
G1 F2250 X158.199 Y94.842 E105.02784
G1 F2700 E100.02784
G1 F300 Z0.44
G0 F15000 X158.199 Y92.58 Z0.44
G1 F300 Z0.24
G1 F2700 E105.02784
G1 F2250 X132.419 Y66.799 E107.93817
G1 F2700 E102.93817
G1 F300 Z0.44
G0 F15000 X134.681 Y66.799 Z0.44
G1 F300 Z0.24
G1 F2700 E107.93817
G1 F2250 X158.199 Y90.317 E110.59308
G1 F2700 E105.59308
G1 F300 Z0.44
G0 F15000 X158.199 Y88.054 Z0.44
G1 F300 Z0.24
G1 F2700 E110.59308
G1 F2250 X136.944 Y66.799 E112.99253
G1 F2700 E107.99253
G1 F300 Z0.44
G0 F15000 X138.883 Y66.475 Z0.44
G1 F300 Z0.24
G1 F2700 E112.99253
G1 F2250 X158.199 Y85.791 E115.17309
G1 F2700 E110.17309
G1 F300 Z0.44
G0 F15000 X158.199 Y83.529 Z0.44
G1 F300 Z0.24
G1 F2700 E115.17309
G1 F2250 X140.38 Y65.71 E117.18465
G1 F2700 E112.18465
G1 F300 Z0.44
G0 F15000 X141.542 Y64.609 Z0.44
G1 F300 Z0.24
G1 F2700 E117.18465
G1 F2250 X158.199 Y81.266 E119.06504
G1 F2700 E114.06504
G1 F300 Z0.44
G0 F15000 X158.199 Y79.003 Z0.44
G1 F300 Z0.24
G1 F2700 E119.06504
G1 F2250 X142.725 Y63.529 E120.81188
G1 F2700 E115.81188
G1 F300 Z0.44
G0 F15000 X144.252 Y62.793 Z0.44
G1 F300 Z0.24
G1 F2700 E120.81188
G1 F2250 X158.199 Y76.74 E122.38633
G1 F2700 E117.38633
G1 F300 Z0.44
G0 F15000 X158.199 Y74.478 Z0.44
G1 F300 Z0.24
G1 F2700 E122.38633
G1 F2250 X146.451 Y62.729 E123.71261
G1 F2700 E118.71261
G1 F300 Z0.44
G0 F15000 X148.73 Y62.746 Z0.44
G1 F300 Z0.24
G1 F2700 E123.71261
G1 F2250 X158.199 Y72.215 E124.78155
G1 F2700 E119.78155
G1 F300 Z0.44
G0 F15000 X158.188 Y69.942 Z0.44
G1 F300 Z0.24
G1 F2700 E124.78155
G1 F2250 X154.987 Y66.74 E125.14296
G1 F2700 E120.14296
G1 F300 Z0.44
G0 F15000 X141.797 Y89.754 Z0.44
G1 F300 Z0.24
G1 F2700 E125.14296
G1 F2250 X158.199 Y106.156 E126.99456
G1 F2700 E121.99456
G1 F300 Z0.44
G0 F15000 X158.199 Y108.419 Z0.44
G1 F300 Z0.24
G1 F2700 E126.99456
G1 F2250 X141.797 Y92.017 E128.84616
G1 F2700 E123.84616
G1 F300 Z0.44
G0 F15000 X141.797 Y94.279 Z0.44
G1 F300 Z0.24
G1 F2700 E128.84616
G1 F2250 X158.199 Y110.682 E130.69782
G1 F2700 E125.69782
G1 F300 Z0.44
G0 F15000 X158.199 Y112.944 Z0.44
G1 F300 Z0.24
G1 F2700 E130.69782
G1 F2250 X141.797 Y96.542 E132.54942
G1 F2700 E127.54942
G1 F300 Z0.44
G0 F15000 X141.797 Y98.805 Z0.44
G1 F300 Z0.24
G1 F2700 E132.54942
G1 F2250 X158.199 Y115.207 E134.40102
G1 F2700 E129.40102
G1 F300 Z0.44
G0 F15000 X158.199 Y117.47 Z0.44
G1 F300 Z0.24
G1 F2700 E134.40102
G1 F2250 X141.797 Y101.068 E136.25262
G1 F2700 E131.25262
G1 F300 Z0.44
G0 F15000 X141.797 Y103.33 Z0.44
G1 F300 Z0.24
G1 F2700 E136.25262
G1 F2250 X158.199 Y119.732 E138.10421
G1 F2700 E133.10421
G1 F300 Z0.44
G0 F15000 X158.199 Y121.995 Z0.44
G1 F300 Z0.24
G1 F2700 E138.10421
G1 F2250 X141.797 Y105.593 E139.95581
G1 F2700 E134.95581
G1 F300 Z0.44
G0 F15000 X141.797 Y107.856 Z0.44
G1 F300 Z0.24
G1 F2700 E139.95581
G1 F2250 X158.199 Y124.258 E141.80741
G1 F2700 E136.80741
G1 F300 Z0.44
G0 F15000 X158.199 Y126.521 Z0.44
G1 F300 Z0.24
G1 F2700 E141.80741
G1 F2250 X141.797 Y110.119 E143.65901
G1 F2700 E138.65901
G1 F300 Z0.44
G0 F15000 X141.797 Y112.381 Z0.44
G1 F300 Z0.24
G1 F2700 E143.65901
G1 F2250 X158.199 Y128.783 E145.51061
G1 F2700 E140.51061
G1 F300 Z0.44
G0 F15000 X158.199 Y131.046 Z0.44
G1 F300 Z0.24
G1 F2700 E145.51061
G1 F2250 X141.797 Y114.644 E147.36221
G1 F2700 E142.36221
G1 F300 Z0.44
G0 F15000 X141.797 Y116.907 Z0.44
G1 F300 Z0.24
G1 F2700 E147.36221
G1 F2250 X158.199 Y133.309 E149.21381
G1 F2700 E144.21381
G1 F300 Z0.44
G0 F15000 X158.199 Y135.572 Z0.44
G1 F300 Z0.24
G1 F2700 E149.21381
G1 F2250 X141.796 Y119.169 E151.06552
G1 F2700 E146.06552
G1 F300 Z0.44
G0 F15000 X141.796 Y121.432 Z0.44
G1 F300 Z0.24
G1 F2700 E151.06552
G1 F2250 X158.199 Y137.834 E152.91718
G1 F2700 E147.91718
G1 F300 Z0.44
G0 F15000 X158.199 Y140.097 Z0.44
G1 F300 Z0.24
G1 F2700 E152.91718
G1 F2250 X141.796 Y123.694 E154.76889
G1 F2700 E149.76889
G1 F300 Z0.44
G0 F15000 X141.796 Y125.957 Z0.44
G1 F300 Z0.24
G1 F2700 E154.76889
G1 F2250 X158.199 Y142.36 E156.62061
G1 F2700 E151.62061
G1 F300 Z0.44
G0 F15000 X158.199 Y144.623 Z0.44
G1 F300 Z0.24
G1 F2700 E156.62061
G1 F2250 X141.796 Y128.22 E158.47232
G1 F2700 E153.47232
G1 F300 Z0.44
G0 F15000 X141.796 Y130.483 Z0.44
G1 F300 Z0.24
G1 F2700 E158.47232
G1 F2250 X158.199 Y146.885 E160.32397
G1 F2700 E155.32397
G1 F300 Z0.44
G0 F15000 X158.199 Y149.148 Z0.44
G1 F300 Z0.24
G1 F2700 E160.32397
G1 F2250 X141.796 Y132.745 E162.17569
G1 F2700 E157.17569
G1 F300 Z0.44
G0 F15000 X141.796 Y135.008 Z0.44
G1 F300 Z0.24
G1 F2700 E162.17569
G1 F2250 X158.199 Y151.411 E164.0274
G1 F2700 E159.0274
