;FLAVOR:Marlin
;TIME:550
;Filament used: 0.95681m
;Layer height: 0.4
;MINX:83.9
;MINY:83.9
;MINZ:0.24
;MAXX:151.1
;MAXY:151.1
;MAXZ:3.39
;Generated with Cura_SteamEngine 5.3.1
M140 S60
M105
M190 S60
M104 S230
M105
M109 S230
M82 ;absolute extrusion mode
; Ender 3 Custom Start G-code
G92 E0 ; Reset Extruder
G28 ; Home all axes
G1 Z2.0 F3000 ; Move Z Axis up little to prevent scratching of Heat Bed
G1 X0.1 Y20 Z0.3 F5000.0 ; Move to start position
G1 X0.1 Y200.0 Z0.3 F1500.0 E15 ; Draw the first line
G1 X0.4 Y200.0 Z0.3 F5000.0 ; Move to side a little
G1 X0.4 Y20 Z0.3 F1500.0 E30 ; Draw the second line
G92 E0 ; Reset Extruder
G1 Z2.0 F3000 ; Move Z Axis up little to prevent scratching of Heat Bed
G1 X5 Y20 Z0.3 F5000.0 ; Move over to prevent blob squish
G92 E0
G92 E0
G1 F2700 E-5
;LAYER_COUNT:6
;LAYER:-5
M107
G0 F15000 X90.769 Y90.596 Z0.24
;TYPE:SUPPORT-INTERFACE
G1 F2700 E0
G1 F2250 X90.299 Y91.107 E0.05542
G1 X89.908 Y91.658 E0.10935
G1 X89.609 Y92.213 E0.15967
G1 X89.341 Y92.903 E0.21876
G1 X89.182 Y93.569 E0.27342
G1 X89.101 Y94.469 E0.34555
G1 X89.1 Y140.536 E4.02282
G1 X89.145 Y141.2 E4.07594
G1 X89.277 Y141.872 E4.13061
G1 X89.477 Y142.482 E4.18185
G1 X89.787 Y143.137 E4.2397
G1 X90.161 Y143.714 E4.29459
G1 X90.596 Y144.231 E4.34852
G1 X91.107 Y144.701 E4.40394
G1 X91.658 Y145.092 E4.45787
G1 X92.213 Y145.391 E4.5082
G1 X92.903 Y145.659 E4.56728
G1 X93.569 Y145.818 E4.62194
G1 X94.469 Y145.899 E4.69407
G1 X140.531 Y145.9 E8.37094
G1 X141.2 Y145.855 E8.42446
G1 X141.872 Y145.723 E8.47913
G1 X142.482 Y145.523 E8.53037
G1 X143.137 Y145.213 E8.58822
G1 X143.714 Y144.839 E8.64311
G1 X144.231 Y144.404 E8.69704
G1 X144.702 Y143.892 E8.75257
G1 X145.092 Y143.342 E8.80639
G1 X145.391 Y142.787 E8.85672
G1 X145.659 Y142.097 E8.9158
G1 X145.814 Y141.465 E8.96775
G1 X145.899 Y140.527 E9.04293
G1 X145.9 Y94.464 E12.71988
G1 X145.86 Y93.844 E12.76947
G1 X145.735 Y93.177 E12.82364
G1 X145.523 Y92.518 E12.8789
G1 X145.237 Y91.907 E12.93275
G1 X144.839 Y91.286 E12.99163
G1 X144.404 Y90.769 E13.04557
G1 X143.893 Y90.299 E13.10099
G1 X143.342 Y89.908 E13.15492
G1 X142.787 Y89.609 E13.20524
G1 X142.097 Y89.341 E13.26433
G1 X141.431 Y89.182 E13.31898
G1 X140.531 Y89.101 E13.39112
G1 X94.469 Y89.1 E17.06798
G1 X93.8 Y89.145 E17.12151
G1 X93.128 Y89.277 E17.17617
G1 X92.518 Y89.477 E17.22742
G1 X91.863 Y89.787 E17.28526
G1 X91.286 Y90.161 E17.34015
G1 X90.769 Y90.596 E17.39409
G1 F2700 E12.39409
G1 F300 Z0.44
G0 F15000 X84.43 Y84.325 Z0.44
G1 F300 Z0.24
G1 F2700 E17.39409
G1 F2250 X84.696 Y84.128 E17.42051
G1 X85.008 Y83.984 E17.44794
G1 X85.477 Y83.9 E17.48597
G1 X149.349 Y83.9 E22.58451
G1 X149.804 Y83.929 E22.6209
G1 X150.175 Y84.059 E22.65228
G1 X150.444 Y84.218 E22.67723
G1 X150.713 Y84.463 E22.70627
G1 X150.895 Y84.728 E22.73193
G1 X151.01 Y84.993 E22.75499
G1 X151.1 Y85.475 E22.79413
G1 X151.1 Y149.349 E27.89283
G1 X151.066 Y149.862 E27.93387
G1 X150.942 Y150.173 E27.9606
G1 X150.783 Y150.441 E27.98547
G1 X150.567 Y150.679 E28.01113
G1 X150.306 Y150.87 E28.03694
G1 X149.992 Y151.016 E28.06459
G1 X149.522 Y151.1 E28.1027
G1 X85.651 Y151.1 E33.20116
G1 X85.196 Y151.071 E33.23755
G1 X84.828 Y150.942 E33.26868
G1 X84.553 Y150.779 E33.2942
G1 X84.291 Y150.541 E33.32245
G1 X84.106 Y150.276 E33.34825
G1 X83.983 Y149.989 E33.37318
G1 X83.901 Y149.523 E33.41094
G1 X83.9 Y85.646 E38.50988
G1 X83.929 Y85.196 E38.54588
G1 X84.052 Y84.841 E38.57587
G1 X84.214 Y84.564 E38.60148
G1 X84.43 Y84.325 E38.6272
G0 F15000 X84.676 Y84.676
G1 F2250 X90.402 Y90.402 E39.2736
G1 F2700 E34.2736
G1 F300 Z0.44
G0 F15000 X91.687 Y89.424 Z0.44
G1 F300 Z0.24
G1 F2700 E39.2736
G1 F2250 X86.562 Y84.299 E39.85215
G1 F2700 E34.85215
G1 F300 Z0.44
G0 F15000 X88.825 Y84.299 Z0.44
G1 F300 Z0.24
G1 F2700 E39.85215
G1 F2250 X93.349 Y88.823 E40.36286
G1 F2700 E35.36286
G1 F300 Z0.44
G0 F15000 X95.489 Y88.7 Z0.44
G1 F300 Z0.24
G1 F2700 E40.36286
G1 F2250 X91.088 Y84.299 E40.85968
G1 F2700 E35.85968
G1 F300 Z0.44
G0 F15000 X93.35 Y84.299 Z0.44
G1 F300 Z0.24
G1 F2700 E40.85968
G1 F2250 X97.751 Y88.7 E41.35651
G1 F2700 E36.35651
G1 F300 Z0.44
G0 F15000 X100.014 Y88.7 Z0.44
G1 F300 Z0.24
G1 F2700 E41.35651
G1 F2250 X95.613 Y84.299 E41.85333
G1 F2700 E36.85333
G1 F300 Z0.44
G0 F15000 X97.876 Y84.299 Z0.44
G1 F300 Z0.24
G1 F2700 E41.85333
G1 F2250 X102.277 Y88.7 E42.35015
G1 F2700 E37.35015
G1 F300 Z0.44
G0 F15000 X104.54 Y88.7 Z0.44
G1 F300 Z0.24
G1 F2700 E42.35015
G1 F2250 X100.139 Y84.299 E42.84698
G1 F2700 E37.84698
G1 F300 Z0.44
G0 F15000 X102.401 Y84.299 Z0.44
G1 F300 Z0.24
G1 F2700 E42.84698
G1 F2250 X106.802 Y88.7 E43.3438
G1 F2700 E38.3438
G1 F300 Z0.44
G0 F15000 X109.065 Y88.7 Z0.44
G1 F300 Z0.24
G1 F2700 E43.3438
G1 F2250 X104.664 Y84.299 E43.84062
G1 F2700 E38.84062
G1 F300 Z0.44
G0 F15000 X106.927 Y84.299 Z0.44
G1 F300 Z0.24
G1 F2700 E43.84062
G1 F2250 X111.329 Y88.701 E44.33756
G1 F2700 E39.33756
G1 F300 Z0.44
G0 F15000 X113.591 Y88.701 Z0.44
G1 F300 Z0.24
G1 F2700 E44.33756
G1 F2250 X109.19 Y84.299 E44.83444
G1 F2700 E39.83444
G1 F300 Z0.44
G0 F15000 X111.452 Y84.299 Z0.44
G1 F300 Z0.24
G1 F2700 E44.83444
G1 F2250 X115.854 Y88.701 E45.33137
G1 F2700 E40.33137
G1 F300 Z0.44
G0 F15000 X118.117 Y88.701 Z0.44
G1 F300 Z0.24
G1 F2700 E45.33137
G1 F2250 X113.715 Y84.299 E45.82831
G1 F2700 E40.82831
G1 F300 Z0.44
G0 F15000 X115.978 Y84.299 Z0.44
G1 F300 Z0.24
G1 F2700 E45.82831
G1 F2250 X120.379 Y88.701 E46.32519
G1 F2700 E41.32519
G1 F300 Z0.44
G0 F15000 X122.642 Y88.701 Z0.44
G1 F300 Z0.24
G1 F2700 E46.32519
G1 F2250 X118.24 Y84.299 E46.82212
G1 F2700 E41.82212
G1 F300 Z0.44
G0 F15000 X120.503 Y84.299 Z0.44
G1 F300 Z0.24
G1 F2700 E46.82212
G1 F2250 X124.905 Y88.701 E47.31906
G1 F2700 E42.31906
G1 F300 Z0.44
G0 F15000 X127.168 Y88.702 Z0.44
G1 F300 Z0.24
G1 F2700 E47.31906
G1 F2250 X122.766 Y84.299 E47.81605
G1 F2700 E42.81605
G1 F300 Z0.44
G0 F15000 X125.029 Y84.299 Z0.44
G1 F300 Z0.24
G1 F2700 E47.81605
G1 F2250 X129.431 Y88.702 E48.31304
G1 F2700 E43.31304
G1 F300 Z0.44
G0 F15000 X131.694 Y88.702 Z0.44
G1 F300 Z0.24
G1 F2700 E48.31304
G1 F2250 X127.291 Y84.299 E48.81009
G1 F2700 E43.81009
G1 F300 Z0.44
G0 F15000 X129.554 Y84.299 Z0.44
G1 F300 Z0.24
G1 F2700 E48.81009
G1 F2250 X133.957 Y88.702 E49.30714
G1 F2700 E44.30714
G1 F300 Z0.44
G0 F15000 X136.219 Y88.702 Z0.44
G1 F300 Z0.24
G1 F2700 E49.30714
G1 F2250 X131.817 Y84.299 E49.80413
G1 F2700 E44.80413
G1 F300 Z0.44
G0 F15000 X134.08 Y84.299 Z0.44
G1 F300 Z0.24
G1 F2700 E49.80413
G1 F2250 X138.482 Y88.702 E50.30113
G1 F2700 E45.30113
G1 F300 Z0.44
G0 F15000 X140.763 Y88.719 Z0.44
G1 F300 Z0.24
G1 F2700 E50.30113
G1 F2250 X136.342 Y84.299 E50.80015
G1 F2700 E45.80015
G1 F300 Z0.44
G0 F15000 X138.605 Y84.299 Z0.44
G1 F300 Z0.24
G1 F2700 E50.80015
G1 F2250 X150.699 Y96.393 E52.16543
G1 F2700 E47.16543
G1 F300 Z0.44
G0 F15000 X150.699 Y98.656 Z0.44
G1 F300 Z0.24
G1 F2700 E52.16543
G1 F2250 X146.285 Y94.242 E52.66372
G1 F2700 E47.66372
G1 F300 Z0.44
G0 F15000 X146.297 Y96.517 Z0.44
G1 F300 Z0.24
G1 F2700 E52.66372
G1 F2250 X150.699 Y100.918 E53.1606
G1 F2700 E48.1606
G1 F300 Z0.44
G0 F15000 X150.699 Y103.181 Z0.44
G1 F300 Z0.24
G1 F2700 E53.1606
G1 F2250 X146.297 Y98.779 E53.65753
G1 F2700 E48.65753
G1 F300 Z0.44
G0 F15000 X146.297 Y101.042 Z0.44
G1 F300 Z0.24
G1 F2700 E53.65753
G1 F2250 X150.699 Y105.444 E54.15447
G1 F2700 E49.15447
G1 F300 Z0.44
G0 F15000 X150.699 Y107.707 Z0.44
G1 F300 Z0.24
G1 F2700 E54.15447
G1 F2250 X146.297 Y103.305 E54.6514
G1 F2700 E49.6514
G1 F300 Z0.44
G0 F15000 X146.297 Y105.568 Z0.44
G1 F300 Z0.24
G1 F2700 E54.6514
G1 F2250 X150.699 Y109.969 E55.14828
G1 F2700 E50.14828
G1 F300 Z0.44
G0 F15000 X150.699 Y112.232 Z0.44
G1 F300 Z0.24
G1 F2700 E55.14828
G1 F2250 X146.297 Y107.83 E55.64522
G1 F2700 E50.64522
G1 F300 Z0.44
G0 F15000 X146.296 Y110.092 Z0.44
G1 F300 Z0.24
G1 F2700 E55.64522
G1 F2250 X150.699 Y114.495 E56.14227
G1 F2700 E51.14227
G1 F300 Z0.44
G0 F15000 X150.699 Y116.758 Z0.44
G1 F300 Z0.24
G1 F2700 E56.14227
G1 F2250 X146.296 Y112.355 E56.63932
G1 F2700 E51.63932
G1 F300 Z0.44
G0 F15000 X146.296 Y114.618 Z0.44
G1 F300 Z0.24
G1 F2700 E56.63932
G1 F2250 X150.699 Y119.02 E57.13631
G1 F2700 E52.13631
G1 F300 Z0.44
G0 F15000 X150.699 Y121.283 Z0.44
G1 F300 Z0.24
G1 F2700 E57.13631
G1 F2250 X146.296 Y116.881 E57.6333
G1 F2700 E52.6333
G1 F300 Z0.44
G0 F15000 X146.296 Y119.143 Z0.44
G1 F300 Z0.24
G1 F2700 E57.6333
G1 F2250 X150.699 Y123.546 E58.13035
G1 F2700 E53.13035
G1 F300 Z0.44
G0 F15000 X150.699 Y125.809 Z0.44
G1 F300 Z0.24
G1 F2700 E58.13035
G1 F2250 X146.296 Y121.406 E58.6274
G1 F2700 E53.6274
G1 F300 Z0.44
G0 F15000 X146.296 Y123.669 Z0.44
G1 F300 Z0.24
G1 F2700 E58.6274
G1 F2250 X150.699 Y128.071 E59.12439
G1 F2700 E54.12439
G1 F300 Z0.44
G0 F15000 X150.699 Y130.334 Z0.44
G1 F300 Z0.24
G1 F2700 E59.12439
G1 F2250 X146.296 Y125.931 E59.62144
G1 F2700 E54.62144
G1 F300 Z0.44
G0 F15000 X146.296 Y128.194 Z0.44
G1 F300 Z0.24
G1 F2700 E59.62144
G1 F2250 X150.699 Y132.597 E60.11849
G1 F2700 E55.11849
G1 F300 Z0.44
G0 F15000 X150.699 Y134.86 Z0.44
G1 F300 Z0.24
G1 F2700 E60.11849
G1 F2250 X146.296 Y130.456 E60.61559
G1 F2700 E55.61559
G1 F300 Z0.44
G0 F15000 X146.296 Y132.719 Z0.44
G1 F300 Z0.24
G1 F2700 E60.61559
G1 F2250 X150.699 Y137.122 E61.11264
G1 F2700 E56.11264
G1 F300 Z0.44
G0 F15000 X150.699 Y139.385 Z0.44
G1 F300 Z0.24
G1 F2700 E61.11264
G1 F2250 X146.296 Y134.982 E61.60969
G1 F2700 E56.60969
G1 F300 Z0.44
G0 F15000 X146.296 Y137.245 Z0.44
G1 F300 Z0.24
G1 F2700 E61.60969
G1 F2250 X150.699 Y141.648 E62.10674
G1 F2700 E57.10674
G1 F300 Z0.44
G0 F15000 X150.699 Y143.911 Z0.44
G1 F300 Z0.24
G1 F2700 E62.10674
G1 F2250 X146.296 Y139.507 E62.60384
G1 F2700 E57.60384
G1 F300 Z0.44
G0 F15000 X146.178 Y141.652 Z0.44
G1 F300 Z0.24
G1 F2700 E62.60384
G1 F2250 X150.699 Y146.173 E63.11421
G1 F2700 E58.11421
G1 F300 Z0.44
G0 F15000 X150.699 Y148.436 Z0.44
G1 F300 Z0.24
G1 F2700 E63.11421
G1 F2250 X145.566 Y143.303 E63.69367
G1 F2700 E58.69367
G1 F300 Z0.44
G0 F15000 X144.596 Y144.596 Z0.44
G1 F300 Z0.24
G1 F2700 E63.69367
G1 F2250 X150.337 Y150.337 E64.34176
G1 F2700 E59.34176
G1 F300 Z0.44
G0 F15000 X148.436 Y150.699 Z0.44
G1 F300 Z0.24
G1 F2700 E64.34176
G1 F2250 X143.312 Y145.574 E64.92026
G1 F2700 E59.92026
G1 F300 Z0.44
G0 F15000 X141.649 Y146.175 Z0.44
G1 F300 Z0.24
G1 F2700 E64.92026
G1 F2250 X146.173 Y150.699 E65.43097
G1 F2700 E60.43097
G1 F300 Z0.44
G0 F15000 X143.911 Y150.699 Z0.44
G1 F300 Z0.24
G1 F2700 E65.43097
G1 F2250 X139.51 Y146.298 E65.92779
G1 F2700 E60.92779
G1 F300 Z0.44
G0 F15000 X137.247 Y146.298 Z0.44
G1 F300 Z0.24
G1 F2700 E65.92779
G1 F2250 X141.648 Y150.699 E66.42462
G1 F2700 E61.42462
G1 F300 Z0.44
G0 F15000 X139.385 Y150.699 Z0.44
G1 F300 Z0.24
G1 F2700 E66.42462
G1 F2250 X134.984 Y146.298 E66.92144
G1 F2700 E61.92144
G1 F300 Z0.44
G0 F15000 X132.721 Y146.298 Z0.44
G1 F300 Z0.24
G1 F2700 E66.92144
G1 F2250 X137.122 Y150.699 E67.41826
G1 F2700 E62.41826
G1 F300 Z0.44
G0 F15000 X134.86 Y150.699 Z0.44
G1 F300 Z0.24
G1 F2700 E67.41826
G1 F2250 X130.459 Y146.298 E67.91508
G1 F2700 E62.91508
G1 F300 Z0.44
G0 F15000 X128.196 Y146.298 Z0.44
G1 F300 Z0.24
G1 F2700 E67.91508
G1 F2250 X132.597 Y150.699 E68.41191
G1 F2700 E63.41191
G1 F300 Z0.44
G0 F15000 X130.334 Y150.699 Z0.44
G1 F300 Z0.24
G1 F2700 E68.41191
G1 F2250 X125.933 Y146.298 E68.90873
G1 F2700 E63.90873
G1 F300 Z0.44
G0 F15000 X123.67 Y146.297 Z0.44
G1 F300 Z0.24
G1 F2700 E68.90873
G1 F2250 X128.071 Y150.699 E69.40561
G1 F2700 E64.40561
G1 F300 Z0.44
G0 F15000 X125.809 Y150.699 Z0.44
G1 F300 Z0.24
G1 F2700 E69.40561
G1 F2250 X121.407 Y146.297 E69.90255
G1 F2700 E64.90255
G1 F300 Z0.44
G0 F15000 X119.144 Y146.297 Z0.44
G1 F300 Z0.24
G1 F2700 E69.90255
G1 F2250 X123.546 Y150.699 E70.39948
G1 F2700 E65.39948
G1 F300 Z0.44
G0 F15000 X121.283 Y150.699 Z0.44
G1 F300 Z0.24
G1 F2700 E70.39948
G1 F2250 X116.881 Y146.297 E70.89642
G1 F2700 E65.89642
G1 F300 Z0.44
G0 F15000 X114.619 Y146.297 Z0.44
G1 F300 Z0.24
G1 F2700 E70.89642
G1 F2250 X119.02 Y150.699 E71.3933
G1 F2700 E66.3933
G1 F300 Z0.44
G0 F15000 X116.758 Y150.699 Z0.44
G1 F300 Z0.24
G1 F2700 E71.3933
G1 F2250 X112.356 Y146.297 E71.89023
G1 F2700 E66.89023
G1 F300 Z0.44
G0 F15000 X110.093 Y146.297 Z0.44
G1 F300 Z0.24
G1 F2700 E71.89023
G1 F2250 X114.495 Y150.699 E72.38717
G1 F2700 E67.38717
G1 F300 Z0.44
G0 F15000 X112.232 Y150.699 Z0.44
G1 F300 Z0.24
G1 F2700 E72.38717
G1 F2250 X107.83 Y146.296 E72.88416
G1 F2700 E67.88416
G1 F300 Z0.44
G0 F15000 X105.567 Y146.296 Z0.44
G1 F300 Z0.24
G1 F2700 E72.88416
G1 F2250 X109.969 Y150.699 E73.38115
G1 F2700 E68.38115
G1 F300 Z0.44
G0 F15000 X107.707 Y150.699 Z0.44
G1 F300 Z0.24
G1 F2700 E73.38115
G1 F2250 X103.304 Y146.296 E73.8782
G1 F2700 E68.8782
G1 F300 Z0.44
G0 F15000 X101.042 Y146.296 Z0.44
G1 F300 Z0.24
G1 F2700 E73.8782
G1 F2250 X105.444 Y150.699 E74.37519
G1 F2700 E69.37519
G1 F300 Z0.44
G0 F15000 X103.181 Y150.699 Z0.44
G1 F300 Z0.24
G1 F2700 E74.37519
G1 F2250 X98.779 Y146.296 E74.87219
G1 F2700 E69.87219
G1 F300 Z0.44
G0 F15000 X96.516 Y146.296 Z0.44
G1 F300 Z0.24
G1 F2700 E74.87219
G1 F2250 X100.918 Y150.699 E75.36918
G1 F2700 E70.36918
G1 F300 Z0.44
G0 F15000 X98.656 Y150.699 Z0.44
G1 F300 Z0.24
G1 F2700 E75.36918
G1 F2250 X94.236 Y146.279 E75.86815
G1 F2700 E70.86815
G1 F300 Z0.44
G0 F15000 X94.13 Y150.699 Z0.44
G1 F300 Z0.24
G1 F2700 E75.86815
G1 F2250 X84.3 Y140.869 E76.97784
G1 F2700 E71.97784
G1 F300 Z0.44
G0 F15000 X84.3 Y143.131 Z0.44
G1 F300 Z0.24
G1 F2700 E76.97784
G1 F2250 X91.868 Y150.699 E77.83218
G1 F2700 E72.83218
G1 F300 Z0.44
G0 F15000 X89.605 Y150.699 Z0.44
G1 F300 Z0.24
G1 F2700 E77.83218
G1 F2250 X84.3 Y145.394 E78.43106
G1 F2700 E73.43106
G1 F300 Z0.44
G0 F15000 X84.3 Y147.657 Z0.44
G1 F300 Z0.24
G1 F2700 E78.43106
G1 F2250 X87.342 Y150.699 E78.77446
G1 F2700 E73.77446
G1 F300 Z0.44
G0 F15000 X84.895 Y150.515 Z0.44
G1 F300 Z0.24
G1 F2700 E78.77446
G1 F2250 X84.515 Y150.135 E78.81736
G1 F2700 E73.81736
G1 F300 Z0.44
G0 F15000 X88.715 Y140.758 Z0.44
G1 F300 Z0.24
G1 F2700 E78.81736
G1 F2250 X84.3 Y136.343 E79.31577
G1 F2700 E74.31577
G1 F300 Z0.44
G0 F15000 X84.3 Y138.606 Z0.44
G1 F300 Z0.24
G1 F2700 E79.31577
G1 F2250 X96.393 Y150.699 E80.68093
G1 F2700 E75.68093
G1 F300 Z0.44
G0 F15000 X88.701 Y138.481 Z0.44
G1 F300 Z0.24
G1 F2700 E80.68093
G1 F2250 X84.3 Y134.08 E81.17775
G1 F2700 E76.17775
G1 F300 Z0.44
G0 F15000 X84.3 Y131.818 Z0.44
G1 F300 Z0.24
G1 F2700 E81.17775
G1 F2250 X88.701 Y136.219 E81.67457
G1 F2700 E76.67457
G1 F300 Z0.44
G0 F15000 X88.701 Y133.956 Z0.44
G1 F300 Z0.24
G1 F2700 E81.67457
G1 F2250 X84.3 Y129.555 E82.1714
G1 F2700 E77.1714
G1 F300 Z0.44
G0 F15000 X84.3 Y127.292 Z0.44
G1 F300 Z0.24
G1 F2700 E82.1714
G1 F2250 X88.701 Y131.693 E82.66822
G1 F2700 E77.66822
G1 F300 Z0.44
G0 F15000 X88.701 Y129.43 Z0.44
G1 F300 Z0.24
G1 F2700 E82.66822
G1 F2250 X84.3 Y125.029 E83.16504
G1 F2700 E78.16504
G1 F300 Z0.44
G0 F15000 X84.3 Y122.767 Z0.44
G1 F300 Z0.24
G1 F2700 E83.16504
G1 F2250 X88.701 Y127.168 E83.66187
G1 F2700 E78.66187
G1 F300 Z0.44
G0 F15000 X88.702 Y124.906 Z0.44
G1 F300 Z0.24
G1 F2700 E83.66187
G1 F2250 X84.3 Y120.504 E84.1588
G1 F2700 E79.1588
G1 F300 Z0.44
G0 F15000 X84.3 Y118.241 Z0.44
G1 F300 Z0.24
G1 F2700 E84.1588
G1 F2250 X88.702 Y122.643 E84.65574
G1 F2700 E79.65574
G1 F300 Z0.44
G0 F15000 X88.702 Y120.38 Z0.44
G1 F300 Z0.24
G1 F2700 E84.65574
G1 F2250 X84.3 Y115.978 E85.15267
G1 F2700 E80.15267
G1 F300 Z0.44
G0 F15000 X84.3 Y113.716 Z0.44
G1 F300 Z0.24
G1 F2700 E85.15267
G1 F2250 X88.702 Y118.117 E85.64955
G1 F2700 E80.64955
G1 F300 Z0.44
G0 F15000 X88.702 Y115.855 Z0.44
G1 F300 Z0.24
G1 F2700 E85.64955
G1 F2250 X84.3 Y111.453 E86.14649
G1 F2700 E81.14649
G1 F300 Z0.44
G0 F15000 X84.3 Y109.19 Z0.44
G1 F300 Z0.24
G1 F2700 E86.14649
G1 F2250 X88.702 Y113.592 E86.64342
G1 F2700 E81.64342
G1 F300 Z0.44
G0 F15000 X88.702 Y111.329 Z0.44
G1 F300 Z0.24
G1 F2700 E86.64342
G1 F2250 X84.3 Y106.927 E87.14036
G1 F2700 E82.14036
G1 F300 Z0.44
G0 F15000 X84.3 Y104.665 Z0.44
G1 F300 Z0.24
G1 F2700 E87.14036
G1 F2250 X88.703 Y109.067 E87.63735
G1 F2700 E82.63735
G1 F300 Z0.44
G0 F15000 X88.703 Y106.804 Z0.44
G1 F300 Z0.24
G1 F2700 E87.63735
