;FLAVOR:Marlin
;TIME:3622
;Filament used: 6.71115m
;Layer height: 0.4
;MINX:77.385
;MINY:24.9
;MINZ:0.24
;MAXX:157.6
;MAXY:210.1
;MAXZ:3.39
;Generated with Cura_SteamEngine 5.3.1
M140 S60
M105
M190 S60
M104 S230
M105
M109 S230
M82 ;absolute extrusion mode
; Ender 3 Custom Start G-code
G92 E0 ; Reset Extruder
G28 ; Home all axes
G1 Z2.0 F3000 ; Move Z Axis up little to prevent scratching of Heat Bed
G1 X0.1 Y20 Z0.3 F5000.0 ; Move to start position
G1 X0.1 Y200.0 Z0.3 F1500.0 E15 ; Draw the first line
G1 X0.4 Y200.0 Z0.3 F5000.0 ; Move to side a little
G1 X0.4 Y20 Z0.3 F1500.0 E30 ; Draw the second line
G92 E0 ; Reset Extruder
G1 Z2.0 F3000 ; Move Z Axis up little to prevent scratching of Heat Bed
G1 X5 Y20 Z0.3 F5000.0 ; Move over to prevent blob squish
G92 E0
G92 E0
G1 F2700 E-5
;LAYER_COUNT:6
;LAYER:-5
M107
G0 F15000 X94.274 Y41.592 Z0.24
;TYPE:SUPPORT-INTERFACE
G1 F2700 E0
G1 F2250 X93.799 Y42.106 E0.05587
G1 X93.435 Y42.614 E0.10575
G1 X93.109 Y43.213 E0.16019
G1 X92.841 Y43.903 E0.21928
G1 X92.686 Y44.535 E0.27122
G1 X92.601 Y45.469 E0.34609
G1 X92.6 Y105.128 E5.10833
G1 X92.645 Y105.792 E5.16145
G1 X92.777 Y106.464 E5.21612
G1 X92.977 Y107.074 E5.26736
G1 X93.263 Y107.685 E5.32121
G1 X93.631 Y108.265 E5.37604
G1 X94.08 Y108.807 E5.43222
G1 X94.606 Y109.292 E5.48934
G1 X95.164 Y109.688 E5.54396
G1 X95.85 Y110.045 E5.60569
G1 X96.031 Y110.123 E5.62142
G1 X96.436 Y110.346 E5.65832
G1 X96.739 Y110.578 E5.68879
G1 X97.024 Y110.881 E5.72199
G1 X97.246 Y111.212 E5.75381
G1 X97.441 Y111.624 E5.79019
G1 X97.54 Y111.995 E5.82084
G1 X97.6 Y112.448 E5.85732
G1 X97.6 Y122.36 E6.64854
G1 X97.578 Y122.738 E6.67876
G1 X97.519 Y123.1 E6.70804
G1 X97.385 Y123.515 E6.74285
G1 X97.175 Y123.91 E6.77856
G1 X96.928 Y124.232 E6.81096
G1 X96.643 Y124.501 E6.84224
G1 X96.254 Y124.768 E6.8799
G1 X95.731 Y125.005 E6.92574
G1 X95.142 Y125.323 E6.97917
G1 X94.629 Y125.686 E7.02933
G1 X94.083 Y126.19 E7.08865
G1 X93.677 Y126.671 E7.13889
G1 X93.303 Y127.242 E7.19338
G1 X92.988 Y127.897 E7.25139
G1 X92.786 Y128.5 E7.30216
G1 X92.642 Y129.225 E7.36116
G1 X92.6 Y129.869 E7.41268
G1 X92.6 Y189.536 E12.17555
G1 X92.645 Y190.2 E12.22868
G1 X92.777 Y190.872 E12.28335
G1 X92.977 Y191.482 E12.33459
G1 X93.263 Y192.093 E12.38844
G1 X93.631 Y192.673 E12.44327
G1 X94.091 Y193.226 E12.50069
G1 X94.586 Y193.685 E12.55458
G1 X95.158 Y194.092 E12.61061
G1 X95.713 Y194.391 E12.66094
G1 X96.403 Y194.659 E12.72002
G1 X97.035 Y194.814 E12.77197
G1 X97.969 Y194.899 E12.84683
G1 X137.031 Y194.9 E15.96493
G1 X137.7 Y194.855 E16.01845
G1 X138.372 Y194.723 E16.07312
G1 X138.982 Y194.523 E16.12436
G1 X139.593 Y194.237 E16.17822
G1 X140.173 Y193.869 E16.23305
G1 X140.726 Y193.409 E16.29046
G1 X141.186 Y192.913 E16.34446
G1 X141.592 Y192.342 E16.40039
G1 X141.891 Y191.787 E16.45071
G1 X142.159 Y191.097 E16.5098
G1 X142.314 Y190.465 E16.56175
G1 X142.399 Y189.527 E16.63693
G1 X142.4 Y129.872 E21.39885
G1 X142.36 Y129.252 E21.44844
G1 X142.223 Y128.536 E21.50663
G1 X142.023 Y127.926 E21.55788
G1 X141.737 Y127.315 E21.61173
G1 X141.369 Y126.735 E21.66656
G1 X140.92 Y126.193 E21.72274
G1 X140.433 Y125.74 E21.77583
G1 X139.884 Y125.341 E21.83001
G1 X139.15 Y124.955 E21.89621
G1 X138.969 Y124.877 E21.91194
G1 X138.557 Y124.65 E21.94949
G1 X138.266 Y124.426 E21.9788
G1 X137.997 Y124.141 E22.01008
G1 X137.749 Y123.778 E22.04518
G1 X137.561 Y123.38 E22.08031
G1 X137.46 Y123.004 E22.11139
G1 X137.4 Y122.549 E22.14803
G1 X137.386 Y112.596 E22.94252
G1 X137.4 Y112.583 E22.94404
G1 X137.419 Y112.273 E22.96884
G1 X137.489 Y111.86 E23.00227
G1 X137.617 Y111.48 E23.03428
G1 X137.826 Y111.09 E23.0696
G1 X138.056 Y110.79 E23.09978
G1 X138.381 Y110.476 E23.13585
G1 X138.744 Y110.233 E23.17072
G1 X139.269 Y109.995 E23.21673
G1 X139.815 Y109.704 E23.26612
G1 X140.371 Y109.314 E23.32033
G1 X140.903 Y108.826 E23.37796
G1 X141.353 Y108.288 E23.43395
G1 X141.699 Y107.754 E23.48474
G1 X142.012 Y107.103 E23.5424
G1 X142.214 Y106.5 E23.59316
G1 X142.358 Y105.771 E23.65248
G1 X142.4 Y105.131 E23.70368
G1 X142.4 Y45.464 E28.46655
G1 X142.36 Y44.844 E28.51615
G1 X142.223 Y44.128 E28.57434
G1 X142.023 Y43.518 E28.62558
G1 X141.737 Y42.907 E28.67943
G1 X141.369 Y42.327 E28.73426
G1 X140.909 Y41.774 E28.79168
G1 X140.414 Y41.315 E28.84557
G1 X139.842 Y40.908 E28.90161
G1 X139.287 Y40.609 E28.95193
G1 X138.597 Y40.341 E29.01102
G1 X137.965 Y40.186 E29.06296
G1 X137.031 Y40.101 E29.13782
G1 X97.969 Y40.1 E32.25592
G1 X97.3 Y40.145 E32.30945
G1 X96.628 Y40.277 E32.36411
G1 X96.018 Y40.477 E32.41536
G1 X95.407 Y40.763 E32.46921
G1 X94.786 Y41.161 E32.52809
G1 X94.274 Y41.592 E32.58151
G1 F2700 E27.58151
G1 F300 Z0.44
G0 F15000 X77.617 Y26.48 Z0.44
G1 F300 Z0.24
G1 F2700 E32.58151
G1 F2250 X77.826 Y26.09 E32.61683
G1 X78.056 Y25.79 E32.647
G1 X78.381 Y25.476 E32.68308
G1 X78.714 Y25.254 E32.71502
G1 X79.122 Y25.061 E32.75105
G1 X79.499 Y24.959 E32.78223
G1 X79.951 Y24.9 E32.81861
G1 X154.869 Y24.9 E38.79889
G1 X155.237 Y24.922 E38.82832
G1 X155.6 Y24.981 E38.85768
G1 X155.989 Y25.108 E38.89034
G1 X156.409 Y25.325 E38.92808
G1 X156.738 Y25.578 E38.96121
G1 X157.024 Y25.881 E38.99447
G1 X157.246 Y26.211 E39.02622
G1 X157.441 Y26.624 E39.06267
G1 X157.54 Y26.995 E39.09332
G1 X157.6 Y27.448 E39.1298
G1 X157.6 Y207.36 E53.49115
G1 X157.578 Y207.738 E53.52138
G1 X157.519 Y208.1 E53.55066
G1 X157.385 Y208.515 E53.58547
G1 X157.175 Y208.91 E53.62118
G1 X156.928 Y209.232 E53.65357
G1 X156.643 Y209.501 E53.68486
G1 X156.262 Y209.763 E53.72177
G1 X155.91 Y209.924 E53.75266
G1 X155.499 Y210.042 E53.7868
G1 X155.049 Y210.099 E53.823
G1 X80.131 Y210.1 E59.80328
G1 X79.763 Y210.078 E59.83271
G1 X79.4 Y210.019 E59.86207
G1 X78.982 Y209.884 E59.89713
G1 X78.589 Y209.674 E59.9327
G1 X78.266 Y209.426 E59.96521
G1 X77.997 Y209.141 E59.99649
G1 X77.749 Y208.778 E60.03158
G1 X77.561 Y208.38 E60.06672
G1 X77.46 Y208.004 E60.0978
G1 X77.401 Y207.55 E60.13434
G1 X77.385 Y27.597 E74.49897
G1 X77.4 Y27.584 E74.50055
G1 X77.419 Y27.273 E74.52542
G1 X77.489 Y26.86 E74.55886
G1 X77.617 Y26.48 E74.59087
G0 F15000 X78.244 Y26.201
G1 F2250 X93.683 Y41.64 E76.33376
G1 F2700 E71.33376
G1 F300 Z0.44
G0 F15000 X94.908 Y40.602 Z0.44
G1 F300 Z0.24
G1 F2700 E76.33376
G1 F2250 X79.649 Y25.343 E78.05633
G1 F2700 E73.05633
G1 F300 Z0.44
G0 F15000 X81.868 Y25.3 Z0.44
G1 F300 Z0.24
G1 F2700 E78.05633
G1 F2250 X96.474 Y39.906 E79.70518
G1 F2700 E74.70518
G1 F300 Z0.44
G0 F15000 X98.532 Y39.701 Z0.44
G1 F300 Z0.24
G1 F2700 E79.70518
G1 F2250 X84.131 Y25.3 E81.33089
G1 F2700 E76.33089
G1 F300 Z0.44
G0 F15000 X86.394 Y25.3 Z0.44
G1 F300 Z0.24
G1 F2700 E81.33089
G1 F2250 X100.795 Y39.701 E82.9566
G1 F2700 E77.9566
G1 F300 Z0.44
G0 F15000 X103.057 Y39.701 Z0.44
G1 F300 Z0.24
G1 F2700 E82.9566
G1 F2250 X88.657 Y25.3 E84.58225
G1 F2700 E79.58225
G1 F300 Z0.44
G0 F15000 X90.919 Y25.3 Z0.44
G1 F300 Z0.24
G1 F2700 E84.58225
G1 F2250 X105.32 Y39.701 E86.20796
G1 F2700 E81.20796
G1 F300 Z0.44
G0 F15000 X107.583 Y39.701 Z0.44
G1 F300 Z0.24
G1 F2700 E86.20796
G1 F2250 X93.182 Y25.3 E87.83367
G1 F2700 E82.83367
G1 F300 Z0.44
G0 F15000 X95.445 Y25.3 Z0.44
G1 F300 Z0.24
G1 F2700 E87.83367
G1 F2250 X109.846 Y39.701 E89.45938
G1 F2700 E84.45938
G1 F300 Z0.44
G0 F15000 X112.109 Y39.701 Z0.44
G1 F300 Z0.24
G1 F2700 E89.45938
G1 F2250 X97.708 Y25.3 E91.08509
G1 F2700 E86.08509
G1 F300 Z0.44
G0 F15000 X99.97 Y25.3 Z0.44
G1 F300 Z0.24
G1 F2700 E91.08509
G1 F2250 X114.372 Y39.701 E92.71085
G1 F2700 E87.71085
G1 F300 Z0.44
G0 F15000 X116.635 Y39.701 Z0.44
G1 F300 Z0.24
G1 F2700 E92.71085
G1 F2250 X102.233 Y25.3 E94.33662
G1 F2700 E89.33662
G1 F300 Z0.44
G0 F15000 X104.496 Y25.3 Z0.44
G1 F300 Z0.24
G1 F2700 E94.33662
G1 F2250 X118.897 Y39.701 E95.96233
G1 F2700 E90.96233
G1 F300 Z0.44
G0 F15000 X121.16 Y39.701 Z0.44
G1 F300 Z0.24
G1 F2700 E95.96233
G1 F2250 X106.758 Y25.3 E97.58809
G1 F2700 E92.58809
G1 F300 Z0.44
G0 F15000 X109.021 Y25.3 Z0.44
G1 F300 Z0.24
G1 F2700 E97.58809
G1 F2250 X123.423 Y39.701 E99.21386
G1 F2700 E94.21386
G1 F300 Z0.44
G0 F15000 X125.686 Y39.702 Z0.44
G1 F300 Z0.24
G1 F2700 E99.21386
G1 F2250 X111.284 Y25.3 E100.83968
G1 F2700 E95.83968
G1 F300 Z0.44
G0 F15000 X113.547 Y25.3 Z0.44
G1 F300 Z0.24
G1 F2700 E100.83968
G1 F2250 X127.949 Y39.702 E102.4655
G1 F2700 E97.4655
G1 F300 Z0.44
G0 F15000 X130.212 Y39.702 Z0.44
G1 F300 Z0.24
G1 F2700 E102.4655
G1 F2250 X115.809 Y25.3 E104.09138
G1 F2700 E99.09138
G1 F300 Z0.44
G0 F15000 X118.072 Y25.3 Z0.44
G1 F300 Z0.24
G1 F2700 E104.09138
G1 F2250 X132.475 Y39.702 E105.71726
G1 F2700 E100.71726
G1 F300 Z0.44
G0 F15000 X134.737 Y39.702 Z0.44
G1 F300 Z0.24
G1 F2700 E105.71726
G1 F2250 X120.335 Y25.3 E107.34308
G1 F2700 E102.34308
G1 F300 Z0.44
G0 F15000 X122.598 Y25.3 Z0.44
G1 F300 Z0.24
G1 F2700 E107.34308
G1 F2250 X137 Y39.702 E108.9689
G1 F2700 E103.9689
G1 F300 Z0.44
G0 F15000 X140.304 Y40.743 Z0.44
G1 F300 Z0.24
G1 F2700 E108.9689
G1 F2250 X124.86 Y25.3 E110.7123
G1 F2700 E105.7123
G1 F300 Z0.44
G0 F15000 X127.123 Y25.3 Z0.44
G1 F300 Z0.24
G1 F2700 E110.7123
G1 F2250 X157.2 Y55.377 E114.10765
G1 F2700 E109.10765
G1 F300 Z0.44
G0 F15000 X157.2 Y57.639 Z0.44
G1 F300 Z0.24
G1 F2700 E114.10765
G1 F2250 X141.763 Y42.202 E115.85031
G1 F2700 E110.85031
G1 F300 Z0.44
G0 F15000 X142.798 Y45.5 Z0.44
G1 F300 Z0.24
G1 F2700 E115.85031
G1 F2250 X157.2 Y59.902 E117.47614
G1 F2700 E112.47614
G1 F300 Z0.44
G0 F15000 X157.2 Y62.165 Z0.44
G1 F300 Z0.24
G1 F2700 E117.47614
G1 F2250 X142.798 Y47.762 E119.10201
G1 F2700 E114.10201
G1 F300 Z0.44
G0 F15000 X142.798 Y50.025 Z0.44
G1 F300 Z0.24
G1 F2700 E119.10201
G1 F2250 X157.2 Y64.428 E120.72789
G1 F2700 E115.72789
G1 F300 Z0.44
G0 F15000 X157.2 Y66.69 Z0.44
G1 F300 Z0.24
G1 F2700 E120.72789
G1 F2250 X142.798 Y52.288 E122.35372
G1 F2700 E117.35372
G1 F300 Z0.44
G0 F15000 X142.798 Y54.551 Z0.44
G1 F300 Z0.24
G1 F2700 E122.35372
G1 F2250 X157.2 Y68.953 E123.97954
G1 F2700 E118.97954
G1 F300 Z0.44
G0 F15000 X157.2 Y71.216 Z0.44
G1 F300 Z0.24
G1 F2700 E123.97954
G1 F2250 X142.798 Y56.813 E125.60542
G1 F2700 E120.60542
G1 F300 Z0.44
G0 F15000 X142.798 Y59.076 Z0.44
G1 F300 Z0.24
G1 F2700 E125.60542
G1 F2250 X157.2 Y73.479 E127.2313
G1 F2700 E122.2313
G1 F300 Z0.44
G0 F15000 X157.2 Y75.741 Z0.44
G1 F300 Z0.24
G1 F2700 E127.2313
G1 F2250 X142.798 Y61.339 E128.85712
G1 F2700 E123.85712
G1 F300 Z0.44
G0 F15000 X142.798 Y63.602 Z0.44
G1 F300 Z0.24
G1 F2700 E128.85712
G1 F2250 X157.2 Y78.004 E130.48294
G1 F2700 E125.48294
G1 F300 Z0.44
G0 F15000 X157.2 Y80.267 Z0.44
G1 F300 Z0.24
G1 F2700 E130.48294
G1 F2250 X142.798 Y65.864 E132.10882
G1 F2700 E127.10882
G1 F300 Z0.44
G0 F15000 X142.798 Y68.127 Z0.44
G1 F300 Z0.24
G1 F2700 E132.10882
G1 F2250 X157.2 Y82.529 E133.73464
G1 F2700 E128.73464
G1 F300 Z0.44
G0 F15000 X157.2 Y84.792 Z0.44
G1 F300 Z0.24
G1 F2700 E133.73464
G1 F2250 X142.798 Y70.39 E135.36046
G1 F2700 E130.36046
G1 F300 Z0.44
G0 F15000 X142.798 Y72.653 Z0.44
G1 F300 Z0.24
G1 F2700 E135.36046
G1 F2250 X157.2 Y87.055 E136.98629
G1 F2700 E131.98629
G1 F300 Z0.44
G0 F15000 X157.2 Y89.318 Z0.44
G1 F300 Z0.24
G1 F2700 E136.98629
G1 F2250 X142.798 Y74.915 E138.61216
G1 F2700 E133.61216
G1 F300 Z0.44
G0 F15000 X142.798 Y77.178 Z0.44
G1 F300 Z0.24
G1 F2700 E138.61216
G1 F2250 X157.2 Y91.58 E140.23799
G1 F2700 E135.23799
G1 F300 Z0.44
G0 F15000 X157.2 Y93.843 Z0.44
G1 F300 Z0.24
G1 F2700 E140.23799
G1 F2250 X142.798 Y79.441 E141.86381
G1 F2700 E136.86381
G1 F300 Z0.44
G0 F15000 X142.798 Y81.704 Z0.44
G1 F300 Z0.24
G1 F2700 E141.86381
G1 F2250 X157.2 Y96.106 E143.48963
G1 F2700 E138.48963
G1 F300 Z0.44
G0 F15000 X157.2 Y98.369 Z0.44
G1 F300 Z0.24
G1 F2700 E143.48963
G1 F2250 X142.798 Y83.966 E145.11551
G1 F2700 E140.11551
G1 F300 Z0.44
G0 F15000 X142.798 Y86.229 Z0.44
G1 F300 Z0.24
G1 F2700 E145.11551
G1 F2250 X157.2 Y100.631 E146.74133
G1 F2700 E141.74133
G1 F300 Z0.44
G0 F15000 X157.2 Y102.894 Z0.44
G1 F300 Z0.24
G1 F2700 E146.74133
G1 F2250 X142.798 Y88.492 E148.36715
G1 F2700 E143.36715
G1 F300 Z0.44
G0 F15000 X142.798 Y90.755 Z0.44
G1 F300 Z0.24
G1 F2700 E148.36715
G1 F2250 X157.2 Y105.157 E149.99298
G1 F2700 E144.99298
G1 F300 Z0.44
G0 F15000 X157.2 Y107.42 Z0.44
G1 F300 Z0.24
G1 F2700 E149.99298
G1 F2250 X142.798 Y93.017 E151.61885
G1 F2700 E146.61885
G1 F300 Z0.44
G0 F15000 X142.798 Y95.28 Z0.44
G1 F300 Z0.24
G1 F2700 E151.61885
G1 F2250 X157.2 Y109.682 E153.24468
G1 F2700 E148.24468
G1 F300 Z0.44
G0 F15000 X157.2 Y111.945 Z0.44
G1 F300 Z0.24
G1 F2700 E153.24468
G1 F2250 X142.798 Y97.543 E154.8705
G1 F2700 E149.8705
G1 F300 Z0.44
G0 F15000 X142.798 Y99.806 Z0.44
G1 F300 Z0.24
G1 F2700 E154.8705
G1 F2250 X157.2 Y114.208 E156.49632
G1 F2700 E151.49632
G1 F300 Z0.44
G0 F15000 X157.2 Y116.471 Z0.44
G1 F300 Z0.24
G1 F2700 E156.49632
G1 F2250 X142.798 Y102.068 E158.1222
G1 F2700 E153.1222
G1 F300 Z0.44
G0 F15000 X142.798 Y104.331 Z0.44
G1 F300 Z0.24
G1 F2700 E158.1222
G1 F2250 X157.2 Y118.733 E159.74802
G1 F2700 E154.74802
G1 F300 Z0.44
G0 F15000 X157.2 Y120.996 Z0.44
G1 F300 Z0.24
G1 F2700 E159.74802
G1 F2250 X142.636 Y106.432 E161.39213
G1 F2700 E156.39213
G1 F300 Z0.44
G0 F15000 X141.986 Y108.045 Z0.44
G1 F300 Z0.24
G1 F2700 E161.39213
G1 F2250 X157.2 Y123.259 E163.10962
G1 F2700 E158.10962
G1 F300 Z0.44
G0 F15000 X157.2 Y125.522 Z0.44
G1 F300 Z0.24
G1 F2700 E163.10962
G1 F2250 X140.978 Y109.3 E164.9409
G1 F2700 E159.9409
G1 F300 Z0.44
G0 F15000 X139.657 Y110.241 Z0.44
G1 F300 Z0.24
G1 F2700 E164.9409
G1 F2250 X157.2 Y127.784 E166.9213
G1 F2700 E161.9213
G1 F300 Z0.44
G0 F15000 X157.2 Y130.047 Z0.44
G1 F300 Z0.24
G1 F2700 E166.9213
G1 F2250 X138.29 Y111.138 E169.05597
G1 F2700 E164.05597
G1 F300 Z0.44
G0 F15000 X137.785 Y112.895 Z0.44
G1 F300 Z0.24
G1 F2700 E169.05597
G1 F2250 X157.2 Y132.31 E171.24771
G1 F2700 E166.24771
G1 F300 Z0.44
G0 F15000 X157.2 Y134.573 Z0.44
G1 F300 Z0.24
G1 F2700 E171.24771
G1 F2250 X137.788 Y115.161 E173.4391
G1 F2700 E168.4391
G1 F300 Z0.44
G0 F15000 X137.791 Y117.427 Z0.44
G1 F300 Z0.24
G1 F2700 E173.4391
G1 F2250 X157.2 Y136.835 E175.6301
G1 F2700 E170.6301
G1 F300 Z0.44
G0 F15000 X157.2 Y139.098 Z0.44
G1 F300 Z0.24
G1 F2700 E175.6301
G1 F2250 X137.795 Y119.693 E177.8207
G1 F2700 E172.8207
G1 F300 Z0.44
G0 F15000 X137.798 Y121.958 Z0.44
G1 F300 Z0.24
G1 F2700 E177.8207
G1 F2250 X157.2 Y141.361 E180.01103
G1 F2700 E175.01103
G1 F300 Z0.44
G0 F15000 X157.2 Y143.623 Z0.44
G1 F300 Z0.24
G1 F2700 E180.01103
G1 F2250 X142.755 Y129.179 E181.64165
G1 F2700 E176.64165
G1 F300 Z0.44
G0 F15000 X142.798 Y131.484 Z0.44
G1 F300 Z0.24
G1 F2700 E181.64165
G1 F2250 X157.2 Y145.886 E183.26747
G1 F2700 E178.26747
G1 F300 Z0.44
G0 F15000 X157.2 Y148.149 Z0.44
G1 F300 Z0.24
G1 F2700 E183.26747
G1 F2250 X142.798 Y133.747 E184.89329
G1 F2700 E179.89329
G1 F300 Z0.44
G0 F15000 X142.798 Y136.009 Z0.44
G1 F300 Z0.24
G1 F2700 E184.89329
G1 F2250 X157.2 Y150.412 E186.51917
G1 F2700 E181.51917
G1 F300 Z0.44
G0 F15000 X157.2 Y152.674 Z0.44
G1 F300 Z0.24
G1 F2700 E186.51917
G1 F2250 X142.798 Y138.272 E188.14499
G1 F2700 E183.14499
G1 F300 Z0.44
G0 F15000 X142.798 Y140.535 Z0.44
G1 F300 Z0.24
G1 F2700 E188.14499
G1 F2250 X157.2 Y154.937 E189.77081
G1 F2700 E184.77081
G1 F300 Z0.44
G0 F15000 X157.2 Y157.2 Z0.44
G1 F300 Z0.24
G1 F2700 E189.77081
G1 F2250 X142.798 Y142.798 E191.39663
G1 F2700 E186.39663
G1 F300 Z0.44
G0 F15000 X142.798 Y145.06 Z0.44
G1 F300 Z0.24
G1 F2700 E191.39663
G1 F2250 X157.2 Y159.463 E193.02251
G1 F2700 E188.02251
G1 F300 Z0.44
G0 F15000 X157.2 Y161.725 Z0.44
G1 F300 Z0.24
G1 F2700 E193.02251
G1 F2250 X142.798 Y147.323 E194.64834
G1 F2700 E189.64834
G1 F300 Z0.44
G0 F15000 X142.798 Y149.586 Z0.44
G1 F300 Z0.24
G1 F2700 E194.64834
G1 F2250 X157.2 Y163.988 E196.27416
G1 F2700 E191.27416
G1 F300 Z0.44
G0 F15000 X157.2 Y166.251 Z0.44
G1 F300 Z0.24
G1 F2700 E196.27416
G1 F2250 X142.798 Y151.849 E197.89998
G1 F2700 E192.89998
G1 F300 Z0.44
G0 F15000 X142.798 Y154.111 Z0.44
G1 F300 Z0.24
G1 F2700 E197.89998
G1 F2250 X157.2 Y168.514 E199.52586
G1 F2700 E194.52586
G1 F300 Z0.44
G0 F15000 X157.2 Y170.776 Z0.44
G1 F300 Z0.24
G1 F2700 E199.52586
G1 F2250 X142.798 Y156.374 E201.15168
G1 F2700 E196.15168
G1 F300 Z0.44
G0 F15000 X142.798 Y158.637 Z0.44
