;FLAVOR:Marlin
;TIME:690
;Filament used: 1.19735m
;Layer height: 0.4
;MINX:80.9
;MINY:80.9
;MINZ:0.24
;MAXX:154.1
;MAXY:154.1
;MAXZ:3.39
;Generated with Cura_SteamEngine 5.3.1
M140 S60
M105
M190 S60
M104 S230
M105
M109 S230
M82 ;absolute extrusion mode
; Ender 3 Custom Start G-code
G92 E0 ; Reset Extruder
G28 ; Home all axes
G1 Z2.0 F3000 ; Move Z Axis up little to prevent scratching of Heat Bed
G1 X0.1 Y20 Z0.3 F5000.0 ; Move to start position
G1 X0.1 Y200.0 Z0.3 F1500.0 E15 ; Draw the first line
G1 X0.4 Y200.0 Z0.3 F5000.0 ; Move to side a little
G1 X0.4 Y20 Z0.3 F1500.0 E30 ; Draw the second line
G92 E0 ; Reset Extruder
G1 Z2.0 F3000 ; Move Z Axis up little to prevent scratching of Heat Bed
G1 X5 Y20 Z0.3 F5000.0 ; Move over to prevent blob squish
G92 E0
G92 E0
G1 F2700 E-5
;LAYER_COUNT:6
;LAYER:-5
M107
G0 F15000 X88.27 Y88.096 Z0.24
;TYPE:SUPPORT-INTERFACE
G1 F2700 E0
G1 F2250 X87.799 Y88.606 E0.05542
G1 X87.435 Y89.114 E0.1053
G1 X87.109 Y89.713 E0.15974
G1 X86.841 Y90.403 E0.21883
G1 X86.682 Y91.069 E0.27348
G1 X86.601 Y91.969 E0.34562
G1 X86.6 Y143.036 E4.422
G1 X86.645 Y143.7 E4.47513
G1 X86.777 Y144.372 E4.5298
G1 X86.977 Y144.982 E4.58104
G1 X87.263 Y145.593 E4.63489
G1 X87.661 Y146.214 E4.69377
G1 X88.096 Y146.73 E4.74764
G1 X88.606 Y147.201 E4.80306
G1 X89.114 Y147.565 E4.85294
G1 X89.713 Y147.891 E4.90738
G1 X90.403 Y148.159 E4.96647
G1 X91.069 Y148.318 E5.02113
G1 X91.969 Y148.399 E5.09326
G1 X143.031 Y148.4 E9.16925
G1 X143.7 Y148.355 E9.22277
G1 X144.372 Y148.223 E9.27744
G1 X144.982 Y148.023 E9.32868
G1 X145.593 Y147.737 E9.38253
G1 X146.214 Y147.339 E9.44141
G1 X146.73 Y146.904 E9.49528
G1 X147.202 Y146.392 E9.55087
G1 X147.592 Y145.842 E9.60469
G1 X147.891 Y145.287 E9.65501
G1 X148.159 Y144.597 E9.7141
G1 X148.314 Y143.965 E9.76605
G1 X148.399 Y143.027 E9.84123
G1 X148.4 Y91.964 E13.9173
G1 X148.36 Y91.344 E13.96689
G1 X148.223 Y90.628 E14.02508
G1 X148.004 Y89.971 E14.08036
G1 X147.713 Y89.363 E14.13417
G1 X147.339 Y88.786 E14.18906
G1 X146.904 Y88.27 E14.24293
G1 X146.394 Y87.799 E14.29835
G1 X145.886 Y87.435 E14.34823
G1 X145.287 Y87.109 E14.40267
G1 X144.597 Y86.841 E14.46176
G1 X143.931 Y86.682 E14.51641
G1 X143.031 Y86.601 E14.58855
G1 X91.969 Y86.6 E18.66454
G1 X91.3 Y86.645 E18.71806
G1 X90.628 Y86.777 E18.77273
G1 X90.018 Y86.977 E18.82397
G1 X89.407 Y87.263 E18.87782
G1 X88.786 Y87.661 E18.9367
G1 X88.27 Y88.096 E18.99057
G1 F2700 E13.99057
G1 F300 Z0.44
G0 F15000 X81.43 Y81.325 Z0.44
G1 F300 Z0.24
G1 F2700 E18.99057
G1 F2250 X81.696 Y81.128 E19.01699
G1 X82.008 Y80.984 E19.04442
G1 X82.477 Y80.9 E19.08246
G1 X152.349 Y80.9 E24.65994
G1 X152.804 Y80.929 E24.69634
G1 X153.175 Y81.059 E24.72772
G1 X153.444 Y81.218 E24.75266
G1 X153.713 Y81.463 E24.7817
G1 X153.895 Y81.728 E24.80736
G1 X154.01 Y81.993 E24.83042
G1 X154.1 Y82.475 E24.86956
G1 X154.1 Y152.349 E30.44721
G1 X154.066 Y152.862 E30.48825
G1 X153.942 Y153.173 E30.51497
G1 X153.783 Y153.441 E30.53985
G1 X153.567 Y153.679 E30.56551
G1 X153.306 Y153.87 E30.59132
G1 X152.992 Y154.016 E30.61896
G1 X152.522 Y154.1 E30.65708
G1 X82.651 Y154.1 E36.23448
G1 X82.196 Y154.071 E36.27088
G1 X81.828 Y153.942 E36.302
G1 X81.553 Y153.779 E36.32752
G1 X81.291 Y153.541 E36.35578
G1 X81.106 Y153.276 E36.38157
G1 X80.983 Y152.989 E36.4065
G1 X80.901 Y152.523 E36.44427
G1 X80.9 Y82.646 E42.02215
G1 X80.929 Y82.196 E42.05815
G1 X81.052 Y81.841 E42.08814
G1 X81.214 Y81.564 E42.11375
G1 X81.43 Y81.325 E42.13947
G0 F15000 X81.676 Y81.676
G1 F2250 X87.902 Y87.902 E42.84231
G1 F2700 E37.84231
G1 F300 Z0.44
G0 F15000 X89.187 Y86.924 Z0.44
G1 F300 Z0.24
G1 F2700 E42.84231
G1 F2250 X83.562 Y81.299 E43.47731
G1 F2700 E38.47731
G1 F300 Z0.44
G0 F15000 X85.825 Y81.299 Z0.44
G1 F300 Z0.24
G1 F2700 E43.47731
G1 F2250 X90.849 Y86.324 E44.04452
G1 F2700 E39.04452
G1 F300 Z0.44
G0 F15000 X92.988 Y86.2 Z0.44
G1 F300 Z0.24
G1 F2700 E44.04452
G1 F2250 X88.087 Y81.299 E44.59779
G1 F2700 E39.59779
G1 F300 Z0.44
G0 F15000 X90.35 Y81.299 Z0.44
G1 F300 Z0.24
G1 F2700 E44.59779
G1 F2250 X95.251 Y86.2 E45.15106
G1 F2700 E40.15106
G1 F300 Z0.44
G0 F15000 X97.514 Y86.2 Z0.44
G1 F300 Z0.24
G1 F2700 E45.15106
G1 F2250 X92.613 Y81.299 E45.70432
G1 F2700 E40.70432
G1 F300 Z0.44
G0 F15000 X94.876 Y81.299 Z0.44
G1 F300 Z0.24
G1 F2700 E45.70432
G1 F2250 X99.777 Y86.2 E46.25759
G1 F2700 E41.25759
G1 F300 Z0.44
G0 F15000 X102.039 Y86.2 Z0.44
G1 F300 Z0.24
G1 F2700 E46.25759
G1 F2250 X97.138 Y81.299 E46.81086
G1 F2700 E41.81086
G1 F300 Z0.44
G0 F15000 X99.401 Y81.299 Z0.44
G1 F300 Z0.24
G1 F2700 E46.81086
G1 F2250 X104.302 Y86.2 E47.36412
G1 F2700 E42.36412
G1 F300 Z0.44
G0 F15000 X106.565 Y86.201 Z0.44
G1 F300 Z0.24
G1 F2700 E47.36412
G1 F2250 X101.664 Y81.299 E47.91745
G1 F2700 E42.91745
G1 F300 Z0.44
G0 F15000 X103.927 Y81.299 Z0.44
G1 F300 Z0.24
G1 F2700 E47.91745
G1 F2250 X108.828 Y86.201 E48.47077
G1 F2700 E43.47077
G1 F300 Z0.44
G0 F15000 X111.091 Y86.201 Z0.44
G1 F300 Z0.24
G1 F2700 E48.47077
G1 F2250 X106.189 Y81.299 E49.02415
G1 F2700 E44.02415
G1 F300 Z0.44
G0 F15000 X108.452 Y81.299 Z0.44
G1 F300 Z0.24
G1 F2700 E49.02415
G1 F2250 X113.354 Y86.201 E49.57753
G1 F2700 E44.57753
G1 F300 Z0.44
G0 F15000 X115.616 Y86.201 Z0.44
G1 F300 Z0.24
G1 F2700 E49.57753
G1 F2250 X110.715 Y81.299 E50.13086
G1 F2700 E45.13086
G1 F300 Z0.44
G0 F15000 X112.977 Y81.299 Z0.44
G1 F300 Z0.24
G1 F2700 E50.13086
G1 F2250 X117.88 Y86.201 E50.68429
G1 F2700 E45.68429
G1 F300 Z0.44
G0 F15000 X120.143 Y86.201 Z0.44
G1 F300 Z0.24
G1 F2700 E50.68429
G1 F2250 X115.24 Y81.299 E51.23773
G1 F2700 E46.23773
G1 F300 Z0.44
G0 F15000 X117.503 Y81.299 Z0.44
G1 F300 Z0.24
G1 F2700 E51.23773
G1 F2250 X122.405 Y86.201 E51.79111
G1 F2700 E46.79111
G1 F300 Z0.44
G0 F15000 X124.668 Y86.201 Z0.44
G1 F300 Z0.24
G1 F2700 E51.79111
G1 F2250 X119.766 Y81.299 E52.34449
G1 F2700 E47.34449
G1 F300 Z0.44
G0 F15000 X122.028 Y81.299 Z0.44
G1 F300 Z0.24
G1 F2700 E52.34449
G1 F2250 X126.931 Y86.201 E52.89793
G1 F2700 E47.89793
G1 F300 Z0.44
G0 F15000 X129.194 Y86.201 Z0.44
G1 F300 Z0.24
G1 F2700 E52.89793
G1 F2250 X124.291 Y81.299 E53.45136
G1 F2700 E48.45136
G1 F300 Z0.44
G0 F15000 X126.554 Y81.299 Z0.44
G1 F300 Z0.24
G1 F2700 E53.45136
G1 F2250 X131.457 Y86.202 E54.00486
G1 F2700 E49.00486
G1 F300 Z0.44
G0 F15000 X133.72 Y86.202 Z0.44
G1 F300 Z0.24
G1 F2700 E54.00486
G1 F2250 X128.817 Y81.299 E54.55835
G1 F2700 E49.55835
G1 F300 Z0.44
G0 F15000 X131.079 Y81.299 Z0.44
G1 F300 Z0.24
G1 F2700 E54.55835
G1 F2250 X135.982 Y86.202 E55.11184
G1 F2700 E50.11184
G1 F300 Z0.44
G0 F15000 X138.245 Y86.202 Z0.44
G1 F300 Z0.24
G1 F2700 E55.11184
G1 F2250 X133.342 Y81.299 E55.66533
G1 F2700 E50.66533
G1 F300 Z0.44
G0 F15000 X135.605 Y81.299 Z0.44
G1 F300 Z0.24
G1 F2700 E55.66533
G1 F2250 X140.508 Y86.202 E56.21883
G1 F2700 E51.21883
G1 F300 Z0.44
G0 F15000 X142.771 Y86.202 Z0.44
G1 F300 Z0.24
G1 F2700 E56.21883
G1 F2250 X137.868 Y81.299 E56.77232
G1 F2700 E51.77232
G1 F300 Z0.44
G0 F15000 X140.13 Y81.299 Z0.44
G1 F300 Z0.24
G1 F2700 E56.77232
G1 F2250 X145.718 Y86.887 E57.40314
G1 F2700 E52.40314
G1 F300 Z0.44
G0 F15000 X148.125 Y89.294 Z0.44
G1 F300 Z0.24
G1 F2700 E57.40314
G1 F2250 X153.699 Y94.868 E58.03238
G1 F2700 E53.03238
G1 F300 Z0.44
G0 F15000 X153.699 Y97.131 Z0.44
G1 F300 Z0.24
G1 F2700 E58.03238
G1 F2250 X148.797 Y92.228 E58.58582
G1 F2700 E53.58582
G1 F300 Z0.44
G0 F15000 X148.797 Y94.491 Z0.44
G1 F300 Z0.24
G1 F2700 E58.58582
G1 F2250 X153.699 Y99.393 E59.1392
G1 F2700 E54.1392
G1 F300 Z0.44
G0 F15000 X153.699 Y101.656 Z0.44
G1 F300 Z0.24
G1 F2700 E59.1392
G1 F2250 X148.797 Y96.754 E59.69258
G1 F2700 E54.69258
G1 F300 Z0.44
G0 F15000 X148.797 Y99.016 Z0.44
G1 F300 Z0.24
G1 F2700 E59.69258
G1 F2250 X153.699 Y103.919 E60.24602
G1 F2700 E55.24602
G1 F300 Z0.44
G0 F15000 X153.699 Y106.181 Z0.44
G1 F300 Z0.24
G1 F2700 E60.24602
G1 F2250 X148.797 Y101.279 E60.7994
G1 F2700 E55.7994
G1 F300 Z0.44
G0 F15000 X148.797 Y103.542 Z0.44
G1 F300 Z0.24
G1 F2700 E60.7994
G1 F2250 X153.699 Y108.444 E61.35278
G1 F2700 E56.35278
G1 F300 Z0.44
G0 F15000 X153.699 Y110.707 Z0.44
G1 F300 Z0.24
G1 F2700 E61.35278
G1 F2250 X148.797 Y105.805 E61.90616
G1 F2700 E56.90616
G1 F300 Z0.44
G0 F15000 X148.797 Y108.067 Z0.44
G1 F300 Z0.24
G1 F2700 E61.90616
G1 F2250 X153.699 Y112.97 E62.45959
G1 F2700 E57.45959
G1 F300 Z0.44
G0 F15000 X153.699 Y115.232 Z0.44
G1 F300 Z0.24
G1 F2700 E62.45959
G1 F2250 X148.797 Y110.33 E63.01297
G1 F2700 E58.01297
G1 F300 Z0.44
G0 F15000 X148.797 Y112.593 Z0.44
G1 F300 Z0.24
G1 F2700 E63.01297
G1 F2250 X153.699 Y117.495 E63.56635
G1 F2700 E58.56635
G1 F300 Z0.44
G0 F15000 X153.699 Y119.758 Z0.44
G1 F300 Z0.24
G1 F2700 E63.56635
G1 F2250 X148.797 Y114.856 E64.11973
G1 F2700 E59.11973
G1 F300 Z0.44
G0 F15000 X148.797 Y117.118 Z0.44
G1 F300 Z0.24
G1 F2700 E64.11973
G1 F2250 X153.699 Y122.021 E64.67317
G1 F2700 E59.67317
G1 F300 Z0.44
G0 F15000 X153.699 Y124.283 Z0.44
G1 F300 Z0.24
G1 F2700 E64.67317
G1 F2250 X148.797 Y119.381 E65.22655
G1 F2700 E60.22655
G1 F300 Z0.44
G0 F15000 X148.797 Y121.644 Z0.44
G1 F300 Z0.24
G1 F2700 E65.22655
G1 F2250 X153.699 Y126.546 E65.77993
G1 F2700 E60.77993
G1 F300 Z0.44
G0 F15000 X153.699 Y128.809 Z0.44
G1 F300 Z0.24
G1 F2700 E65.77993
G1 F2250 X148.797 Y123.907 E66.33331
G1 F2700 E61.33331
G1 F300 Z0.44
G0 F15000 X148.797 Y126.169 Z0.44
G1 F300 Z0.24
G1 F2700 E66.33331
G1 F2250 X153.699 Y131.072 E66.88675
G1 F2700 E61.88675
G1 F300 Z0.44
G0 F15000 X153.699 Y133.334 Z0.44
G1 F300 Z0.24
G1 F2700 E66.88675
G1 F2250 X148.797 Y128.432 E67.44013
G1 F2700 E62.44013
G1 F300 Z0.44
G0 F15000 X148.797 Y130.695 Z0.44
G1 F300 Z0.24
G1 F2700 E67.44013
G1 F2250 X153.699 Y135.597 E67.99351
G1 F2700 E62.99351
G1 F300 Z0.44
G0 F15000 X153.699 Y137.86 Z0.44
G1 F300 Z0.24
G1 F2700 E67.99351
G1 F2250 X148.797 Y132.957 E68.54694
G1 F2700 E63.54694
G1 F300 Z0.44
G0 F15000 X148.797 Y135.22 Z0.44
G1 F300 Z0.24
G1 F2700 E68.54694
G1 F2250 X153.699 Y140.123 E69.10038
G1 F2700 E64.10038
G1 F300 Z0.44
G0 F15000 X153.699 Y142.385 Z0.44
G1 F300 Z0.24
G1 F2700 E69.10038
G1 F2250 X148.797 Y137.483 E69.65376
G1 F2700 E64.65376
G1 F300 Z0.44
G0 F15000 X148.797 Y139.746 Z0.44
G1 F300 Z0.24
G1 F2700 E69.65376
G1 F2250 X153.699 Y144.648 E70.20714
G1 F2700 E65.20714
G1 F300 Z0.44
G0 F15000 X153.699 Y146.911 Z0.44
G1 F300 Z0.24
G1 F2700 E70.20714
G1 F2250 X148.797 Y142.008 E70.76058
G1 F2700 E65.76058
G1 F300 Z0.44
G0 F15000 X148.677 Y144.152 Z0.44
G1 F300 Z0.24
G1 F2700 E70.76058
G1 F2250 X153.699 Y149.174 E71.3275
G1 F2700 E66.3275
G1 F300 Z0.44
G0 F15000 X153.699 Y151.436 Z0.44
G1 F300 Z0.24
G1 F2700 E71.3275
G1 F2250 X148.066 Y145.803 E71.96341
G1 F2700 E66.96341
G1 F300 Z0.44
G0 F15000 X147.095 Y147.095 Z0.44
G1 F300 Z0.24
G1 F2700 E71.96341
G1 F2250 X153.336 Y153.336 E72.66794
G1 F2700 E67.66794
G1 F300 Z0.44
G0 F15000 X151.436 Y153.698 Z0.44
G1 F300 Z0.24
G1 F2700 E72.66794
G1 F2250 X145.812 Y148.075 E73.30277
G1 F2700 E68.30277
G1 F300 Z0.44
G0 F15000 X144.149 Y148.674 Z0.44
G1 F300 Z0.24
G1 F2700 E73.30277
G1 F2250 X149.173 Y153.698 E73.86993
G1 F2700 E68.86993
G1 F300 Z0.44
G0 F15000 X146.91 Y153.698 Z0.44
G1 F300 Z0.24
G1 F2700 E73.86993
G1 F2250 X142.01 Y148.798 E74.42308
G1 F2700 E69.42308
G1 F300 Z0.44
G0 F15000 X139.747 Y148.798 Z0.44
G1 F300 Z0.24
G1 F2700 E74.42308
G1 F2250 X144.647 Y153.698 E74.97623
G1 F2700 E69.97623
G1 F300 Z0.44
G0 F15000 X142.385 Y153.698 Z0.44
G1 F300 Z0.24
G1 F2700 E74.97623
G1 F2250 X137.484 Y148.798 E75.52945
G1 F2700 E70.52945
G1 F300 Z0.44
G0 F15000 X135.222 Y148.798 Z0.44
G1 F300 Z0.24
G1 F2700 E75.52945
G1 F2250 X140.122 Y153.698 E76.0826
G1 F2700 E71.0826
G1 F300 Z0.44
G0 F15000 X137.859 Y153.698 Z0.44
G1 F300 Z0.24
G1 F2700 E76.0826
G1 F2250 X132.959 Y148.798 E76.63575
G1 F2700 E71.63575
G1 F300 Z0.44
G0 F15000 X130.696 Y148.798 Z0.44
G1 F300 Z0.24
G1 F2700 E76.63575
G1 F2250 X135.596 Y153.698 E77.18891
G1 F2700 E72.18891
G1 F300 Z0.44
G0 F15000 X133.334 Y153.698 Z0.44
G1 F300 Z0.24
G1 F2700 E77.18891
G1 F2250 X128.433 Y148.797 E77.74218
G1 F2700 E72.74218
G1 F300 Z0.44
G0 F15000 X126.17 Y148.797 Z0.44
G1 F300 Z0.24
G1 F2700 E77.74218
G1 F2250 X131.071 Y153.698 E78.29544
G1 F2700 E73.29544
G1 F300 Z0.44
G0 F15000 X128.808 Y153.698 Z0.44
G1 F300 Z0.24
G1 F2700 E78.29544
G1 F2250 X123.907 Y148.797 E78.84871
G1 F2700 E73.84871
G1 F300 Z0.44
G0 F15000 X121.644 Y148.797 Z0.44
G1 F300 Z0.24
G1 F2700 E78.84871
G1 F2250 X126.545 Y153.698 E79.40198
G1 F2700 E74.40198
G1 F300 Z0.44
G0 F15000 X124.283 Y153.698 Z0.44
G1 F300 Z0.24
G1 F2700 E79.40198
G1 F2250 X119.382 Y148.797 E79.95524
G1 F2700 E74.95524
G1 F300 Z0.44
G0 F15000 X117.118 Y148.797 Z0.44
G1 F300 Z0.24
G1 F2700 E79.95524
G1 F2250 X122.02 Y153.698 E80.50857
G1 F2700 E75.50857
G1 F300 Z0.44
G0 F15000 X119.757 Y153.698 Z0.44
G1 F300 Z0.24
G1 F2700 E80.50857
G1 F2250 X114.856 Y148.797 E81.06184
G1 F2700 E76.06184
G1 F300 Z0.44
G0 F15000 X112.593 Y148.797 Z0.44
G1 F300 Z0.24
G1 F2700 E81.06184
G1 F2250 X117.494 Y153.698 E81.6151
G1 F2700 E76.6151
G1 F300 Z0.44
G0 F15000 X115.232 Y153.698 Z0.44
G1 F300 Z0.24
G1 F2700 E81.6151
G1 F2250 X110.33 Y148.797 E82.16843
G1 F2700 E77.16843
G1 F300 Z0.44
G0 F15000 X108.067 Y148.797 Z0.44
G1 F300 Z0.24
G1 F2700 E82.16843
G1 F2250 X112.969 Y153.698 E82.72175
G1 F2700 E77.72175
G1 F300 Z0.44
G0 F15000 X110.706 Y153.698 Z0.44
G1 F300 Z0.24
G1 F2700 E82.72175
G1 F2250 X105.805 Y148.797 E83.27502
G1 F2700 E78.27502
G1 F300 Z0.44
G0 F15000 X103.541 Y148.796 Z0.44
G1 F300 Z0.24
G1 F2700 E83.27502
G1 F2250 X108.444 Y153.698 E83.82845
G1 F2700 E78.82845
G1 F300 Z0.44
G0 F15000 X106.181 Y153.698 Z0.44
G1 F300 Z0.24
G1 F2700 E83.82845
G1 F2250 X101.278 Y148.796 E84.38189
G1 F2700 E79.38189
G1 F300 Z0.44
G0 F15000 X99.016 Y148.796 Z0.44
G1 F300 Z0.24
G1 F2700 E84.38189
G1 F2250 X103.918 Y153.698 E84.93527
G1 F2700 E79.93527
G1 F300 Z0.44
G0 F15000 X101.655 Y153.698 Z0.44
G1 F300 Z0.24
G1 F2700 E84.93527
G1 F2250 X96.753 Y148.796 E85.48865
G1 F2700 E80.48865
G1 F300 Z0.44
G0 F15000 X94.49 Y148.796 Z0.44
G1 F300 Z0.24
G1 F2700 E85.48865
G1 F2250 X99.393 Y153.698 E86.04209
G1 F2700 E81.04209
G1 F300 Z0.44
G0 F15000 X97.13 Y153.698 Z0.44
G1 F300 Z0.24
G1 F2700 E86.04209
G1 F2250 X92.227 Y148.796 E86.59552
G1 F2700 E81.59552
G1 F300 Z0.44
G0 F15000 X89.28 Y148.112 Z0.44
G1 F300 Z0.24
G1 F2700 E86.59552
G1 F2250 X94.867 Y153.698 E87.22618
G1 F2700 E82.22618
G1 F300 Z0.44
G0 F15000 X92.604 Y153.698 Z0.44
G1 F300 Z0.24
G1 F2700 E87.22618
G1 F2250 X81.3 Y142.394 E88.50227
G1 F2700 E83.50227
G1 F300 Z0.44
G0 F15000 X81.3 Y144.657 Z0.44
G1 F300 Z0.24
G1 F2700 E88.50227
G1 F2250 X90.342 Y153.698 E89.52295
G1 F2700 E84.52295
G1 F300 Z0.44
G0 F15000 X88.079 Y153.698 Z0.44
G1 F300 Z0.24
G1 F2700 E89.52295
G1 F2250 X81.3 Y146.919 E90.28822
G1 F2700 E85.28822
G1 F300 Z0.44
G0 F15000 X81.3 Y149.182 Z0.44
G1 F300 Z0.24
G1 F2700 E90.28822
G1 F2250 X85.816 Y153.698 E90.79803
G1 F2700 E85.79803
G1 F300 Z0.44
G0 F15000 X83.553 Y153.698 Z0.44
G1 F300 Z0.24
G1 F2700 E90.79803
G1 F2250 X81.3 Y151.445 E91.05237
G1 F2700 E86.05237
G1 F300 Z0.44
G0 F15000 X86.874 Y145.705 Z0.44
G1 F300 Z0.24
G1 F2700 E91.05237
G1 F2250 X81.3 Y140.131 E91.68161
G1 F2700 E86.68161
G1 F300 Z0.44
G0 F15000 X81.3 Y137.868 Z0.44
G1 F300 Z0.24
G1 F2700 E91.68161
G1 F2250 X86.201 Y142.77 E92.23493
G1 F2700 E87.23493
G1 F300 Z0.44
G0 F15000 X86.201 Y140.507 Z0.44
G1 F300 Z0.24
G1 F2700 E92.23493
G1 F2250 X81.3 Y135.606 E92.7882
G1 F2700 E87.7882
G1 F300 Z0.44
G0 F15000 X81.3 Y133.343 Z0.44
G1 F300 Z0.24
G1 F2700 E92.7882
G1 F2250 X86.201 Y138.245 E93.34152
G1 F2700 E88.34152
G1 F300 Z0.44
G0 F15000 X86.201 Y135.982 Z0.44
G1 F300 Z0.24
G1 F2700 E93.34152
G1 F2250 X81.3 Y131.08 E93.89485
G1 F2700 E88.89485
G1 F300 Z0.44
G0 F15000 X81.3 Y128.817 Z0.44
G1 F300 Z0.24
G1 F2700 E93.89485
G1 F2250 X86.201 Y133.719 E94.44817
G1 F2700 E89.44817
G1 F300 Z0.44
G0 F15000 X86.201 Y131.456 Z0.44
G1 F300 Z0.24
G1 F2700 E94.44817
G1 F2250 X81.3 Y126.555 E95.00144
G1 F2700 E90.00144
G1 F300 Z0.44
G0 F15000 X81.3 Y124.292 Z0.44
G1 F300 Z0.24
G1 F2700 E95.00144
G1 F2250 X86.201 Y129.194 E95.55476
G1 F2700 E90.55476
G1 F300 Z0.44
G0 F15000 X86.201 Y126.931 Z0.44
G1 F300 Z0.24
