;FLAVOR:Marlin
;TIME:4980
;Filament used: 10.8551m
;Layer height: 0.4
;MINX:78.4
;MINY:78.401
;MINZ:0.24
;MAXX:156.599
;MAXY:156.599
;MAXZ:11.39
;Generated with Cura_SteamEngine 5.3.1
M140 S60
M105
M190 S60
M104 S200
M105
M109 S200
M82 ;absolute extrusion mode
; Ender 3 Custom Start G-code
G92 E0 ; Reset Extruder
G28 ; Home all axes
G1 Z2.0 F3000 ; Move Z Axis up little to prevent scratching of Heat Bed
G1 X0.1 Y20 Z0.3 F5000.0 ; Move to start position
G1 X0.1 Y200.0 Z0.3 F1500.0 E15 ; Draw the first line
G1 X0.4 Y200.0 Z0.3 F5000.0 ; Move to side a little
G1 X0.4 Y20 Z0.3 F1500.0 E30 ; Draw the second line
G92 E0 ; Reset Extruder
G1 Z2.0 F3000 ; Move Z Axis up little to prevent scratching of Heat Bed
G1 X5 Y20 Z0.3 F5000.0 ; Move over to prevent blob squish
G92 E0
G92 E0
G1 F2700 E-5
;LAYER_COUNT:26
;LAYER:-5
M107
G0 F15000 X80.168 Y80.508 Z0.24
;TYPE:SUPPORT-INTERFACE
G1 F2700 E0
G1 F2250 X80.662 Y80.026 E0.05509
G1 X81.22 Y79.59 E0.11162
G1 X81.716 Y79.283 E0.15818
G1 X81.945 Y79.156 E0.17909
G1 X82.354 Y78.961 E0.21526
G1 X82.882 Y78.741 E0.26091
G1 X82.964 Y78.729 E0.26753
G1 X83.258 Y78.641 E0.29203
G1 X83.791 Y78.512 E0.3358
G1 X84.266 Y78.438 E0.37418
G1 X84.277 Y78.447 E0.37531
G1 X84.601 Y78.415 E0.4013
G1 X85.031 Y78.401 E0.43564
G1 X150.037 Y78.404 E5.6247
G1 X150.711 Y78.44 E5.67858
G1 X151.275 Y78.532 E5.7242
G1 X151.52 Y78.583 E5.74417
G1 X152.095 Y78.743 E5.79182
G1 X152.739 Y78.996 E5.84705
G1 X153.38 Y79.332 E5.90482
G1 X153.942 Y79.709 E5.95884
G1 X154.492 Y80.168 E6.01602
G1 X154.974 Y80.663 E6.07117
G1 X155.409 Y81.219 E6.12752
G1 X155.782 Y81.819 E6.18392
G1 X156.039 Y82.355 E6.23137
G1 X156.259 Y82.882 E6.27695
G1 X156.271 Y82.964 E6.28357
G1 X156.359 Y83.258 E6.30807
G1 X156.488 Y83.791 E6.35184
G1 X156.562 Y84.266 E6.39022
G1 X156.553 Y84.277 E6.39135
G1 X156.585 Y84.601 E6.41734
G1 X156.599 Y85.002 E6.44937
G1 X156.597 Y150.037 E11.64074
G1 X156.56 Y150.708 E11.69439
G1 X156.444 Y151.422 E11.75213
G1 X156.257 Y152.093 E11.80773
G1 X156.007 Y152.735 E11.86273
G1 X155.68 Y153.358 E11.91889
G1 X155.3 Y153.93 E11.97371
G1 X154.832 Y154.492 E12.03209
G1 X154.337 Y154.974 E12.08724
G1 X153.779 Y155.41 E12.14377
G1 X153.284 Y155.717 E12.19026
G1 X153.057 Y155.843 E12.21099
G1 X152.647 Y156.038 E12.24723
G1 X152.118 Y156.259 E12.29299
G1 X152.036 Y156.271 E12.29961
G1 X151.742 Y156.359 E12.3241
G1 X151.209 Y156.488 E12.36788
G1 X150.734 Y156.563 E12.40626
G1 X150.723 Y156.553 E12.40745
G1 X150.399 Y156.585 E12.43344
G1 X149.969 Y156.599 E12.46778
G1 X84.963 Y156.597 E17.65684
G1 X84.289 Y156.56 E17.71073
G1 X83.725 Y156.468 E17.75634
G1 X83.48 Y156.417 E17.77632
G1 X82.904 Y156.257 E17.82404
G1 X82.259 Y156.003 E17.87937
G1 X81.627 Y155.671 E17.93636
G1 X81.059 Y155.291 E17.99091
G1 X80.507 Y154.832 E18.04822
G1 X80.024 Y154.336 E18.10348
G1 X79.59 Y153.78 E18.15978
G1 X79.283 Y153.284 E18.20635
G1 X79.156 Y153.055 E18.22725
G1 X78.961 Y152.646 E18.26342
G1 X78.741 Y152.118 E18.30908
G1 X78.729 Y152.036 E18.31569
G1 X78.641 Y151.742 E18.34019
G1 X78.512 Y151.209 E18.38396
G1 X78.438 Y150.734 E18.42234
G1 X78.447 Y150.723 E18.42347
G1 X78.415 Y150.399 E18.44946
G1 X78.4 Y149.998 E18.48149
G1 X78.404 Y84.963 E23.67287
G1 X78.44 Y84.292 E23.72651
G1 X78.556 Y83.578 E23.78425
G1 X78.743 Y82.907 E23.83985
G1 X78.993 Y82.265 E23.89485
G1 X79.32 Y81.642 E23.95101
G1 X79.696 Y81.076 E24.00525
G1 X80.168 Y80.508 E24.06421
G0 F15000 X80.622 Y80.622
G1 F2250 X154.376 Y154.376 E32.39019
G1 F2700 E27.39019
G1 F300 Z0.44
G0 F15000 X155.362 Y153.099 Z0.44
G1 F300 Z0.24
G1 F2700 E32.39019
G1 F2250 X81.901 Y79.638 E40.68311
G1 F2700 E35.68311
G1 F300 Z0.44
G0 F15000 X83.515 Y78.99 Z0.44
G1 F300 Z0.24
G1 F2700 E40.68311
G1 F2250 X156.011 Y151.486 E48.86708
G1 F2700 E43.86708
G1 F300 Z0.44
G0 F15000 X156.197 Y149.408 Z0.44
G1 F300 Z0.24
G1 F2700 E48.86708
G1 F2250 X85.589 Y78.801 E56.83787
G1 F2700 E51.83787
G1 F300 Z0.44
G0 F15000 X87.852 Y78.801 Z0.44
G1 F300 Z0.24
G1 F2700 E56.83787
G1 F2250 X156.197 Y147.146 E64.55324
G1 F2700 E59.55324
G1 F300 Z0.44
G0 F15000 X156.197 Y144.883 Z0.44
G1 F300 Z0.24
G1 F2700 E64.55324
G1 F2250 X90.115 Y78.801 E72.01315
G1 F2700 E67.01315
G1 F300 Z0.44
G0 F15000 X92.377 Y78.801 Z0.44
G1 F300 Z0.24
G1 F2700 E72.01315
G1 F2250 X156.197 Y142.62 E79.21764
G1 F2700 E74.21764
G1 F300 Z0.44
G0 F15000 X156.197 Y140.357 Z0.44
G1 F300 Z0.24
G1 F2700 E79.21764
G1 F2250 X94.64 Y78.801 E86.16667
G1 F2700 E81.16667
G1 F300 Z0.44
G0 F15000 X96.903 Y78.801 Z0.44
G1 F300 Z0.24
G1 F2700 E86.16667
G1 F2250 X156.197 Y138.095 E92.86029
G1 F2700 E87.86029
G1 F300 Z0.44
G0 F15000 X156.197 Y135.832 Z0.44
G1 F300 Z0.24
G1 F2700 E92.86029
G1 F2250 X99.166 Y78.802 E99.29839
G1 F2700 E94.29839
G1 F300 Z0.44
G0 F15000 X101.429 Y78.802 Z0.44
G1 F300 Z0.24
G1 F2700 E99.29839
G1 F2250 X156.197 Y133.569 E105.48102
G1 F2700 E100.48102
G1 F300 Z0.44
G0 F15000 X156.197 Y131.306 Z0.44
G1 F300 Z0.24
G1 F2700 E105.48102
G1 F2250 X103.692 Y78.802 E111.40818
G1 F2700 E106.40818
G1 F300 Z0.44
G0 F15000 X105.955 Y78.802 Z0.44
G1 F300 Z0.24
G1 F2700 E111.40818
G1 F2250 X156.197 Y129.044 E117.07993
G1 F2700 E112.07993
G1 F300 Z0.44
G0 F15000 X156.197 Y126.781 Z0.44
G1 F300 Z0.24
G1 F2700 E117.07993
G1 F2250 X108.217 Y78.802 E122.49627
G1 F2700 E117.49627
G1 F300 Z0.44
G0 F15000 X110.48 Y78.802 Z0.44
G1 F300 Z0.24
G1 F2700 E122.49627
G1 F2250 X156.197 Y124.518 E127.65715
G1 F2700 E122.65715
G1 F300 Z0.44
G0 F15000 X156.197 Y122.255 Z0.44
G1 F300 Z0.24
G1 F2700 E127.65715
G1 F2250 X112.743 Y78.802 E132.56255
G1 F2700 E127.56255
G1 F300 Z0.44
G0 F15000 X115.006 Y78.802 Z0.44
G1 F300 Z0.24
G1 F2700 E132.56255
G1 F2250 X156.197 Y119.993 E137.21255
G1 F2700 E132.21255
G1 F300 Z0.44
G0 F15000 X156.197 Y117.73 Z0.44
G1 F300 Z0.24
G1 F2700 E137.21255
G1 F2250 X117.269 Y78.802 E141.60708
G1 F2700 E136.60708
G1 F300 Z0.44
G0 F15000 X119.532 Y78.802 Z0.44
G1 F300 Z0.24
G1 F2700 E141.60708
G1 F2250 X156.197 Y115.468 E145.7462
G1 F2700 E140.7462
G1 F300 Z0.44
G0 F15000 X156.197 Y113.205 Z0.44
G1 F300 Z0.24
G1 F2700 E145.7462
G1 F2250 X121.794 Y78.802 E149.6299
G1 F2700 E144.6299
G1 F300 Z0.44
G0 F15000 X124.058 Y78.803 Z0.44
G1 F300 Z0.24
G1 F2700 E149.6299
G1 F2250 X156.197 Y110.942 E153.25803
G1 F2700 E148.25803
G1 F300 Z0.44
G0 F15000 X156.197 Y108.68 Z0.44
G1 F300 Z0.24
G1 F2700 E153.25803
G1 F2250 X126.321 Y78.803 E156.63075
G1 F2700 E151.63075
G1 F300 Z0.44
G0 F15000 X128.583 Y78.803 Z0.44
G1 F300 Z0.24
G1 F2700 E156.63075
G1 F2250 X156.197 Y106.417 E159.74806
G1 F2700 E154.74806
G1 F300 Z0.44
G0 F15000 X156.197 Y104.154 Z0.44
G1 F300 Z0.24
G1 F2700 E159.74806
G1 F2250 X130.846 Y78.803 E162.6099
G1 F2700 E157.6099
G1 F300 Z0.44
G0 F15000 X133.109 Y78.803 Z0.44
G1 F300 Z0.24
G1 F2700 E162.6099
G1 F2250 X156.197 Y101.891 E165.21627
G1 F2700 E160.21627
G1 F300 Z0.44
G0 F15000 X156.197 Y99.629 Z0.44
G1 F300 Z0.24
G1 F2700 E165.21627
G1 F2250 X135.372 Y78.803 E167.56723
G1 F2700 E162.56723
G1 F300 Z0.44
G0 F15000 X137.635 Y78.804 Z0.44
G1 F300 Z0.24
G1 F2700 E167.56723
G1 F2250 X156.197 Y97.366 E169.66267
G1 F2700 E164.66267
G1 F300 Z0.44
G0 F15000 X156.197 Y95.103 Z0.44
G1 F300 Z0.24
G1 F2700 E169.66267
G1 F2250 X139.898 Y78.804 E171.50264
G1 F2700 E166.50264
G1 F300 Z0.44
G0 F15000 X142.16 Y78.804 Z0.44
G1 F300 Z0.24
G1 F2700 E171.50264
G1 F2250 X156.197 Y92.84 E173.0872
G1 F2700 E168.0872
G1 F300 Z0.44
G0 F15000 X156.197 Y90.578 Z0.44
G1 F300 Z0.24
G1 F2700 E173.0872
G1 F2250 X144.423 Y78.804 E174.41635
G1 F2700 E169.41635
G1 F300 Z0.44
G0 F15000 X146.686 Y78.804 Z0.44
G1 F300 Z0.24
G1 F2700 E174.41635
G1 F2250 X156.197 Y88.315 E175.49004
G1 F2700 E170.49004
G1 F300 Z0.44
G0 F15000 X156.197 Y86.052 Z0.44
G1 F300 Z0.24
G1 F2700 E175.49004
G1 F2250 X148.949 Y78.804 E176.30826
G1 F2700 E171.30826
G1 F300 Z0.44
G0 F15000 X151.363 Y78.955 Z0.44
G1 F300 Z0.24
G1 F2700 E176.30826
G1 F2250 X156.036 Y83.628 E176.83578
G1 F2700 E171.83578
G1 F300 Z0.44
G0 F15000 X153.097 Y155.36 Z0.44
G1 F300 Z0.24
G1 F2700 E176.83578
G1 F2250 X79.636 Y81.899 E185.1287
G1 F2700 E180.1287
G1 F300 Z0.44
G0 F15000 X78.988 Y83.513 Z0.44
G1 F300 Z0.24
G1 F2700 E185.1287
G1 F2250 X151.483 Y156.008 E193.31256
G1 F2700 E188.31256
G1 F300 Z0.44
G0 F15000 X149.409 Y156.197 Z0.44
G1 F300 Z0.24
G1 F2700 E193.31256
G1 F2250 X78.803 Y85.591 E201.28317
G1 F2700 E196.28317
G1 F300 Z0.44
G0 F15000 X78.803 Y87.854 Z0.44
G1 F300 Z0.24
G1 F2700 E201.28317
G1 F2250 X147.146 Y156.197 E208.99832
G1 F2700 E203.99832
G1 F300 Z0.44
G0 F15000 X144.884 Y156.197 Z0.44
G1 F300 Z0.24
G1 F2700 E208.99832
G1 F2250 X78.803 Y90.117 E216.45806
G1 F2700 E211.45806
G1 F300 Z0.44
G0 F15000 X78.803 Y92.379 Z0.44
G1 F300 Z0.24
G1 F2700 E216.45806
G1 F2250 X142.621 Y156.197 E223.66239
G1 F2700 E218.66239
G1 F300 Z0.44
G0 F15000 X140.358 Y156.197 Z0.44
G1 F300 Z0.24
G1 F2700 E223.66239
G1 F2250 X78.803 Y94.642 E230.61125
G1 F2700 E225.61125
G1 F300 Z0.44
G0 F15000 X78.802 Y96.904 Z0.44
G1 F300 Z0.24
G1 F2700 E230.61125
G1 F2250 X138.095 Y156.197 E237.30475
G1 F2700 E232.30475
G1 F300 Z0.44
G0 F15000 X135.833 Y156.197 Z0.44
G1 F300 Z0.24
G1 F2700 E237.30475
G1 F2250 X78.802 Y99.167 E243.74285
G1 F2700 E238.74285
G1 F300 Z0.44
G0 F15000 X78.802 Y101.43 Z0.44
G1 F300 Z0.24
G1 F2700 E243.74285
G1 F2250 X133.57 Y156.197 E249.92548
G1 F2700 E244.92548
G1 F300 Z0.44
G0 F15000 X131.307 Y156.197 Z0.44
G1 F300 Z0.24
G1 F2700 E249.92548
G1 F2250 X78.802 Y103.692 E255.8527
G1 F2700 E250.8527
G1 F300 Z0.44
G0 F15000 X78.802 Y105.955 Z0.44
G1 F300 Z0.24
G1 F2700 E255.8527
G1 F2250 X129.044 Y156.197 E261.52445
G1 F2700 E256.52445
G1 F300 Z0.44
G0 F15000 X126.781 Y156.197 Z0.44
G1 F300 Z0.24
G1 F2700 E261.52445
G1 F2250 X78.802 Y108.217 E266.94079
G1 F2700 E261.94079
G1 F300 Z0.44
G0 F15000 X78.802 Y110.48 Z0.44
G1 F300 Z0.24
G1 F2700 E266.94079
G1 F2250 X124.518 Y156.197 E272.10166
G1 F2700 E267.10166
G1 F300 Z0.44
G0 F15000 X122.255 Y156.197 Z0.44
G1 F300 Z0.24
G1 F2700 E272.10166
G1 F2250 X78.802 Y112.743 E277.00707
G1 F2700 E272.00707
G1 F300 Z0.44
G0 F15000 X78.802 Y115.005 Z0.44
G1 F300 Z0.24
G1 F2700 E277.00707
G1 F2250 X119.993 Y156.197 E281.65712
G1 F2700 E276.65712
G1 F300 Z0.44
G0 F15000 X117.73 Y156.197 Z0.44
G1 F300 Z0.24
G1 F2700 E281.65712
G1 F2250 X78.802 Y117.268 E286.05171
G1 F2700 E281.05171
G1 F300 Z0.44
G0 F15000 X78.801 Y119.53 Z0.44
G1 F300 Z0.24
G1 F2700 E286.05171
G1 F2250 X115.467 Y156.197 E290.19094
G1 F2700 E285.19094
G1 F300 Z0.44
G0 F15000 X113.204 Y156.197 Z0.44
G1 F300 Z0.24
G1 F2700 E290.19094
G1 F2250 X78.801 Y121.793 E294.0747
G1 F2700 E289.0747
G1 F300 Z0.44
G0 F15000 X78.801 Y124.056 Z0.44
G1 F300 Z0.24
G1 F2700 E294.0747
G1 F2250 X110.942 Y156.197 E297.70306
G1 F2700 E292.70306
G1 F300 Z0.44
G0 F15000 X108.679 Y156.197 Z0.44
G1 F300 Z0.24
G1 F2700 E297.70306
G1 F2250 X78.801 Y126.318 E301.076
G1 F2700 E296.076
G1 F300 Z0.44
G0 F15000 X78.8 Y128.581 Z0.44
G1 F300 Z0.24
G1 F2700 E301.076
G1 F2250 X106.416 Y156.196 E304.19348
G1 F2700 E299.19348
G1 F300 Z0.44
G0 F15000 X104.153 Y156.196 Z0.44
G1 F300 Z0.24
G1 F2700 E304.19348
G1 F2250 X78.8 Y130.843 E307.05554
G1 F2700 E302.05554
G1 F300 Z0.44
G0 F15000 X78.8 Y133.106 Z0.44
G1 F300 Z0.24
G1 F2700 E307.05554
G1 F2250 X101.89 Y156.196 E309.66214
G1 F2700 E304.66214
G1 F300 Z0.44
G0 F15000 X99.627 Y156.196 Z0.44
G1 F300 Z0.24
G1 F2700 E309.66214
G1 F2250 X78.8 Y135.369 E312.01327
G1 F2700 E307.01327
G1 F300 Z0.44
G0 F15000 X78.8 Y137.631 Z0.44
G1 F300 Z0.24
G1 F2700 E312.01327
G1 F2250 X97.365 Y156.196 E314.10905
G1 F2700 E309.10905
G1 F300 Z0.44
G0 F15000 X95.102 Y156.196 Z0.44
G1 F300 Z0.24
G1 F2700 E314.10905
G1 F2250 X78.799 Y139.894 E315.94942
G1 F2700 E310.94942
G1 F300 Z0.44
G0 F15000 X78.799 Y142.156 Z0.44
G1 F300 Z0.24
G1 F2700 E315.94942
G1 F2250 X92.839 Y156.196 E317.53437
G1 F2700 E312.53437
G1 F300 Z0.44
G0 F15000 X90.576 Y156.196 Z0.44
G1 F300 Z0.24
G1 F2700 E317.53437
G1 F2250 X78.799 Y144.419 E318.86386
G1 F2700 E313.86386
G1 F300 Z0.44
G0 F15000 X78.799 Y146.682 Z0.44
G1 F300 Z0.24
G1 F2700 E318.86386
G1 F2250 X88.314 Y156.196 E319.93794
G1 F2700 E314.93794
G1 F300 Z0.44
G0 F15000 X86.051 Y156.196 Z0.44
G1 F300 Z0.24
G1 F2700 E319.93794
G1 F2250 X78.799 Y148.944 E320.75661
G1 F2700 E315.75661
G1 F300 Z0.44
G0 F15000 X78.962 Y151.37 Z0.44
G1 F300 Z0.24
G1 F2700 E320.75661
G1 F2250 X83.638 Y156.045 E321.28442
G1 F2700 E316.28442
G1 F300 Z0.44
G0 F15000 X152.976 Y155.436 Z0.44
;TIME_ELAPSED:144.259495
;LAYER:-4
G0 X152.976 Y155.436 Z1.04
;TYPE:SUPPORT
G1 F300 Z0.84
G1 F2700 E321.28442
G1 F2250 X153.546 Y155.083 E321.41822
G1 X154.072 Y154.673 E321.55131
G1 X154.544 Y154.215 E321.68256
G1 X154.965 Y153.71 E321.81376
G1 X155.333 Y153.157 E321.94632
G1 X155.543 Y152.754 E322.03701
G1 X152.756 Y155.541 E322.82356
G1 X152.38 Y155.721 E322.90675
G1 X151.759 Y155.943 E323.03836
G1 X151.127 Y156.094 E323.16803
G1 X150.738 Y156.145 E323.24632
G1 X156.159 Y150.724 E324.77624
G1 X156.195 Y150.04 E324.91293
G1 X156.195 Y149.274 E325.0658
G1 X149.27 Y156.199 E327.02018
G1 X147.856 Y156.199 E327.30236
G1 X156.195 Y147.86 E329.65581
G1 X156.195 Y146.446 E329.93799
G1 X146.442 Y156.199 E332.69049
G1 X145.028 Y156.199 E332.97267
G1 X156.195 Y145.031 E336.12438
G1 X156.195 Y143.617 E336.40656
G1 X143.614 Y156.199 E339.95733
G1 X142.199 Y156.199 E340.23971
G1 X156.195 Y142.203 E344.18968
G1 X156.195 Y140.789 E344.47186
G1 X140.785 Y156.199 E348.8209
G1 X139.371 Y156.199 E349.10308
G1 X156.195 Y139.374 E353.85131
G1 X156.196 Y137.96 E354.13349
G1 X137.957 Y156.199 E359.28093
G1 X136.543 Y156.199 E359.56311
G1 X156.196 Y136.545 E365.10975
G1 X156.196 Y135.131 E365.39193
G1 X135.128 Y156.199 E371.33778
G1 X133.714 Y156.199 E371.61996
G1 X156.196 Y133.717 E377.96486
G1 X156.196 Y132.303 E378.24704
G1 X132.301 Y156.198 E384.99073
G1 X130.886 Y156.198 E385.27311
G1 X156.196 Y130.889 E392.41599
G1 X156.196 Y129.474 E392.69837
G1 X129.472 Y156.198 E400.24046
G1 X128.058 Y156.198 E400.52264
G1 X156.197 Y128.059 E408.46408
G1 X156.197 Y126.645 E408.74625
G1 X126.644 Y156.198 E417.08675
G1 X125.23 Y156.198 E417.36893
G1 X156.197 Y125.231 E426.10848
G1 X156.197 Y123.817 E426.39066
G1 X123.815 Y156.198 E435.52942
G1 X122.401 Y156.198 E435.8116
G1 X156.197 Y122.403 E445.34942
G1 X156.197 Y120.988 E445.6318
G1 X120.987 Y156.198 E455.56882
G1 X119.573 Y156.198 E455.851
G1 X156.197 Y119.574 E466.18709
G1 X156.197 Y118.16 E466.46926
G1 X118.158 Y156.198 E477.20455
G1 X116.745 Y156.197 E477.48653
G1 X156.197 Y116.745 E488.62074
G1 X156.197 Y115.331 E488.90292
G1 X115.331 Y156.197 E500.43618
G1 X113.917 Y156.197 E500.71836
G1 X156.197 Y113.917 E512.65069
G1 X156.197 Y112.502 E512.93307
G1 X112.502 Y156.197 E525.26474
G1 X111.088 Y156.197 E525.54692
G1 X156.197 Y111.088 E538.27766
G1 X156.197 Y109.674 E538.55984
G1 X109.674 Y156.197 E551.68963
G1 X108.26 Y156.197 E551.97181
G1 X156.197 Y108.26 E565.50067
G1 X156.197 Y106.845 E565.78305
G1 X106.845 Y156.197 E579.71125
G1 X105.431 Y156.197 E579.99343
G1 X156.198 Y105.431 E594.32083
G1 X156.198 Y104.016 E594.60321
G1 X104.017 Y156.197 E609.32981
G1 X102.603 Y156.197 E609.61199
G1 X156.198 Y102.602 E624.73766
G1 X156.198 Y101.188 E625.01984
G1 X101.189 Y156.197 E640.54457
G1 X99.775 Y156.197 E640.82675
G1 X156.198 Y99.774 E656.75054
G1 X156.198 Y98.359 E657.03291
G1 X98.361 Y156.197 E673.35591
G1 X96.947 Y156.197 E673.63809
G1 X156.198 Y96.945 E690.36014
G1 X156.199 Y95.53 E690.64252
G1 X95.532 Y156.197 E707.76406
G1 X94.118 Y156.197 E708.04623
G1 X156.199 Y94.116 E725.56683
G1 X156.199 Y92.702 E725.84901
G1 X92.704 Y156.197 E743.76867
G1 X91.29 Y156.197 E744.05085
G1 X156.199 Y91.288 E762.36957
G1 X156.199 Y89.873 E762.65195
G1 X89.876 Y156.197 E781.36988
G1 X88.461 Y156.197 E781.65226
G1 X156.199 Y88.459 E800.76938
G1 X156.199 Y87.045 E801.05156
G1 X87.047 Y156.197 E820.56775
G1 X85.633 Y156.197 E820.84993
G1 X156.199 Y85.631 E840.76518
G1 X156.199 Y85.014 E840.88831
G1 X156.182 Y84.55 E840.98097
G1 X156.145 Y84.27 E841.03733
G1 X84.264 Y156.151 E861.3237
G1 X83.679 Y156.056 E861.44197
G1 X83.104 Y155.897 E861.56103
G1 X155.895 Y83.106 E882.10422
G1 X155.767 Y82.744 E882.18084
