;FLAVOR:Marlin
;TIME:1007
;Filament used: 1.84546m
;Layer height: 0.4
;MINX:76.045
;MINY:76.22
;MINZ:0.24
;MAXX:158.944
;MAXY:158.766
;MAXZ:6.59
;Generated with Cura_SteamEngine 5.3.1
M140 S60
M105
M190 S60
M104 S200
M105
M109 S200
M82 ;absolute extrusion mode
; Ender 3 Custom Start G-code
G92 E0 ; Reset Extruder
G28 ; Home all axes
G1 Z2.0 F3000 ; Move Z Axis up little to prevent scratching of Heat Bed
G1 X0.1 Y20 Z0.3 F5000.0 ; Move to start position
G1 X0.1 Y200.0 Z0.3 F1500.0 E15 ; Draw the first line
G1 X0.4 Y200.0 Z0.3 F5000.0 ; Move to side a little
G1 X0.4 Y20 Z0.3 F1500.0 E30 ; Draw the second line
G92 E0 ; Reset Extruder
G1 Z2.0 F3000 ; Move Z Axis up little to prevent scratching of Heat Bed
G1 X5 Y20 Z0.3 F5000.0 ; Move over to prevent blob squish
G92 E0
G92 E0
G1 F2700 E-5
;LAYER_COUNT:13
;LAYER:-5
M107
G0 F15000 X93.728 Y92.808 Z0.24
;TYPE:SUPPORT-INTERFACE
G1 F2700 E0
G1 F2250 X93.743 Y92.808 E0.0012
G1 X94.501 Y92.102 E0.08388
G1 X94.919 Y91.73 E0.12855
G1 X95.827 Y90.968 E0.22317
G1 X96.639 Y90.322 E0.306
G1 X96.655 Y90.326 E0.30732
G1 X97.7 Y89.548 E0.41131
G1 X98.616 Y88.921 E0.49992
G1 X99.31 Y88.478 E0.56564
G1 X100.286 Y87.89 E0.6566
G1 X101.454 Y87.229 E0.76373
G1 X101.47 Y87.238 E0.76519
G1 X102.36 Y86.78 E0.84509
G1 X103.586 Y86.194 E0.95356
G1 X103.598 Y86.201 E0.95467
G1 X104.051 Y86.004 E0.9941
G1 X104.973 Y85.623 E1.07374
G1 X106.401 Y85.088 E1.19546
G1 X106.413 Y85.096 E1.19661
G1 X107.287 Y84.807 E1.27009
G1 X107.841 Y84.638 E1.31633
G1 X108.575 Y84.435 E1.37712
G1 X109.193 Y84.225 E1.42922
G1 X109.852 Y83.897 E1.48798
G1 X110.405 Y83.533 E1.54083
G1 X110.94 Y83.068 E1.59741
G1 X111.362 Y82.602 E1.6476
G1 X111.752 Y82.044 E1.70194
G1 X112.082 Y81.416 E1.75857
G1 X112.32 Y80.767 E1.81375
G1 X112.467 Y80.139 E1.86523
G1 X112.544 Y79.259 E1.93575
G1 X112.533 Y78.903 E1.96418
G1 X112.546 Y78.891 E1.96559
G1 X112.564 Y78.593 E1.98942
G1 X112.634 Y78.18 E2.02286
G1 X112.762 Y77.8 E2.05487
G1 X112.971 Y77.41 E2.09019
G1 X113.201 Y77.11 E2.12036
G1 X113.526 Y76.796 E2.15643
G1 X113.859 Y76.574 E2.18838
G1 X114.267 Y76.381 E2.22441
G1 X114.644 Y76.279 E2.25558
G1 X115.096 Y76.22 E2.29197
G1 X120.014 Y76.22 E2.68455
G1 X120.382 Y76.242 E2.71398
G1 X120.745 Y76.301 E2.74333
G1 X121.134 Y76.428 E2.776
G1 X121.554 Y76.645 E2.81373
G1 X121.883 Y76.898 E2.84686
G1 X122.169 Y77.201 E2.88012
G1 X122.391 Y77.531 E2.91187
G1 X122.586 Y77.944 E2.94833
G1 X122.685 Y78.315 E2.97898
G1 X122.737 Y78.709 E3.0107
G1 X122.745 Y79.26 E3.05469
G1 X122.785 Y79.88 E3.10428
G1 X122.916 Y80.575 E3.16074
G1 X123.131 Y81.231 E3.21584
G1 X123.43 Y81.857 E3.27122
G1 X123.794 Y82.424 E3.32501
G1 X124.234 Y82.948 E3.37962
G1 X124.752 Y83.425 E3.43583
G1 X125.303 Y83.816 E3.48977
G1 X125.916 Y84.141 E3.54515
G1 X126.795 Y84.452 E3.61958
G1 X127.991 Y84.804 E3.7191
G1 X128.53 Y84.977 E3.76428
G1 X129.131 Y85.183 E3.815
G1 X130.333 Y85.632 E3.91742
G1 X131.443 Y86.091 E4.0133
G1 X131.939 Y86.31 E4.05659
G1 X133.057 Y86.841 E4.15538
G1 X133.546 Y87.091 E4.19922
G1 X134.653 Y87.69 E4.2997
G1 X135.153 Y87.977 E4.34572
G1 X136.138 Y88.578 E4.43782
G1 X137.223 Y89.293 E4.54155
G1 X138.113 Y89.925 E4.62868
G1 X139.172 Y90.735 E4.73511
G1 X140.006 Y91.417 E4.82111
G1 X140.894 Y92.195 E4.91535
G1 X141.355 Y92.619 E4.96534
G1 X142.272 Y93.518 E5.06785
G1 X142.649 Y93.905 E5.11098
G1 X143.475 Y94.8 E5.2082
G1 X143.897 Y95.283 E5.2594
G1 X144.65 Y96.189 E5.35343
G1 X145.351 Y97.092 E5.44469
G1 X146.088 Y98.121 E5.54572
G1 X146.7 Y99.032 E5.63333
G1 X147.088 Y99.644 E5.69117
G1 X147.689 Y100.658 E5.78526
G1 X148.247 Y101.672 E5.87765
G1 X148.776 Y102.721 E5.97143
G1 X149.061 Y103.325 E6.02474
G1 X149.53 Y104.379 E6.11683
G1 X149.986 Y105.522 E6.21506
G1 X150.39 Y106.641 E6.31003
G1 X150.764 Y107.806 E6.4077
G1 X151.098 Y108.99 E6.5059
G1 X151.227 Y109.489 E6.54704
G1 X151.502 Y110.689 E6.64531
G1 X151.728 Y111.863 E6.74075
G1 X151.956 Y113.365 E6.86202
G1 X152.004 Y113.748 E6.89283
G1 X152.136 Y115.104 E7.00158
G1 X152.176 Y115.692 E7.04863
G1 X152.255 Y116.37 E7.10311
G1 X152.413 Y117.02 E7.15651
G1 X152.653 Y117.648 E7.21018
G1 X152.976 Y118.253 E7.26492
G1 X153.395 Y118.84 E7.32249
G1 X153.854 Y119.336 E7.37643
G1 X154.365 Y119.763 E7.42959
G1 X154.967 Y120.147 E7.48659
G1 X155.54 Y120.42 E7.53726
G1 X156.223 Y120.646 E7.59468
G1 X156.963 Y120.803 E7.65507
G1 X157.334 Y120.92 E7.68612
G1 X157.701 Y121.105 E7.71893
G1 X158.054 Y121.363 E7.75383
G1 X158.346 Y121.661 E7.78713
G1 X158.601 Y122.033 E7.82313
G1 X158.778 Y122.401 E7.85573
G1 X158.892 Y122.794 E7.88839
G1 X158.941 Y123.195 E7.92064
G1 X158.937 Y123.578 E7.95122
G1 X158.944 Y123.585 E7.95201
G1 X158.242 Y128.515 E8.34951
G1 X158.167 Y128.88 E8.37926
G1 X158.053 Y129.242 E8.40955
G1 X157.859 Y129.627 E8.44396
G1 X157.62 Y129.954 E8.4763
G1 X157.282 Y130.28 E8.51378
G1 X156.994 Y130.482 E8.54186
G1 X156.609 Y130.675 E8.57624
G1 X156.176 Y130.807 E8.61237
G1 X155.73 Y130.861 E8.64823
G1 X155.417 Y130.865 E8.67322
G1 X155.409 Y130.854 E8.67431
G1 X154.022 Y130.665 E8.78605
G1 X153.344 Y130.613 E8.84033
G1 X152.67 Y130.645 E8.89419
G1 X152.002 Y130.761 E8.94831
G1 X151.317 Y130.978 E9.00567
G1 X150.701 Y131.261 E9.05978
G1 X150.121 Y131.624 E9.1144
G1 X149.595 Y132.055 E9.16868
G1 X149.123 Y132.552 E9.22339
G1 X148.734 Y133.078 E9.27562
G1 X148.43 Y133.615 E9.32487
G1 X148.269 Y133.922 E9.35255
G1 X148.086 Y134.227 E9.38094
G1 X147.848 Y134.542 E9.41245
G1 X147.554 Y134.825 E9.44503
G1 X147.193 Y135.072 E9.47994
G1 X146.829 Y135.244 E9.51208
G1 X146.436 Y135.355 E9.54468
G1 X145.971 Y135.42 E9.58216
G1 X143.178 Y135.42 E9.80511
G1 X142.81 Y135.398 E9.83453
G1 X142.447 Y135.339 E9.86389
G1 X142.064 Y135.215 E9.89603
G1 X141.638 Y134.994 E9.93433
G1 X141.339 Y134.765 E9.9644
G1 X141.042 Y134.459 E9.99844
G1 X140.799 Y134.105 E10.03271
G1 X140.607 Y133.698 E10.06863
G1 X140.507 Y133.326 E10.09938
G1 X140.46 Y132.907 E10.13304
G1 X140.48 Y132.48 E10.16716
G1 X140.58 Y132.021 E10.20466
G1 X140.754 Y131.593 E10.24154
G1 X141.231 Y130.753 E10.31865
G1 X141.673 Y129.914 E10.39435
G1 X141.946 Y129.357 E10.44386
G1 X142.296 Y128.59 E10.51116
G1 X142.448 Y128.235 E10.54199
G1 X142.863 Y127.18 E10.63248
G1 X143.127 Y126.437 E10.69543
G1 X143.386 Y125.638 E10.76247
G1 X143.534 Y125.128 E10.80486
G1 X143.819 Y123.984 E10.89897
G1 X143.814 Y123.978 E10.8996
G1 X144.013 Y123.145 E10.96796
G1 X144.103 Y122.678 E11.00593
G1 X144.23 Y121.921 E11.0672
G1 X144.358 Y120.99 E11.14221
G1 X144.466 Y119.872 E11.23187
G1 X144.519 Y118.965 E11.3044
G1 X144.543 Y118 E11.38145
G1 X144.533 Y116.844 E11.47373
G1 X144.471 Y115.824 E11.5553
G1 X144.366 Y114.724 E11.64351
G1 X144.218 Y113.658 E11.72942
G1 X144.053 Y112.679 E11.80867
G1 X143.817 Y111.602 E11.89668
G1 X143.73 Y111.241 E11.92632
G1 X143.463 Y110.268 E12.00686
G1 X143.34 Y109.854 E12.04133
G1 X143.083 Y109.099 E12.105
G1 X143.091 Y109.086 E12.10622
G1 X142.893 Y108.532 E12.15318
G1 X142.471 Y107.463 E12.24492
G1 X142.115 Y106.646 E12.31606
G1 X141.701 Y105.783 E12.39246
G1 X141.355 Y105.117 E12.45237
G1 X140.92 Y104.333 E12.52394
G1 X140.648 Y103.873 E12.5666
G1 X140.053 Y102.937 E12.65513
G1 X139.47 Y102.095 E12.73688
G1 X139.043 Y101.516 E12.79431
G1 X138.718 Y101.1 E12.83645
G1 X138.198 Y100.463 E12.90209
G1 X137.583 Y99.763 E12.97647
G1 X136.933 Y99.072 E13.0522
G1 X136.297 Y98.438 E13.12388
G1 X135.426 Y97.636 E13.21839
G1 X135.032 Y97.309 E13.25926
G1 X135.032 Y97.292 E13.26062
G1 X134.397 Y96.773 E13.32609
G1 X133.702 Y96.239 E13.39605
G1 X132.997 Y95.731 E13.46541
G1 X132.015 Y95.077 E13.55959
G1 X130.924 Y94.425 E13.66105
G1 X130.512 Y94.198 E13.6986
G1 X129.641 Y93.744 E13.777
G1 X129.371 Y93.611 E13.80103
G1 X128.335 Y93.136 E13.892
G1 X127.993 Y92.991 E13.92166
G1 X127.169 Y92.664 E13.99242
G1 X126.779 Y92.519 E14.02564
G1 X125.942 Y92.23 E14.09632
G1 X125.294 Y92.029 E14.15048
G1 X124.396 Y91.781 E14.22484
G1 X123.99 Y91.678 E14.25828
G1 X122.999 Y91.458 E14.33931
G1 X121.769 Y91.238 E14.43905
G1 X121.215 Y91.158 E14.48373
G1 X120.534 Y91.075 E14.5385
G1 X119.135 Y90.965 E14.65051
G1 X118.342 Y90.931 E14.71387
G1 X117.57 Y90.922 E14.7755
G1 X116.344 Y90.948 E14.87339
G1 X114.812 Y91.067 E14.99605
G1 X113.702 Y91.213 E15.08542
G1 X112.93 Y91.338 E15.14784
G1 X111.999 Y91.519 E15.22355
G1 X110.922 Y91.773 E15.31188
G1 X109.844 Y92.076 E15.40126
G1 X108.433 Y92.545 E15.51996
G1 X107.317 Y92.983 E15.61566
G1 X106.687 Y93.254 E15.6704
G1 X105.814 Y93.662 E15.74732
G1 X104.843 Y94.164 E15.83458
G1 X103.992 Y94.643 E15.91253
G1 X103.216 Y95.118 E15.98516
G1 X102.408 Y95.651 E16.06242
G1 X101.696 Y96.158 E16.13219
G1 X101.425 Y96.36 E16.15918
G1 X100.567 Y97.036 E16.24637
G1 X100.199 Y97.345 E16.28473
G1 X99.572 Y97.897 E16.35141
G1 X99.173 Y98.266 E16.39479
G1 X97.935 Y99.514 E16.53511
G1 X97.648 Y99.826 E16.56895
G1 X96.888 Y100.711 E16.66207
G1 X96.286 Y101.469 E16.73934
G1 X96.081 Y101.738 E16.76634
G1 X95.496 Y102.556 E16.84661
G1 X94.983 Y103.331 E16.9208
G1 X94.48 Y104.15 E16.99752
G1 X94.124 Y104.769 E17.05452
G1 X93.5 Y105.986 E17.16369
G1 X92.998 Y107.046 E17.25732
G1 X92.634 Y107.926 E17.33333
G1 X92.305 Y108.797 E17.40766
G1 X91.996 Y109.713 E17.48482
G1 X91.73 Y110.656 E17.56304
G1 X91.735 Y110.662 E17.56366
G1 X91.493 Y111.523 E17.63505
G1 X91.233 Y112.716 E17.73252
G1 X91.071 Y113.652 E17.80834
G1 X90.946 Y114.535 E17.87953
G1 X90.848 Y115.503 E17.9572
G1 X90.79 Y116.326 E18.02305
G1 X90.757 Y117.028 E18.07915
G1 X90.749 Y117.367 E18.10622
G1 X90.755 Y118.488 E18.1957
G1 X90.779 Y119.236 E18.25544
G1 X90.807 Y119.682 E18.29112
G1 X90.895 Y120.642 E18.36807
G1 X90.946 Y121.1 E18.40485
G1 X91.106 Y122.204 E18.4939
G1 X91.276 Y123.134 E18.56937
G1 X91.419 Y123.767 E18.62117
G1 X91.41 Y123.779 E18.62237
G1 X91.772 Y125.19 E18.73865
G1 X92.163 Y126.426 E18.84213
G1 X92.36 Y126.992 E18.88997
G1 X92.706 Y127.895 E18.96716
G1 X93.11 Y128.845 E19.04956
G1 X93.469 Y129.613 E19.11724
G1 X93.923 Y130.504 E19.19706
G1 X94.182 Y130.977 E19.24011
G1 X94.573 Y131.647 E19.30203
G1 X95.132 Y132.538 E19.38599
G1 X95.719 Y133.405 E19.46957
G1 X95.939 Y133.708 E19.49946
G1 X96.457 Y134.391 E19.56789
G1 X97.136 Y135.226 E19.6538
G1 X97.648 Y135.81 E19.71579
G1 X98.165 Y136.358 E19.77593
G1 X98.165 Y136.373 E19.77713
G1 X98.833 Y137.043 E19.85265
G1 X99.722 Y137.878 E19.95001
G1 X100.49 Y138.54 E20.03095
G1 X100.811 Y138.8 E20.06392
G1 X101.593 Y139.404 E20.14279
G1 X102.187 Y139.835 E20.20138
G1 X102.962 Y140.358 E20.27601
G1 X103.798 Y140.88 E20.35468
G1 X104.562 Y141.323 E20.42518
G1 X105.415 Y141.777 E20.50231
G1 X106.686 Y142.38 E20.61461
G1 X106.699 Y142.372 E20.61583
G1 X107.515 Y142.743 E20.68738
G1 X108.484 Y143.112 E20.77015
G1 X108.864 Y143.249 E20.80239
G1 X109.743 Y143.532 E20.87611
G1 X110.819 Y143.837 E20.96538
G1 X111.556 Y144.021 E21.02602
G1 X112.808 Y144.284 E21.12814
G1 X114.072 Y144.481 E21.23025
G1 X114.64 Y144.553 E21.27596
G1 X115.74 Y144.651 E21.36411
G1 X116.828 Y144.706 E21.45107
G1 X117.759 Y144.72 E21.5254
G1 X119.031 Y144.688 E21.62697
G1 X120.114 Y144.604 E21.71367
G1 X121.064 Y144.501 E21.78995
G1 X121.966 Y144.37 E21.86271
G1 X122.616 Y144.256 E21.91539
G1 X123.132 Y144.154 E21.95737
G1 X124.04 Y143.941 E22.03182
G1 X124.054 Y143.95 E22.03315
G1 X124.995 Y143.695 E22.11097
G1 X125.688 Y143.478 E22.16894
G1 X125.701 Y143.486 E22.17016
G1 X126.794 Y143.116 E22.26227
G1 X127.68 Y142.776 E22.33802
G1 X128.597 Y142.389 E22.41747
G1 X128.947 Y142.231 E22.44813
G1 X129.288 Y142.098 E22.47735
G1 X129.68 Y141.991 E22.50978
G1 X130.081 Y141.95 E22.54196
G1 X130.539 Y141.982 E22.57861
G1 X130.923 Y142.07 E22.61005
G1 X131.324 Y142.233 E22.64461
G1 X131.645 Y142.431 E22.67471
G1 X131.969 Y142.705 E22.70858
G1 X132.252 Y143.037 E22.74341
G1 X132.465 Y143.39 E22.77632
G1 X132.626 Y143.795 E22.81111
G1 X132.712 Y144.236 E22.84697
G1 X132.745 Y144.668 E22.88156
G1 X132.745 Y147.147 E23.07944
G1 X132.723 Y147.515 E23.10887
G1 X132.664 Y147.877 E23.13815
G1 X132.534 Y148.277 E23.17172
G1 X132.287 Y148.944 E23.2285
G1 X132.131 Y149.646 E23.2859
G1 X132.069 Y150.3 E23.33834
G1 X132.114 Y151.193 E23.40971
G1 X132.653 Y154.986 E23.71553
G1 X132.682 Y155.359 E23.74539
G1 X132.668 Y155.775 E23.77862
G1 X132.587 Y156.183 E23.81182
G1 X132.437 Y156.58 E23.8457
G1 X132.224 Y156.95 E23.87978
G1 X131.977 Y157.257 E23.91123
G1 X131.671 Y157.534 E23.94418
G1 X131.272 Y157.783 E23.98172
G1 X130.913 Y157.935 E24.01284
G1 X130.505 Y158.044 E24.04655
G1 X125.639 Y158.736 E24.43889
G1 X125.269 Y158.766 E24.46852
G1 X124.846 Y158.752 E24.5023
G1 X124.465 Y158.68 E24.53325
G1 X124.099 Y158.547 E24.56434
G1 X123.712 Y158.335 E24.59956
G1 X123.39 Y158.083 E24.6322
G1 X123.081 Y157.746 E24.6687
G1 X122.844 Y157.365 E24.70452
G1 X122.685 Y156.992 E24.73688
G1 X122.541 Y156.448 E24.7818
G1 X122.531 Y156.443 E24.78269
G1 X122.454 Y156.148 E24.80703
G1 X122.21 Y155.53 E24.86007
G1 X121.88 Y154.928 E24.91487
G1 X121.491 Y154.389 E24.96793
G1 X121.019 Y153.885 E25.02305
G1 X120.502 Y153.455 E25.07673
G1 X119.893 Y153.07 E25.13424
G1 X119.323 Y152.803 E25.18448
G1 X118.623 Y152.577 E25.2432
G1 X118.004 Y152.461 E25.29347
G1 X117.456 Y152.419 E25.33734
G1 X116.279 Y152.393 E25.43132
G1 X115.819 Y152.371 E25.46808
G1 X114.756 Y152.299 E25.55313
G1 X113.518 Y152.17 E25.65249
G1 X112.96 Y152.103 E25.69735
G1 X111.604 Y151.888 E25.80694
G1 X110.386 Y151.65 E25.90601
G1 X109.768 Y151.512 E25.95655
G1 X109.206 Y151.373 E26.00277
G1 X108.118 Y151.082 E26.09267
G1 X106.885 Y150.705 E26.19559
G1 X106.323 Y150.514 E26.24297
G1 X105.155 Y150.086 E26.34227
G1 X104.095 Y149.654 E26.43364
G1 X103.582 Y149.433 E26.47823
G1 X102.582 Y148.966 E26.56633
G1 X101.897 Y148.626 E26.62737
G1 X100.83 Y148.057 E26.7239
G1 X100.279 Y147.745 E26.77444
G1 X99.313 Y147.163 E26.86447
G1 X98.318 Y146.517 E26.95916
G1 X97.251 Y145.782 E27.06259
G1 X97.249 Y145.768 E27.06372
G1 X96.817 Y145.448 E27.10663
G1 X95.932 Y144.756 E27.19631
G1 X95.405 Y144.324 E27.2507
G1 X94.494 Y143.532 E27.34706
G1 X93.702 Y142.796 E27.43337
G1 X93.237 Y142.341 E27.4853
G1 X92.387 Y141.467 E27.58262
G1 X92.088 Y141.142 E27.61787
G1 X91.16 Y140.084 E27.73021
G1 X90.804 Y139.654 E27.77477
G1 X90.397 Y139.141 E27.82704
G1 X89.752 Y138.291 E27.91222
G1 X89.031 Y137.271 E28.01193
G1 X88.339 Y136.211 E28.11297
G1 X87.761 Y135.258 E28.20194
G1 X87.478 Y134.761 E28.2476
G1 X86.908 Y133.707 E28.34325
G1 X86.635 Y133.167 E28.39155
G1 X86.146 Y132.133 E28.48285
G1 X85.573 Y130.831 E28.5964
G1 X85.582 Y130.816 E28.5978
G1 X85.139 Y129.689 E28.69446
G1 X85.15 Y129.672 E28.69608
G1 X84.803 Y128.708 E28.77786
G1 X84.34 Y127.222 E28.9021
G1 X84.262 Y126.907 E28.92801
G1 X84.05 Y126.285 E28.98046
G1 X83.745 Y125.654 E29.03641
G1 X83.372 Y125.083 E29.09085
G1 X82.939 Y124.575 E29.14413
G1 X82.434 Y124.11 E29.19893
G1 X81.879 Y123.719 E29.25312
G1 X81.274 Y123.398 E29.3078
G1 X80.64 Y123.158 E29.36191
G1 X80.008 Y123.006 E29.4138
G1 X79.08 Y122.921 E29.48818
G1 X78.776 Y122.92 E29.51245
G1 X78.408 Y122.898 E29.54188
G1 X78.045 Y122.839 E29.57123
G1 X77.627 Y122.704 E29.6063
G1 X77.234 Y122.494 E29.64187
G1 X76.907 Y122.243 E29.67477
G1 X76.634 Y121.952 E29.70662
G1 X76.398 Y121.606 E29.74006
G1 X76.206 Y121.198 E29.77605
G1 X76.093 Y120.775 E29.811
G1 X76.046 Y120.367 E29.84378
G1 X76.045 Y115.44 E30.23708
G1 X76.067 Y115.08 E30.26587
G1 X76.134 Y114.68 E30.29824
G1 X76.262 Y114.3 E30.33025
G1 X76.471 Y113.91 E30.36557
G1 X76.701 Y113.61 E30.39575
G1 X77.026 Y113.296 E30.43182
G1 X77.359 Y113.074 E30.46377
G1 X77.767 Y112.881 E30.49979
G1 X78.144 Y112.779 E30.53097
G1 X78.537 Y112.728 E30.5626
G1 X79.078 Y112.72 E30.60579
G1 X79.703 Y112.68 E30.65579
G1 X80.404 Y112.547 E30.71274
G1 X81.06 Y112.331 E30.76787
G1 X81.662 Y112.046 E30.82104
G1 X82.237 Y111.678 E30.87553
G1 X82.743 Y111.256 E30.92813
G1 X83.216 Y110.753 E30.98324
G1 X83.612 Y110.204 E31.03728
G1 X83.959 Y109.566 E31.09525
G1 X84.258 Y108.735 E31.16575
G1 X84.591 Y107.602 E31.26001
G1 X84.829 Y106.861 E31.32214
G1 X85.232 Y105.724 E31.41843
G1 X85.631 Y104.701 E31.50608
G1 X86.12 Y103.563 E31.60496
G1 X86.753 Y102.215 E31.72383
G1 X86.769 Y102.211 E31.72515
