;FLAVOR:Marlin
;TIME:1488
;Filament used: 2.97191m
;Layer height: 0.4
;MINX:94.052
;MINY:94.052
;MINZ:0.24
;MAXX:140.947
;MAXY:140.948
;MAXZ:26.59
;Generated with Cura_SteamEngine 5.3.1
M140 S60
M105
M190 S60
M104 S200
M105
M109 S200
M82 ;absolute extrusion mode
; Ender 3 Custom Start G-code
G92 E0 ; Reset Extruder
G28 ; Home all axes
G1 Z2.0 F3000 ; Move Z Axis up little to prevent scratching of Heat Bed
G1 X0.1 Y20 Z0.3 F5000.0 ; Move to start position
G1 X0.1 Y200.0 Z0.3 F1500.0 E15 ; Draw the first line
G1 X0.4 Y200.0 Z0.3 F5000.0 ; Move to side a little
G1 X0.4 Y20 Z0.3 F1500.0 E30 ; Draw the second line
G92 E0 ; Reset Extruder
G1 Z2.0 F3000 ; Move Z Axis up little to prevent scratching of Heat Bed
G1 X5 Y20 Z0.3 F5000.0 ; Move over to prevent blob squish
G92 E0
G92 E0
G1 F2700 E-5
;LAYER_COUNT:63
;LAYER:-5
M107
G0 F15000 X111.914 Y112.129 Z0.24
;TYPE:SUPPORT-INTERFACE
G1 F2700 E0
G1 F2250 X111.626 Y112.452 E0.03454
G1 X111.264 Y112.899 E0.08046
G1 X110.921 Y113.408 E0.12945
G1 X110.779 Y113.644 E0.15144
G1 X110.496 Y114.174 E0.1994
G1 X110.335 Y114.552 E0.2322
G1 X110.17 Y114.995 E0.26993
G1 X110.018 Y115.482 E0.31066
G1 X109.93 Y115.847 E0.34063
G1 X109.857 Y116.236 E0.37222
G1 X109.806 Y116.609 E0.40227
G1 X109.759 Y117.163 E0.44665
G1 X109.754 Y117.785 E0.49631
G1 X109.797 Y118.251 E0.53366
G1 X109.783 Y118.267 E0.53536
G1 X109.9 Y119.009 E0.59532
G1 X110.013 Y119.516 E0.63678
G1 X110.191 Y120.074 E0.68354
G1 X110.294 Y120.356 E0.7075
G1 X110.434 Y120.678 E0.73553
G1 X110.634 Y121.093 E0.7723
G1 X110.869 Y121.514 E0.81079
G1 X111.063 Y121.811 E0.83911
G1 X111.327 Y122.181 E0.87539
G1 X111.632 Y122.558 E0.9141
G1 X111.885 Y122.839 E0.94428
G1 X112.122 Y123.08 E0.97126
G1 X112.453 Y123.375 E1.00666
G1 X112.981 Y123.793 E1.06041
G1 X113.548 Y124.171 E1.11481
G1 X114.125 Y124.476 E1.16691
G1 X114.399 Y124.601 E1.19095
G1 X114.862 Y124.775 E1.23043
G1 X114.869 Y124.77 E1.23112
G1 X115.563 Y125.014 E1.28984
G1 X116.268 Y125.149 E1.34714
G1 X116.659 Y125.199 E1.3786
G1 X117.256 Y125.243 E1.42639
G1 X117.807 Y125.243 E1.47037
G1 X118.439 Y125.196 E1.52096
G1 X118.936 Y125.118 E1.56112
G1 X119.5 Y124.987 E1.60734
G1 X119.823 Y124.892 E1.63421
G1 X120.178 Y124.772 E1.66412
G1 X120.659 Y124.572 E1.70571
G1 X120.669 Y124.579 E1.70668
G1 X121.318 Y124.243 E1.76502
G1 X121.737 Y123.992 E1.80401
G1 X122.191 Y123.665 E1.84867
G1 X122.561 Y123.365 E1.88669
G1 X122.841 Y123.112 E1.91681
G1 X123.088 Y122.869 E1.94447
G1 X123.383 Y122.538 E1.97987
G1 X123.721 Y122.123 E2.02259
G1 X124.047 Y121.645 E2.06878
G1 X124.243 Y121.315 E2.09941
G1 X124.381 Y121.064 E2.12228
G1 X124.709 Y120.364 E2.18398
G1 X124.703 Y120.353 E2.18498
G1 X124.839 Y119.984 E2.21638
G1 X124.991 Y119.475 E2.25878
G1 X125.119 Y118.944 E2.30238
G1 X125.206 Y118.271 E2.35655
G1 X125.242 Y117.762 E2.39728
G1 X125.243 Y117.134 E2.44741
G1 X125.193 Y116.546 E2.49452
G1 X125.112 Y116.059 E2.53393
G1 X124.99 Y115.547 E2.57594
G1 X125 Y115.533 E2.57731
G1 X124.889 Y115.163 E2.60815
G1 X124.771 Y114.82 E2.6371
G1 X124.568 Y114.349 E2.67804
G1 X124.578 Y114.331 E2.67969
G1 X124.251 Y113.697 E2.73663
G1 X123.989 Y113.262 E2.77717
G1 X123.677 Y112.823 E2.82016
G1 X123.368 Y112.441 E2.85938
G1 X123.108 Y112.155 E2.89023
G1 X122.878 Y111.92 E2.91648
G1 X122.547 Y111.625 E2.95187
G1 X122.09 Y111.255 E2.99881
G1 X121.631 Y110.944 E3.04307
G1 X121.325 Y110.762 E3.07149
G1 X120.88 Y110.527 E3.11166
G1 X120.395 Y110.312 E3.15401
G1 X120.377 Y110.323 E3.15569
G1 X120.021 Y110.177 E3.18641
G1 X119.433 Y109.985 E3.23578
G1 X118.732 Y109.851 E3.29275
G1 X118.34 Y109.801 E3.3243
G1 X117.744 Y109.757 E3.372
G1 X117.193 Y109.757 E3.41598
G1 X116.581 Y109.803 E3.46497
G1 X115.977 Y109.902 E3.51383
G1 X115.571 Y109.994 E3.54706
G1 X115.031 Y110.154 E3.59202
G1 X114.592 Y110.329 E3.62974
G1 X114.577 Y110.32 E3.63114
G1 X113.822 Y110.674 E3.6977
G1 X113.325 Y110.973 E3.744
G1 X112.806 Y111.336 E3.79456
G1 X112.441 Y111.632 E3.83207
G1 X112.155 Y111.892 E3.86292
G1 X111.914 Y112.129 E3.88991
G1 F2700 E-1.11009
G1 F300 Z0.44
G0 F15000 X101.01 Y100.831 Z0.44
G1 F300 Z0.24
G1 F2700 E3.88991
G1 F2250 X101.593 Y100.272 E3.95438
G1 X102.328 Y99.623 E4.03265
G1 X102.903 Y99.149 E4.09213
G1 X103.296 Y98.843 E4.13189
G1 X103.987 Y98.338 E4.20021
G1 X104.777 Y97.802 E4.27642
G1 X105.673 Y97.253 E4.3603
G1 X106.607 Y96.721 E4.4461
G1 X106.622 Y96.728 E4.44742
G1 X107.389 Y96.343 E4.51593
G1 X108.343 Y95.902 E4.59982
G1 X108.362 Y95.909 E4.60144
G1 X109.242 Y95.554 E4.67718
G1 X109.752 Y95.368 E4.72052
G1 X110.604 Y95.086 E4.79216
G1 X111.619 Y94.802 E4.87629
G1 X112.456 Y94.6 E4.94502
G1 X112.888 Y94.51 E4.98025
G1 X113.564 Y94.384 E5.03514
G1 X114.455 Y94.251 E5.10705
G1 X114.945 Y94.191 E5.14645
G1 X115.897 Y94.107 E5.22274
G1 X116.566 Y94.07 E5.27623
G1 X117.448 Y94.052 E5.34665
G1 X118.224 Y94.062 E5.40859
G1 X119.113 Y94.104 E5.47964
G1 X120.061 Y94.191 E5.55563
G1 X120.906 Y94.3 E5.62364
G1 X121.682 Y94.427 E5.68641
G1 X122.552 Y94.602 E5.75724
G1 X123.72 Y94.892 E5.85331
G1 X124.402 Y95.089 E5.90998
G1 X125.253 Y95.37 E5.98151
G1 X125.929 Y95.612 E6.03883
G1 X126.64 Y95.901 E6.10009
G1 X127.621 Y96.348 E6.18615
G1 X128.432 Y96.755 E6.25858
G1 X129.331 Y97.254 E6.34066
G1 X130.06 Y97.697 E6.40875
G1 X130.373 Y97.901 E6.43857
G1 X131.066 Y98.373 E6.5055
G1 X131.71 Y98.847 E6.56933
G1 X132.375 Y99.374 E6.63706
G1 X132.979 Y99.886 E6.70027
G1 X133.484 Y100.345 E6.75474
G1 X133.993 Y100.833 E6.81103
G1 X134.586 Y101.442 E6.87888
G1 X135.117 Y102.026 E6.94189
G1 X135.603 Y102.596 E7.00168
G1 X136.158 Y103.298 E7.07312
G1 X136.68 Y104.011 E7.14365
G1 X137.203 Y104.785 E7.21822
G1 X137.45 Y105.176 E7.25514
G1 X137.747 Y105.671 E7.30122
G1 X138.281 Y106.61 E7.38745
G1 X138.274 Y106.623 E7.38862
G1 X138.655 Y107.384 E7.45656
G1 X139.098 Y108.342 E7.54081
G1 X139.091 Y108.362 E7.5425
G1 X139.446 Y109.242 E7.61825
G1 X139.632 Y109.752 E7.66158
G1 X139.91 Y110.592 E7.73221
G1 X140.168 Y111.489 E7.80672
G1 X140.399 Y112.451 E7.88569
G1 X140.476 Y112.816 E7.91547
G1 X140.616 Y113.56 E7.9759
G1 X140.704 Y114.129 E8.02186
G1 X140.807 Y114.927 E8.08609
G1 X140.883 Y115.749 E8.15198
G1 X140.93 Y116.56 E8.21683
G1 X140.947 Y117.31 E8.27671
G1 X140.939 Y118.194 E8.34728
G1 X140.904 Y119.016 E8.41296
G1 X140.81 Y120.058 E8.49647
G1 X140.756 Y120.516 E8.53328
G1 X140.631 Y121.414 E8.60566
G1 X140.615 Y121.425 E8.60721
G1 X140.446 Y122.356 E8.68274
G1 X140.204 Y123.362 E8.76533
G1 X140.109 Y123.717 E8.79467
G1 X139.888 Y124.472 E8.85746
G1 X139.63 Y125.254 E8.92319
G1 X139.388 Y125.927 E8.98028
G1 X138.997 Y126.865 E9.0614
G1 X138.613 Y127.701 E9.13484
G1 X138.26 Y128.405 E9.1977
G1 X137.752 Y129.323 E9.28146
G1 X137.447 Y129.829 E9.32862
G1 X137.127 Y130.333 E9.37627
G1 X136.627 Y131.066 E9.4471
G1 X136.15 Y131.713 E9.51126
G1 X135.793 Y132.172 E9.55768
G1 X135.276 Y132.794 E9.62224
G1 X134.731 Y133.402 E9.68742
G1 X134.175 Y133.984 E9.75167
G1 X133.555 Y134.59 E9.82088
G1 X133.083 Y135.035 E9.87266
G1 X132.972 Y135.121 E9.88387
G1 X132.699 Y135.369 E9.91331
G1 X132.683 Y135.368 E9.91459
G1 X132.112 Y135.839 E9.97367
G1 X131.197 Y136.546 E10.06598
G1 X131.178 Y136.541 E10.06755
G1 X130.363 Y137.105 E10.14666
G1 X129.97 Y137.358 E10.18397
G1 X129.229 Y137.805 E10.25305
G1 X128.393 Y138.279 E10.32976
G1 X128.378 Y138.272 E10.33108
G1 X127.61 Y138.657 E10.39966
G1 X126.659 Y139.099 E10.48337
G1 X126.638 Y139.091 E10.48517
G1 X125.996 Y139.355 E10.54058
G1 X125.242 Y139.633 E10.60472
G1 X124.395 Y139.914 E10.67596
G1 X123.383 Y140.199 E10.75988
G1 X122.549 Y140.399 E10.82835
G1 X121.669 Y140.576 E10.9
G1 X120.645 Y140.735 E10.98272
G1 X120.055 Y140.809 E11.03018
G1 X119.103 Y140.893 E11.10647
G1 X118.434 Y140.93 E11.15995
G1 X117.552 Y140.948 E11.23037
G1 X116.776 Y140.938 E11.29232
G1 X115.887 Y140.896 E11.36337
G1 X114.938 Y140.809 E11.43944
G1 X114.084 Y140.699 E11.50817
G1 X113.318 Y140.573 E11.57014
G1 X112.442 Y140.397 E11.64146
G1 X111.61 Y140.197 E11.70977
G1 X110.597 Y139.911 E11.79379
G1 X109.714 Y139.619 E11.86803
G1 X108.981 Y139.347 E11.93044
G1 X108.125 Y138.991 E12.00444
G1 X107.287 Y138.607 E12.07802
G1 X106.569 Y138.245 E12.14221
G1 X105.643 Y137.731 E12.22675
G1 X104.994 Y137.336 E12.2874
G1 X104.154 Y136.782 E12.36772
G1 X103.289 Y136.151 E12.45319
G1 X102.819 Y135.784 E12.50079
G1 X102.17 Y135.244 E12.56818
G1 X101.588 Y134.723 E12.63053
G1 X101.004 Y134.163 E12.69512
G1 X100.263 Y133.395 E12.78031
G1 X99.691 Y132.754 E12.84889
G1 X99.146 Y132.092 E12.91733
G1 X98.839 Y131.698 E12.9572
G1 X98.333 Y131.007 E13.02557
G1 X97.894 Y130.362 E13.08785
G1 X97.643 Y129.971 E13.12494
G1 X97.25 Y129.324 E13.18537
G1 X96.721 Y128.393 E13.27084
G1 X96.728 Y128.378 E13.27216
G1 X96.38 Y127.693 E13.3335
G1 X95.894 Y126.616 E13.42781
G1 X95.633 Y125.967 E13.48365
G1 X95.352 Y125.2 E13.54886
G1 X95.051 Y124.272 E13.62673
G1 X94.791 Y123.341 E13.70389
G1 X94.532 Y122.231 E13.79488
G1 X94.383 Y121.435 E13.85952
G1 X94.263 Y120.634 E13.92418
G1 X94.162 Y119.772 E13.99346
G1 X94.101 Y119.007 E14.05471
G1 X94.07 Y118.435 E14.10044
G1 X94.052 Y117.557 E14.17054
G1 X94.07 Y116.558 E14.2503
G1 X94.119 Y115.7 E14.3189
G1 X94.193 Y114.925 E14.38105
G1 X94.299 Y114.094 E14.44792
G1 X94.428 Y113.31 E14.51134
G1 X94.602 Y112.448 E14.58154
G1 X94.792 Y111.601 E14.65083
G1 X94.805 Y111.594 E14.65201
G1 X95.099 Y110.567 E14.73728
G1 X95.368 Y109.751 E14.80586
G1 X95.583 Y109.163 E14.85584
G1 X95.89 Y108.398 E14.92164
G1 X96.013 Y108.111 E14.94656
G1 X96.346 Y107.381 E15.01061
G1 X96.615 Y106.828 E15.0597
G1 X96.886 Y106.322 E15.10552
G1 X97.253 Y105.669 E15.16531
G1 X97.647 Y105.02 E15.22592
G1 X97.9 Y104.625 E15.26336
G1 X98.373 Y103.934 E15.33021
G1 X98.749 Y103.42 E15.38104
G1 X99.206 Y102.832 E15.44049
G1 X99.725 Y102.205 E15.50546
G1 X100.273 Y101.591 E15.57115
G1 X101.01 Y100.831 E15.65566
G0 F15000 X101.203 Y101.203
G1 F2250 X111.739 Y111.739 E16.84506
G1 F2700 E11.84506
G1 F300 Z0.44
G0 F15000 X112.985 Y110.722 Z0.44
G1 F300 Z0.24
G1 F2700 E16.84506
G1 F2250 X102.376 Y100.113 E18.04269
G1 F2700 E13.04269
G1 F300 Z0.44
G0 F15000 X103.623 Y99.098 Z0.44
G1 F300 Z0.24
G1 F2700 E18.04269
G1 F2250 X114.469 Y109.944 E19.26708
G1 F2700 E14.26708
G1 F300 Z0.44
G0 F15000 X116.241 Y109.453 Z0.44
G1 F300 Z0.24
G1 F2700 E19.26708
G1 F2250 X104.953 Y98.165 E20.54137
G1 F2700 E15.54137
G1 F300 Z0.44
G0 F15000 X106.368 Y97.317 Z0.44
G1 F300 Z0.24
G1 F2700 E20.54137
G1 F2250 X118.464 Y109.413 E21.90687
G1 F2700 E16.90687
G1 F300 Z0.44
G0 F15000 X122.077 Y110.763 Z0.44
G1 F300 Z0.24
G1 F2700 E21.90687
G1 F2250 X107.873 Y96.559 E23.51034
G1 F2700 E18.51034
G1 F300 Z0.44
G0 F15000 X109.472 Y95.896 Z0.44
G1 F300 Z0.24
G1 F2700 E23.51034
G1 F2250 X139.105 Y125.529 E26.85557
G1 F2700 E21.85557
G1 F300 Z0.44
G0 F15000 X138.437 Y127.123 Z0.44
G1 F300 Z0.24
G1 F2700 E26.85557
G1 F2250 X124.239 Y112.925 E28.45836
G1 F2700 E23.45836
G1 F300 Z0.44
G0 F15000 X125.593 Y116.542 Z0.44
G1 F300 Z0.24
G1 F2700 E28.45836
G1 F2250 X137.679 Y128.628 E29.82273
G1 F2700 E24.82273
G1 F300 Z0.44
G0 F15000 X136.835 Y130.046 Z0.44
G1 F300 Z0.24
G1 F2700 E29.82273
G1 F2250 X125.546 Y118.757 E31.09713
G1 F2700 E26.09713
G1 F300 Z0.44
G0 F15000 X125.064 Y120.539 Z0.44
G1 F300 Z0.24
G1 F2700 E31.09713
G1 F2250 X135.901 Y131.376 E32.32051
G1 F2700 E27.32051
G1 F300 Z0.44
G0 F15000 X134.889 Y132.626 Z0.44
G1 F300 Z0.24
G1 F2700 E32.32051
G1 F2250 X124.277 Y122.014 E33.51848
G1 F2700 E28.51848
G1 F300 Z0.44
G0 F15000 X123.26 Y123.26 Z0.44
G1 F300 Z0.24
G1 F2700 E33.51848
G1 F2250 X133.794 Y133.794 E34.70765
G1 F2700 E29.70765
G1 F300 Z0.44
G0 F15000 X132.628 Y134.891 Z0.44
G1 F300 Z0.24
G1 F2700 E34.70765
G1 F2250 X122.019 Y124.282 E35.90529
G1 F2700 E30.90529
G1 F300 Z0.44
G0 F15000 X120.532 Y125.057 Z0.44
G1 F300 Z0.24
G1 F2700 E35.90529
G1 F2250 X131.375 Y135.9 E37.12934
G1 F2700 E32.12934
G1 F300 Z0.44
G0 F15000 X130.044 Y136.832 Z0.44
G1 F300 Z0.24
G1 F2700 E37.12934
G1 F2250 X118.76 Y125.548 E38.40317
G1 F2700 E33.40317
G1 F300 Z0.44
G0 F15000 X116.535 Y125.586 Z0.44
G1 F300 Z0.24
G1 F2700 E38.40317
G1 F2250 X128.631 Y137.682 E39.76867
G1 F2700 E34.76867
G1 F300 Z0.44
G0 F15000 X127.126 Y138.44 Z0.44
G1 F300 Z0.24
G1 F2700 E39.76867
G1 F2250 X112.915 Y124.228 E41.37299
G1 F2700 E36.37299
G1 F300 Z0.44
G0 F15000 X110.754 Y122.067 Z0.44
G1 F300 Z0.24
G1 F2700 E41.37299
G1 F2250 X96.56 Y107.874 E42.97528
G1 F2700 E37.97528
G1 F300 Z0.44
G0 F15000 X97.317 Y106.368 Z0.44
G1 F300 Z0.24
G1 F2700 E42.97528
G1 F2250 X109.404 Y118.455 E44.33976
G1 F2700 E39.33976
G1 F300 Z0.44
G0 F15000 X109.453 Y116.241 Z0.44
G1 F300 Z0.24
G1 F2700 E44.33976
G1 F2250 X98.164 Y104.953 E45.61411
G1 F2700 E40.61411
G1 F300 Z0.44
G0 F15000 X99.097 Y103.622 Z0.44
G1 F300 Z0.24
G1 F2700 E45.61411
G1 F2250 X109.94 Y114.465 E46.83816
G1 F2700 E41.83816
G1 F300 Z0.44
G0 F15000 X110.723 Y112.986 Z0.44
G1 F300 Z0.24
G1 F2700 E46.83816
G1 F2250 X100.11 Y102.372 E48.0363
G1 F2700 E43.0363
G1 F300 Z0.44
G0 F15000 X95.894 Y109.471 Z0.44
G1 F300 Z0.24
G1 F2700 E48.0363
G1 F2250 X125.524 Y139.101 E51.38119
G1 F2700 E46.38119
G1 F300 Z0.44
G0 F15000 X123.82 Y139.659 Z0.44
G1 F300 Z0.24
G1 F2700 E51.38119
G1 F2250 X95.339 Y111.179 E54.59632
G1 F2700 E49.59632
G1 F300 Z0.44
G0 F15000 X94.897 Y112.999 Z0.44
G1 F300 Z0.24
G1 F2700 E54.59632
G1 F2250 X121.999 Y140.101 E57.65582
G1 F2700 E52.65582
G1 F300 Z0.44
G0 F15000 X120.041 Y140.405 Z0.44
G1 F300 Z0.24
G1 F2700 E57.65582
G1 F2250 X94.592 Y114.957 E60.52867
G1 F2700 E55.52867
G1 F300 Z0.44
G0 F15000 X94.46 Y117.087 Z0.44
G1 F300 Z0.24
G1 F2700 E60.52867
G1 F2250 X117.912 Y140.539 E63.17613
G1 F2700 E58.17613
G1 F300 Z0.44
G0 F15000 X115.574 Y140.464 Z0.44
G1 F300 Z0.24
G1 F2700 E63.17613
G1 F2250 X94.535 Y119.426 E65.55114
G1 F2700 E60.55114
G1 F300 Z0.44
G0 F15000 X94.907 Y122.06 Z0.44
G1 F300 Z0.24
G1 F2700 E65.55114
G1 F2250 X112.933 Y140.086 E67.58607
G1 F2700 E62.58607
G1 F300 Z0.44
G0 F15000 X109.812 Y139.227 Z0.44
G1 F300 Z0.24
G1 F2700 E67.58607
G1 F2250 X95.774 Y125.19 E69.17075
G1 F2700 E64.17075
G1 F300 Z0.44
G0 F15000 X97.833 Y129.511 Z0.44
G1 F300 Z0.24
G1 F2700 E69.17075
G1 F2250 X105.489 Y137.168 E70.03508
G1 F2700 E65.03508
G1 F300 Z0.44
G0 F15000 X139.661 Y123.822 Z0.44
G1 F300 Z0.24
G1 F2700 E70.03508
G1 F2250 X111.179 Y95.34 E73.25037
G1 F2700 E68.25037
G1 F300 Z0.44
G0 F15000 X112.998 Y94.896 Z0.44
G1 F300 Z0.24
G1 F2700 E73.25037
G1 F2250 X140.104 Y122.002 E76.31033
G1 F2700 E71.31033
G1 F300 Z0.44
G0 F15000 X140.408 Y120.044 Z0.44
G1 F300 Z0.24
G1 F2700 E76.31033
G1 F2250 X114.957 Y94.592 E79.18352
G1 F2700 E74.18352
G1 F300 Z0.44
G0 F15000 X117.086 Y94.459 Z0.44
G1 F300 Z0.24
G1 F2700 E79.18352
G1 F2250 X140.541 Y117.914 E81.83132
G1 F2700 E76.83132
G1 F300 Z0.44
G0 F15000 X140.464 Y115.574 Z0.44
G1 F300 Z0.24
G1 F2700 E81.83132
G1 F2250 X119.424 Y94.534 E84.2065
G1 F2700 E79.2065
G1 F300 Z0.44
G0 F15000 X122.065 Y94.912 Z0.44
G1 F300 Z0.24
G1 F2700 E84.2065
G1 F2250 X140.091 Y112.939 E86.24149
G1 F2700 E81.24149
G1 F300 Z0.44
G0 F15000 X139.227 Y109.812 Z0.44
G1 F300 Z0.24
G1 F2700 E86.24149
G1 F2250 X125.186 Y95.771 E87.82656
G1 F2700 E82.82656
G1 F300 Z0.44
G0 F15000 X129.51 Y97.831 Z0.44
G1 F300 Z0.24
G1 F2700 E87.82656
G1 F2250 X137.173 Y105.494 E88.69162
G1 F2700 E83.69162
G1 F300 Z0.44
G0 F15000 X124.591 Y121.508 Z0.44
;TIME_ELAPSED:55.303145
;LAYER:-4
G0 X124.591 Y121.508 Z1.04
;TYPE:SUPPORT
G1 F300 Z0.84
G1 F2700 E88.69162
G1 F2250 X124.382 Y121.857 E88.7728
G1 X124.06 Y122.336 E88.88798
G1 X123.689 Y122.795 E89.00576
G1 X123.356 Y123.165 E89.1051
G1 X123.124 Y123.393 E89.17001
G1 X122.832 Y123.659 E89.24884
G1 X122.438 Y123.978 E89.35
G1 X122.079 Y124.237 E89.43834
G1 X121.845 Y124.392 E89.49436
G1 X121.453 Y124.619 E89.58475
G1 X107.704 Y138.368 E93.46502
G1 X106.763 Y137.895 E93.6752
G1 X119.183 Y125.475 E97.18039
G1 X118.515 Y125.584 E97.31546
G1 X118.192 Y125.618 E97.38027
G1 X117.594 Y125.649 E97.49977
G1 X105.856 Y137.388 E100.81263
G1 X105.206 Y136.997 E100.964
G1 X104.981 Y136.849 E101.01775
G1 X116.276 Y125.553 E104.20558
G1 X115.789 Y125.464 E104.30438
G1 X115.406 Y125.372 E104.38298
