;FLAVOR:Marlin
;TIME:1110
;Filament used: 2.19311m
;Layer height: 0.4
;MINX:81.619
;MINY:80.901
;MINZ:0.24
;MAXX:153.371
;MAXY:154.1
;MAXZ:6.59
;Generated with Cura_SteamEngine 5.3.1
M140 S60
M105
M190 S60
M104 S200
M105
M109 S200
M82 ;absolute extrusion mode
; Ender 3 Custom Start G-code
G92 E0 ; Reset Extruder
G28 ; Home all axes
G1 Z2.0 F3000 ; Move Z Axis up little to prevent scratching of Heat Bed
G1 X0.1 Y20 Z0.3 F5000.0 ; Move to start position
G1 X0.1 Y200.0 Z0.3 F1500.0 E15 ; Draw the first line
G1 X0.4 Y200.0 Z0.3 F5000.0 ; Move to side a little
G1 X0.4 Y20 Z0.3 F1500.0 E30 ; Draw the second line
G92 E0 ; Reset Extruder
G1 Z2.0 F3000 ; Move Z Axis up little to prevent scratching of Heat Bed
G1 X5 Y20 Z0.3 F5000.0 ; Move over to prevent blob squish
G92 E0
G92 E0
G1 F2700 E-5
;LAYER_COUNT:13
;LAYER:-5
M107
G0 F15000 X88.995 Y85.052 Z0.24
;TYPE:SUPPORT-INTERFACE
G1 F2700 E0
G1 F2250 X89.383 Y84.704 E0.0416
G1 X89.59 Y84.543 E0.06254
G1 X89.836 Y84.374 E0.08636
G1 X90.087 Y84.226 E0.10962
G1 X90.36 Y84.086 E0.13411
G1 X90.612 Y83.977 E0.15603
G1 X90.897 Y83.874 E0.18022
G1 X91.164 Y83.797 E0.2024
G1 X91.449 Y83.734 E0.2257
G1 X91.749 Y83.686 E0.24995
G1 X92.009 Y83.661 E0.2708
G1 X92.322 Y83.653 E0.29579
G1 X92.614 Y83.663 E0.31912
G1 X92.886 Y83.688 E0.34092
G1 X93.19 Y83.737 E0.3655
G1 X93.47 Y83.802 E0.38845
G1 X93.748 Y83.884 E0.41158
G1 X94.015 Y83.981 E0.43426
G1 X94.293 Y84.103 E0.45849
G1 X94.532 Y84.227 E0.47998
G1 X94.765 Y84.366 E0.50164
G1 X95.596 Y84.968 E0.58355
G1 X96.201 Y85.302 E0.63872
G1 X96.844 Y85.555 E0.69387
G1 X97.486 Y85.719 E0.74677
G1 X98.155 Y85.806 E0.80062
G1 X98.894 Y85.804 E0.85961
G1 X99.562 Y85.714 E0.91341
G1 X100.225 Y85.539 E0.96815
G1 X101.011 Y85.202 E1.03642
G1 X101.787 Y84.797 E1.10629
G1 X102.972 Y84.214 E1.21171
G1 X102.988 Y84.223 E1.21317
G1 X103.462 Y84.008 E1.25472
G1 X104.464 Y83.583 E1.3416
G1 X104.986 Y83.373 E1.38652
G1 X106.427 Y82.852 E1.50883
G1 X107.058 Y82.634 E1.56212
G1 X107.072 Y82.642 E1.56341
G1 X107.93 Y82.377 E1.63509
G1 X108.724 Y82.155 E1.7009
G1 X109.305 Y82.003 E1.74884
G1 X110.914 Y81.631 E1.88067
G1 X112.02 Y81.431 E1.97038
G1 X112.96 Y81.28 E2.04638
G1 X113.859 Y81.161 E2.11877
G1 X114.909 Y81.05 E2.20305
G1 X115.441 Y81.006 E2.24566
G1 X116.965 Y80.923 E2.36749
G1 X118.177 Y80.901 E2.46426
G1 X119.295 Y80.916 E2.55351
G1 X119.938 Y80.941 E2.60487
G1 X121.106 Y81.011 E2.69828
G1 X121.955 Y81.092 E2.76636
G1 X123.217 Y81.245 E2.86783
G1 X124.421 Y81.43 E2.96507
G1 X125.701 Y81.675 E3.0691
G1 X126.762 Y81.912 E3.15588
G1 X128.148 Y82.273 E3.27021
G1 X128.75 Y82.449 E3.32027
G1 X129.916 Y82.82 E3.41795
G1 X130.357 Y82.969 E3.4551
G1 X131.753 Y83.495 E3.57419
G1 X132.886 Y83.969 E3.67222
G1 X134.048 Y84.501 E3.77424
G1 X135.175 Y85.066 E3.87487
G1 X135.789 Y85.34 E3.92854
G1 X136.449 Y85.537 E3.98352
G1 X137.115 Y85.648 E4.03742
G1 X137.808 Y85.675 E4.09278
G1 X138.505 Y85.611 E4.14865
G1 X139.17 Y85.465 E4.203
G1 X139.795 Y85.243 E4.25594
G1 X140.384 Y84.948 E4.30853
G1 X140.965 Y84.557 E4.36443
G1 X141.236 Y84.348 E4.39175
G1 X141.462 Y84.193 E4.41362
G1 X141.702 Y84.052 E4.43584
G1 X141.969 Y83.914 E4.45983
G1 X142.24 Y83.797 E4.4834
G1 X142.516 Y83.697 E4.50683
G1 X142.783 Y83.62 E4.52901
G1 X143.068 Y83.557 E4.55231
G1 X143.368 Y83.509 E4.57656
G1 X143.628 Y83.484 E4.59741
G1 X143.941 Y83.476 E4.62241
G1 X144.233 Y83.486 E4.64573
G1 X144.505 Y83.511 E4.66753
G1 X144.809 Y83.56 E4.69211
G1 X145.089 Y83.625 E4.71506
G1 X145.367 Y83.707 E4.73819
G1 X145.633 Y83.804 E4.76079
G1 X145.901 Y83.922 E4.78417
G1 X146.164 Y84.057 E4.80777
G1 X146.38 Y84.186 E4.82785
G1 X146.676 Y84.395 E4.85677
G1 X147.191 Y84.823 E4.91023
G1 X150.667 Y88.276 E5.30133
G1 X151.015 Y88.664 E5.34294
G1 X151.176 Y88.871 E5.36387
G1 X151.345 Y89.118 E5.38776
G1 X151.489 Y89.36 E5.41024
G1 X151.633 Y89.641 E5.43544
G1 X151.739 Y89.883 E5.45653
G1 X151.845 Y90.178 E5.48155
G1 X151.922 Y90.445 E5.50374
G1 X151.983 Y90.722 E5.52638
G1 X152.033 Y91.029 E5.55121
G1 X152.058 Y91.29 E5.57213
G1 X152.066 Y91.595 E5.59649
G1 X152.056 Y91.896 E5.62053
G1 X152.031 Y92.167 E5.64225
G1 X151.984 Y92.46 E5.66594
G1 X151.917 Y92.751 E5.68978
G1 X151.837 Y93.026 E5.71264
G1 X151.745 Y93.28 E5.7342
G1 X151.62 Y93.563 E5.7589
G1 X151.494 Y93.809 E5.78096
G1 X151.35 Y94.048 E5.80324
G1 X150.739 Y94.901 E5.88699
G1 X150.42 Y95.476 E5.93948
G1 X150.167 Y96.117 E5.99449
G1 X149.998 Y96.785 E6.04949
G1 X149.913 Y97.455 E6.1034
G1 X149.915 Y98.12 E6.15649
G1 X150.005 Y98.829 E6.21354
G1 X150.186 Y99.507 E6.26955
G1 X150.522 Y100.289 E6.33749
G1 X150.86 Y100.947 E6.39654
G1 X151.411 Y102.08 E6.49711
G1 X151.952 Y103.305 E6.60401
G1 X152.325 Y104.222 E6.68303
G1 X152.74 Y105.346 E6.77867
G1 X153.084 Y106.333 E6.86211
G1 X153.075 Y106.351 E6.86371
G1 X153.237 Y106.882 E6.90803
G1 X153.311 Y107.267 E6.93932
G1 X153.35 Y107.561 E6.963
G1 X153.37 Y107.861 E6.987
G1 X153.371 Y108.137 E7.00903
G1 X153.355 Y108.425 E7.03206
G1 X153.316 Y108.732 E7.05676
G1 X153.266 Y108.999 E7.07844
G1 X153.194 Y109.283 E7.10183
G1 X153.099 Y109.578 E7.12657
G1 X153 Y109.828 E7.14803
G1 X152.809 Y110.234 E7.18385
G1 X152.588 Y110.583 E7.21682
G1 X152.305 Y110.968 E7.25496
G1 X152.019 Y111.282 E7.28887
G1 X150.099 Y113.214 E7.50629
G1 X149.694 Y113.58 E7.54987
G1 X149.472 Y113.754 E7.57238
G1 X149.234 Y113.917 E7.59541
G1 X148.983 Y114.066 E7.61871
G1 X148.795 Y114.163 E7.6356
G1 X148.219 Y114.506 E7.68911
G1 X147.669 Y114.929 E7.7445
G1 X147.165 Y115.44 E7.80179
G1 X146.755 Y115.982 E7.85604
G1 X146.481 Y116.451 E7.8994
G1 X146.167 Y115.829 E7.95501
G1 X145.752 Y115.215 E8.01417
G1 X145.343 Y114.748 E8.06373
G1 X144.788 Y114.258 E8.12282
G1 X144.047 Y113.751 E8.19449
G1 X143.812 Y113.565 E8.21842
G1 X143.594 Y113.37 E8.24176
G1 X143.399 Y113.171 E8.26401
G1 X143.187 Y112.927 E8.28981
G1 X143.031 Y112.724 E8.31024
G1 X142.867 Y112.478 E8.33384
G1 X142.734 Y112.248 E8.35505
G1 X142.579 Y111.923 E8.38379
G1 X142.328 Y111.269 E8.43971
G1 X142.085 Y110.398 E8.51189
G1 X141.88 Y109.752 E8.566
G1 X141.677 Y109.154 E8.61641
G1 X141.495 Y108.654 E8.65888
G1 X141.171 Y107.844 E8.72852
G1 X140.892 Y107.208 E8.78396
G1 X140.438 Y106.262 E8.86772
G1 X140.092 Y105.602 E8.9272
G1 X139.705 Y104.915 E8.99014
G1 X139.211 Y104.106 E9.06581
G1 X138.938 Y103.691 E9.10546
G1 X138.448 Y102.98 E9.17439
G1 X137.877 Y102.217 E9.25046
G1 X137.473 Y101.712 E9.30208
G1 X136.685 Y100.79 E9.3989
G1 X136.017 Y100.085 E9.47643
G1 X135.339 Y99.419 E9.55229
G1 X134.98 Y99.085 E9.59143
G1 X134.29 Y98.481 E9.66463
G1 X133.646 Y97.952 E9.73116
G1 X132.553 Y97.141 E9.8398
G1 X131.857 Y96.669 E9.90693
G1 X131.27 Y96.295 E9.96249
G1 X130.179 Y95.66 E10.06325
G1 X129.195 Y95.15 E10.15172
G1 X128.621 Y94.889 E10.20206
G1 X128.618 Y94.879 E10.20289
G1 X127.784 Y94.509 E10.27572
G1 X127.009 Y94.205 E10.34218
G1 X125.902 Y93.828 E10.43552
G1 X125.164 Y93.588 E10.49747
G1 X124.35 Y93.367 E10.5648
G1 X123.647 Y93.198 E10.62252
G1 X122.545 Y92.973 E10.7123
G1 X121.074 Y92.763 E10.83091
G1 X120.713 Y92.725 E10.85989
G1 X119.454 Y92.633 E10.96065
G1 X118.779 Y92.607 E11.01457
G1 X118.031 Y92.602 E11.07428
G1 X116.939 Y92.63 E11.16148
G1 X116.086 Y92.691 E11.22974
G1 X114.974 Y92.813 E11.31904
G1 X113.804 Y92.991 E11.41351
G1 X112.596 Y93.245 E11.51205
G1 X112.051 Y93.377 E11.55681
G1 X111.225 Y93.604 E11.62519
G1 X110.194 Y93.93 E11.7115
G1 X109.463 Y94.199 E11.77368
G1 X109.45 Y94.191 E11.7749
G1 X108.593 Y94.536 E11.84864
G1 X108.192 Y94.708 E11.88347
G1 X107.492 Y95.027 E11.94488
G1 X107.068 Y95.235 E11.98258
G1 X106.436 Y95.566 E12.03953
G1 X105.662 Y96 E12.11036
G1 X104.741 Y96.563 E12.19653
G1 X104.455 Y96.75 E12.2238
G1 X103.754 Y97.231 E12.29167
G1 X102.995 Y97.794 E12.3671
G1 X102.752 Y97.985 E12.39177
G1 X101.994 Y98.614 E12.4704
G1 X101.165 Y99.351 E12.55894
G1 X99.917 Y100.619 E12.70096
G1 X99.312 Y101.3 E12.77368
G1 X98.54 Y102.241 E12.87084
G1 X97.742 Y103.33 E12.97861
G1 X97.269 Y104.042 E13.04684
G1 X96.741 Y104.905 E13.1276
G1 X96.531 Y105.271 E13.16128
G1 X96.163 Y105.946 E13.22265
G1 X95.726 Y106.819 E13.30058
G1 X95.605 Y107.077 E13.32333
G1 X95.181 Y108.053 E13.40827
G1 X94.876 Y108.827 E13.47468
G1 X94.717 Y109.306 E13.51496
G1 X94.708 Y109.31 E13.51575
G1 X94.493 Y109.946 E13.56934
G1 X94.328 Y110.485 E13.61434
G1 X94.099 Y111.326 E13.68391
G1 X93.853 Y112.374 E13.76984
G1 X93.718 Y113.072 E13.82659
G1 X93.607 Y113.737 E13.88041
G1 X93.531 Y114.269 E13.92331
G1 X93.446 Y115.001 E13.98213
G1 X93.354 Y116.216 E14.0794
G1 X93.322 Y117.322 E14.16772
G1 X93.326 Y118.04 E14.22503
G1 X93.347 Y118.723 E14.27958
G1 X93.438 Y119.91 E14.37461
G1 X93.523 Y120.681 E14.43653
G1 X93.599 Y121.229 E14.48069
G1 X93.738 Y122.035 E14.54598
G1 X93.883 Y122.764 E14.60531
G1 X93.983 Y123.215 E14.64218
G1 X94.234 Y124.188 E14.7224
G1 X94.496 Y125.063 E14.79531
G1 X94.75 Y125.823 E14.85927
G1 X94.857 Y126.12 E14.88447
G1 X95.163 Y126.9 E14.95135
G1 X95.583 Y127.872 E15.03588
G1 X95.966 Y128.667 E15.10632
G1 X96.274 Y129.263 E15.15987
G1 X96.797 Y130.193 E15.24504
G1 X97.371 Y131.115 E15.33174
G1 X97.862 Y131.836 E15.40137
G1 X98.136 Y132.221 E15.43909
G1 X98.777 Y133.056 E15.52312
G1 X99.301 Y133.69 E15.58877
G1 X100.032 Y134.51 E15.67646
G1 X100.815 Y135.307 E15.76565
G1 X101.397 Y135.86 E15.82973
G1 X101.725 Y136.153 E15.86484
G1 X102.395 Y136.725 E15.93516
G1 X103.331 Y137.457 E16.03001
G1 X104.136 Y138.034 E16.10907
G1 X104.876 Y138.523 E16.17988
G1 X105.476 Y138.892 E16.2361
G1 X106.342 Y139.384 E16.31561
G1 X106.719 Y139.585 E16.34971
G1 X107.524 Y139.986 E16.4215
G1 X108.317 Y140.346 E16.49102
G1 X109.123 Y140.678 E16.5606
G1 X109.741 Y140.911 E16.61332
G1 X110.538 Y141.187 E16.68065
G1 X111.126 Y141.37 E16.72981
G1 X111.831 Y141.564 E16.78818
G1 X112.698 Y141.778 E16.85946
G1 X113.744 Y141.994 E16.94472
G1 X114.688 Y142.152 E17.02112
G1 X115.841 Y142.285 E17.11377
G1 X116.538 Y142.342 E17.16959
G1 X117.572 Y142.392 E17.25223
G1 X117.971 Y142.398 E17.28408
G1 X118.705 Y142.394 E17.34267
G1 X119.438 Y142.37 E17.40121
G1 X120.45 Y142.303 E17.48217
G1 X120.995 Y142.245 E17.52592
G1 X122.064 Y142.098 E17.61206
G1 X122.655 Y142.001 E17.65987
G1 X123.058 Y141.926 E17.69259
G1 X123.838 Y141.757 E17.75629
G1 X124.913 Y141.483 E17.84485
G1 X125.861 Y141.189 E17.92408
G1 X125.874 Y141.197 E17.9253
G1 X126.937 Y140.823 E18.01525
G1 X127.62 Y140.555 E18.07382
G1 X128.239 Y140.292 E18.1275
G1 X128.796 Y140.041 E18.17627
G1 X129.179 Y139.859 E18.21012
G1 X130.027 Y139.422 E18.28627
G1 X130.507 Y139.153 E18.33019
G1 X131.241 Y138.721 E18.39818
G1 X131.994 Y138.244 E18.46933
G1 X132.896 Y137.613 E18.5572
G1 X133.516 Y137.149 E18.61902
G1 X134.249 Y136.555 E18.69433
G1 X135.034 Y135.865 E18.77776
G1 X135.377 Y135.545 E18.8152
G1 X135.971 Y134.96 E18.88175
G1 X136.586 Y134.316 E18.95283
G1 X136.841 Y134.031 E18.98336
G1 X137.419 Y133.349 E19.05472
G1 X137.882 Y132.781 E19.11322
G1 X138.169 Y132.405 E19.15098
G1 X138.728 Y131.621 E19.22784
G1 X139.221 Y130.876 E19.29915
G1 X139.422 Y130.553 E19.32952
G1 X139.897 Y129.749 E19.40406
G1 X140.082 Y129.416 E19.43447
G1 X140.411 Y128.792 E19.49078
G1 X140.889 Y127.796 E19.57896
G1 X141.155 Y127.193 E19.63157
G1 X141.536 Y126.198 E19.71662
G1 X141.55 Y126.193 E19.71781
G1 X141.697 Y125.811 E19.75048
G1 X141.853 Y125.459 E19.78121
G1 X141.979 Y125.217 E19.80299
G1 X142.133 Y124.964 E19.82664
G1 X142.297 Y124.728 E19.84958
G1 X142.48 Y124.497 E19.8731
G1 X142.677 Y124.277 E19.89667
G1 X142.896 Y124.064 E19.92106
G1 X143.087 Y123.9 E19.94116
G1 X143.337 Y123.712 E19.96613
G1 X143.579 Y123.549 E19.98942
G1 X144.486 Y123.033 E20.07271
G1 X145 Y122.644 E20.12417
G1 X145.482 Y122.178 E20.17769
G1 X145.912 Y121.645 E20.23235
G1 X146.263 Y121.065 E20.28647
G1 X146.631 Y121.764 E20.34952
G1 X147.019 Y122.322 E20.40378
G1 X147.476 Y122.832 E20.45844
G1 X148.011 Y123.289 E20.51461
G1 X148.761 Y123.8 E20.58705
G1 X148.984 Y123.979 E20.60988
G1 X149.219 Y124.189 E20.63503
G1 X151.104 Y126.06 E20.84704
G1 X151.466 Y126.461 E20.89016
G1 X151.63 Y126.671 E20.91143
G1 X151.799 Y126.918 E20.93532
G1 X151.943 Y127.16 E20.9578
G1 X152.085 Y127.439 E20.98279
G1 X152.194 Y127.684 E21.00419
G1 X152.299 Y127.977 E21.02904
G1 X152.377 Y128.244 E21.05124
G1 X152.436 Y128.516 E21.07346
G1 X152.488 Y128.836 E21.09934
G1 X152.512 Y129.088 E21.11955
G1 X152.52 Y129.395 E21.14406
G1 X152.51 Y129.693 E21.16786
G1 X152.484 Y129.967 E21.18983
G1 X152.44 Y130.239 E21.21183
G1 X152.363 Y130.563 E21.23841
G1 X152.162 Y131.187 E21.29074
G1 X151.687 Y132.313 E21.38829
G1 X151.378 Y132.996 E21.44813
G1 X150.874 Y134.025 E21.5396
G1 X150.656 Y134.45 E21.57772
G1 X150.384 Y135.057 E21.63082
G1 X150.198 Y135.657 E21.68096
G1 X150.078 Y136.328 E21.73537
G1 X150.044 Y137.015 E21.79028
G1 X150.098 Y137.735 E21.84792
G1 X150.239 Y138.394 E21.90171
G1 X150.46 Y139.037 E21.95598
G1 X150.775 Y139.669 E22.01235
G1 X151.16 Y140.242 E22.06746
G1 X151.356 Y140.492 E22.09282
G1 X151.523 Y140.738 E22.11655
G1 X151.667 Y140.979 E22.13896
G1 X151.81 Y141.26 E22.16413
G1 X151.917 Y141.502 E22.18525
G1 X152.023 Y141.797 E22.21027
G1 X152.1 Y142.064 E22.23245
G1 X152.161 Y142.341 E22.25509
G1 X152.211 Y142.648 E22.27992
G1 X152.236 Y142.909 E22.30085
G1 X152.244 Y143.214 E22.32521
G1 X152.234 Y143.514 E22.34917
G1 X152.208 Y143.787 E22.37106
G1 X152.162 Y144.078 E22.39458
G1 X152.094 Y144.373 E22.41874
G1 X152.017 Y144.64 E22.44092
G1 X151.923 Y144.901 E22.46307
G1 X151.803 Y145.172 E22.48673
G1 X151.662 Y145.447 E22.5114
G1 X151.531 Y145.665 E22.5317
G1 X151.332 Y145.948 E22.55931
G1 X150.895 Y146.473 E22.61384
G1 X147.458 Y149.931 E23.00303
G1 X147.071 Y150.281 E23.04468
G1 X146.837 Y150.464 E23.06839
G1 X146.599 Y150.627 E23.09142
G1 X146.356 Y150.771 E23.11396
G1 X146.078 Y150.913 E23.13888
G1 X145.825 Y151.023 E23.1609
G1 X145.547 Y151.124 E23.18451
G1 X145.271 Y151.205 E23.20748
G1 X144.984 Y151.267 E23.23091
G1 X144.694 Y151.314 E23.25436
G1 X144.424 Y151.339 E23.27601
G1 X144.115 Y151.347 E23.30068
G1 X143.823 Y151.337 E23.32401
G1 X143.551 Y151.311 E23.34582
G1 X143.25 Y151.263 E23.37015
G1 X142.964 Y151.197 E23.39358
G1 X142.702 Y151.121 E23.41535
G1 X142.416 Y151.015 E23.4397
G1 X142.153 Y150.9 E23.46261
G1 X141.894 Y150.765 E23.48593
G1 X141.673 Y150.633 E23.50648
G1 X140.844 Y150.033 E23.58816
G1 X140.234 Y149.697 E23.64376
G1 X139.582 Y149.441 E23.69967
G1 X138.933 Y149.276 E23.75312
G1 X138.252 Y149.191 E23.80791
G1 X137.546 Y149.195 E23.86426
G1 X136.878 Y149.285 E23.91807
G1 X136.224 Y149.457 E23.97205
G1 X135.428 Y149.797 E24.04114
G1 X134.652 Y150.202 E24.11101
G1 X133.58 Y150.72 E24.20605
G1 X132.976 Y150.992 E24.25893
G1 X131.975 Y151.416 E24.34571
G1 X131.258 Y151.699 E24.40724
G1 X129.978 Y152.159 E24.51581
G1 X128.508 Y152.623 E24.63886
G1 X127.632 Y152.869 E24.71149
G1 X126.396 Y153.173 E24.81309
G1 X125.33 Y153.405 E24.90018
G1 X124.523 Y153.551 E24.96564
G1 X123.478 Y153.72 E25.05014
G1 X122.738 Y153.819 E25.10974
G1 X121.452 Y153.957 E25.21298
G1 X120.994 Y153.994 E25.24966
G1 X119.473 Y154.077 E25.37125
G1 X118.261 Y154.1 E25.46802
G1 X117.143 Y154.084 E25.55727
G1 X116.497 Y154.059 E25.60887
G1 X115.363 Y153.997 E25.69953
G1 X115.349 Y153.983 E25.70111
G1 X114.48 Y153.907 E25.77074
G1 X113.273 Y153.764 E25.86777
G1 X112.011 Y153.569 E25.9697
G1 X110.72 Y153.322 E26.07462
G1 X109.676 Y153.088 E26.16003
G1 X108.29 Y152.727 E26.27435
G1 X107.688 Y152.551 E26.32442
G1 X106.522 Y152.18 E26.42209
G1 X106.081 Y152.031 E26.45925
G1 X104.676 Y151.502 E26.57909
G1 X103.552 Y151.031 E26.67637
G1 X102.391 Y150.499 E26.77831
G1 X101.26 Y149.932 E26.8793
G1 X100.64 Y149.657 E26.93344
G1 X100.017 Y149.47 E26.98537
G1 X99.341 Y149.355 E27.0401
G1 X98.62 Y149.325 E27.09771
G1 X97.956 Y149.385 E27.15093
G1 X97.285 Y149.53 E27.20572
G1 X96.643 Y149.757 E27.26008
G1 X96.008 Y150.079 E27.31691
G1 X95.458 Y150.454 E27.37005
G1 X95.212 Y150.646 E27.39496
G1 X94.986 Y150.8 E27.41679
G1 X94.738 Y150.947 E27.4398
G1 X94.469 Y151.085 E27.46394
G1 X94.197 Y151.203 E27.48761
G1 X93.923 Y151.302 E27.51086
G1 X93.655 Y151.38 E27.53314
G1 X93.37 Y151.443 E27.55644
