;FLAVOR:Marlin
;TIME:15394
;Filament used: 33.0763m
;Layer height: 0.4
;MINX:80.4
;MINY:13.901
;MINZ:0.24
;MAXX:221.099
;MAXY:221.1
;MAXZ:7.39
;Generated with Cura_SteamEngine 5.3.1
M140 S55
M105
M190 S55
M104 S200
M105
M109 S200
M82 ;absolute extrusion mode
; Ender 3 Custom Start G-code
G92 E0 ; Reset Extruder
G28 ; Home all axes
G1 Z2.0 F3000 ; Move Z Axis up little to prevent scratching of Heat Bed
G1 X0.1 Y20 Z0.3 F5000.0 ; Move to start position
G1 X0.1 Y200.0 Z0.3 F1500.0 E15 ; Draw the first line
G1 X0.4 Y200.0 Z0.3 F5000.0 ; Move to side a little
G1 X0.4 Y20 Z0.3 F1500.0 E30 ; Draw the second line
G92 E0 ; Reset Extruder
G1 Z2.0 F3000 ; Move Z Axis up little to prevent scratching of Heat Bed
G1 X5 Y20 Z0.3 F5000.0 ; Move over to prevent blob squish
G92 E0
G92 E0
G1 F2700 E-5
;LAYER_COUNT:16
;LAYER:-5
M107
G0 F15000 X80.518 Y17.504 Z0.24
;TYPE:SUPPORT-INTERFACE
G1 F2700 E0
G1 F2250 X80.595 Y17.205 E0.02465
G1 X80.686 Y16.93 E0.04777
G1 X80.787 Y16.675 E0.06966
G1 X80.924 Y16.385 E0.09526
G1 X81.047 Y16.162 E0.11559
G1 X81.204 Y15.917 E0.13882
G1 X81.395 Y15.656 E0.16464
G1 X81.561 Y15.458 E0.18526
G1 X81.762 Y15.244 E0.2087
G1 X81.977 Y15.044 E0.23214
G1 X82.215 Y14.849 E0.2567
G1 X82.435 Y14.692 E0.27827
G1 X82.801 Y14.463 E0.31274
G1 X83.216 Y14.27 E0.34927
G1 X83.487 Y14.165 E0.37247
G1 X83.865 Y14.045 E0.40413
G1 X84.369 Y13.959 E0.44494
G1 X85.024 Y13.901 E0.49743
G1 X150.043 Y13.904 E5.68753
G1 X150.432 Y13.93 E5.71865
G1 X150.735 Y13.968 E5.74303
G1 X150.996 Y14.018 E5.76424
G1 X151.3 Y14.097 E5.78931
G1 X151.57 Y14.186 E5.812
G1 X151.825 Y14.287 E5.8339
G1 X152.115 Y14.424 E5.8595
G1 X152.338 Y14.547 E5.87983
G1 X152.583 Y14.704 E5.90306
G1 X152.844 Y14.895 E5.92887
G1 X153.042 Y15.061 E5.9495
G1 X153.256 Y15.262 E5.97294
G1 X153.456 Y15.477 E5.99638
G1 X153.651 Y15.715 E6.02094
G1 X153.805 Y15.93 E6.04205
G1 X154.037 Y16.301 E6.07697
G1 X154.23 Y16.716 E6.11351
G1 X154.335 Y16.988 E6.13678
G1 X154.455 Y17.365 E6.16836
G1 X154.541 Y17.869 E6.20918
G1 X154.6 Y18.523 E6.26159
G1 X154.6 Y75.036 E10.77271
G1 X154.643 Y75.68 E10.82423
G1 X154.766 Y76.33 E10.87703
G1 X154.989 Y77.014 E10.93446
G1 X155.263 Y77.593 E10.9856
G1 X155.647 Y78.197 E11.04273
G1 X156.068 Y78.702 E11.09521
G1 X156.589 Y79.188 E11.15208
G1 X157.145 Y79.585 E11.20662
G1 X157.713 Y79.891 E11.25812
G1 X158.353 Y80.143 E11.31303
G1 X159.05 Y80.316 E11.37035
G1 X159.969 Y80.399 E11.44401
G1 X216.543 Y80.404 E15.95999
G1 X216.932 Y80.43 E15.99111
G1 X217.235 Y80.468 E16.01549
G1 X217.496 Y80.518 E16.0367
G1 X217.8 Y80.597 E16.06177
G1 X218.07 Y80.686 E16.08447
G1 X218.325 Y80.787 E16.10636
G1 X218.615 Y80.924 E16.13196
G1 X218.838 Y81.047 E16.15229
G1 X219.083 Y81.204 E16.17552
G1 X219.344 Y81.395 E16.20134
G1 X219.542 Y81.561 E16.22196
G1 X219.756 Y81.762 E16.2454
G1 X219.956 Y81.977 E16.26884
G1 X220.151 Y82.215 E16.2934
G1 X220.305 Y82.43 E16.31451
G1 X220.537 Y82.801 E16.34944
G1 X220.73 Y83.216 E16.38597
G1 X220.835 Y83.488 E16.40924
G1 X220.955 Y83.865 E16.44083
G1 X221.041 Y84.369 E16.48164
G1 X221.099 Y85.023 E16.53405
G1 X221.096 Y150.045 E21.72439
G1 X221.072 Y150.419 E21.7543
G1 X221.032 Y150.735 E21.77973
G1 X220.982 Y150.996 E21.80094
G1 X220.905 Y151.295 E21.82559
G1 X220.814 Y151.57 E21.84871
G1 X220.713 Y151.825 E21.8706
G1 X220.576 Y152.115 E21.8962
G1 X220.453 Y152.338 E21.91653
G1 X220.296 Y152.583 E21.93976
G1 X220.105 Y152.844 E21.96558
G1 X219.939 Y153.042 E21.9862
G1 X219.738 Y153.256 E22.00964
G1 X219.522 Y153.456 E22.03314
G1 X219.287 Y153.649 E22.05741
G1 X219.064 Y153.808 E22.07927
G1 X218.801 Y153.973 E22.10406
G1 X218.568 Y154.098 E22.12516
G1 X218.286 Y154.229 E22.14998
G1 X218.012 Y154.335 E22.17344
G1 X217.636 Y154.455 E22.20494
G1 X217.131 Y154.541 E22.24583
G1 X216.476 Y154.6 E22.29833
G1 X159.969 Y154.6 E26.80896
G1 X159.331 Y154.641 E26.86
G1 X158.669 Y154.766 E26.91377
G1 X158.009 Y154.98 E26.96916
G1 X157.38 Y155.277 E27.02468
G1 X156.823 Y155.633 E27.07745
G1 X156.304 Y156.064 E27.1313
G1 X155.817 Y156.583 E27.18811
G1 X155.423 Y157.132 E27.24205
G1 X155.102 Y157.727 E27.29602
G1 X154.846 Y158.383 E27.35223
G1 X154.685 Y159.043 E27.40646
G1 X154.601 Y159.969 E27.48068
G1 X154.596 Y216.545 E31.99682
G1 X154.572 Y216.919 E32.02674
G1 X154.532 Y217.235 E32.05216
G1 X154.482 Y217.496 E32.07338
G1 X154.405 Y217.795 E32.09802
G1 X154.314 Y218.07 E32.12115
G1 X154.213 Y218.325 E32.14304
G1 X154.076 Y218.615 E32.16864
G1 X153.953 Y218.837 E32.1889
G1 X153.79 Y219.092 E32.21306
G1 X153.617 Y219.329 E32.23648
G1 X153.437 Y219.544 E32.25886
G1 X153.238 Y219.756 E32.28208
G1 X153.022 Y219.956 E32.30557
G1 X152.787 Y220.149 E32.32985
G1 X152.564 Y220.308 E32.35171
G1 X152.301 Y220.473 E32.37649
G1 X152.068 Y220.598 E32.3976
G1 X151.786 Y220.729 E32.42242
G1 X151.512 Y220.835 E32.44587
G1 X151.136 Y220.955 E32.47738
G1 X150.631 Y221.041 E32.51827
G1 X149.976 Y221.1 E32.57077
G1 X84.957 Y221.096 E37.76086
G1 X84.568 Y221.07 E37.79198
G1 X84.265 Y221.032 E37.81636
G1 X84.004 Y220.982 E37.83757
G1 X83.7 Y220.903 E37.86265
G1 X83.43 Y220.814 E37.88534
G1 X83.175 Y220.713 E37.90723
G1 X82.885 Y220.576 E37.93284
G1 X82.662 Y220.453 E37.95316
G1 X82.411 Y220.292 E37.97697
G1 X82.156 Y220.105 E38.00221
G1 X81.958 Y219.938 E38.02289
G1 X81.735 Y219.726 E38.04745
G1 X81.53 Y219.506 E38.07145
G1 X81.35 Y219.286 E38.09414
G1 X81.183 Y219.052 E38.11709
G1 X80.962 Y218.697 E38.15047
G1 X80.769 Y218.282 E38.187
G1 X80.665 Y218.014 E38.20995
G1 X80.545 Y217.635 E38.24168
G1 X80.459 Y217.131 E38.2825
G1 X80.4 Y216.477 E38.33491
G1 X80.404 Y151.443 E43.52621
G1 X80.431 Y151.028 E43.55941
G1 X80.422 Y150.227 E43.62335
G1 X80.401 Y149.884 E43.65078
G1 X80.404 Y84.944 E48.83457
G1 X80.431 Y84.528 E48.86785
G1 X80.422 Y83.727 E48.93179
G1 X80.401 Y83.384 E48.95922
G1 X80.405 Y18.455 E54.14214
G1 X80.428 Y18.081 E54.17205
G1 X80.468 Y17.763 E54.19763
G1 X80.518 Y17.504 E54.21869
G0 F15000 X80.915 Y17.558
G1 F2250 X217.439 Y154.082 E69.6307
G1 F2700 E64.6307
G1 F300 Z0.44
G0 F15000 X218.991 Y153.372 Z0.44
G1 F300 Z0.24
G1 F2700 E69.6307
G1 F2250 X81.629 Y16.01 E85.13731
G1 F2700 E80.13731
G1 F300 Z0.44
G0 F15000 X82.811 Y14.929 Z0.44
G1 F300 Z0.24
G1 F2700 E85.13731
G1 F2250 X220.072 Y152.19 E100.63251
G1 F2700 E95.63251
G1 F300 Z0.44
G0 F15000 X220.656 Y150.511 Z0.44
G1 F300 Z0.24
G1 F2700 E100.63251
G1 F2250 X84.495 Y14.35 E116.00355
G1 F2700 E111.00355
G1 F300 Z0.44
G0 F15000 X86.709 Y14.301 Z0.44
G1 F300 Z0.24
G1 F2700 E116.00355
G1 F2250 X220.695 Y148.288 E131.1291
G1 F2700 E126.1291
G1 F300 Z0.44
G0 F15000 X220.695 Y146.025 Z0.44
G1 F300 Z0.24
G1 F2700 E131.1291
G1 F2250 X88.972 Y14.301 E145.99919
G1 F2700 E140.99919
G1 F300 Z0.44
G0 F15000 X91.235 Y14.301 Z0.44
G1 F300 Z0.24
G1 F2700 E145.99919
G1 F2250 X155.244 Y78.311 E153.22513
G1 F2700 E148.22513
G1 F300 Z0.44
G0 F15000 X156.675 Y79.742 Z0.44
G1 F300 Z0.24
G1 F2700 E153.22513
G1 F2250 X220.695 Y143.762 E160.45226
G1 F2700 E155.45226
G1 F300 Z0.44
G0 F15000 X220.695 Y141.499 Z0.44
G1 F300 Z0.24
G1 F2700 E160.45226
G1 F2250 X159.993 Y80.797 E167.30483
G1 F2700 E162.30483
G1 F300 Z0.44
G0 F15000 X162.256 Y80.797 Z0.44
G1 F300 Z0.24
G1 F2700 E167.30483
G1 F2250 X220.695 Y139.237 E173.90198
G1 F2700 E168.90198
G1 F300 Z0.44
G0 F15000 X220.695 Y136.974 Z0.44
G1 F300 Z0.24
G1 F2700 E173.90198
G1 F2250 X164.518 Y80.797 E180.24373
G1 F2700 E175.24373
G1 F300 Z0.44
G0 F15000 X166.782 Y80.798 Z0.44
G1 F300 Z0.24
G1 F2700 E180.24373
G1 F2250 X220.695 Y134.711 E186.3299
G1 F2700 E181.3299
G1 F300 Z0.44
G0 F15000 X220.696 Y132.449 Z0.44
G1 F300 Z0.24
G1 F2700 E186.3299
G1 F2250 X169.045 Y80.798 E192.16071
G1 F2700 E187.16071
G1 F300 Z0.44
G0 F15000 X171.308 Y80.798 Z0.44
G1 F300 Z0.24
G1 F2700 E192.16071
G1 F2250 X220.696 Y130.186 E197.73605
G1 F2700 E192.73605
G1 F300 Z0.44
G0 F15000 X220.696 Y127.924 Z0.44
G1 F300 Z0.24
G1 F2700 E197.73605
G1 F2250 X173.571 Y80.798 E203.05598
G1 F2700 E198.05598
G1 F300 Z0.44
G0 F15000 X175.834 Y80.798 Z0.44
G1 F300 Z0.24
G1 F2700 E203.05598
G1 F2250 X220.696 Y125.661 E208.12045
G1 F2700 E203.12045
G1 F300 Z0.44
G0 F15000 X220.696 Y123.398 Z0.44
G1 F300 Z0.24
G1 F2700 E208.12045
G1 F2250 X178.097 Y80.799 E212.92939
G1 F2700 E207.92939
G1 F300 Z0.44
G0 F15000 X180.36 Y80.799 Z0.44
G1 F300 Z0.24
G1 F2700 E212.92939
G1 F2250 X220.696 Y121.135 E217.48287
G1 F2700 E212.48287
G1 F300 Z0.44
G0 F15000 X220.696 Y118.873 Z0.44
G1 F300 Z0.24
G1 F2700 E217.48287
G1 F2250 X182.623 Y80.8 E221.78088
G1 F2700 E216.78088
G1 F300 Z0.44
G0 F15000 X184.886 Y80.8 Z0.44
G1 F300 Z0.24
G1 F2700 E221.78088
G1 F2250 X220.697 Y116.611 E225.82354
G1 F2700 E220.82354
G1 F300 Z0.44
G0 F15000 X220.697 Y114.348 Z0.44
G1 F300 Z0.24
G1 F2700 E225.82354
G1 F2250 X187.149 Y80.8 E229.61072
G1 F2700 E224.61072
G1 F300 Z0.44
G0 F15000 X189.412 Y80.801 Z0.44
G1 F300 Z0.24
G1 F2700 E229.61072
G1 F2250 X220.697 Y112.085 E233.14239
G1 F2700 E228.14239
G1 F300 Z0.44
G0 F15000 X220.697 Y109.822 Z0.44
G1 F300 Z0.24
G1 F2700 E233.14239
G1 F2250 X191.675 Y80.801 E236.41859
G1 F2700 E231.41859
G1 F300 Z0.44
G0 F15000 X193.938 Y80.801 Z0.44
G1 F300 Z0.24
G1 F2700 E236.41859
G1 F2250 X220.697 Y107.56 E239.43937
G1 F2700 E234.43937
G1 F300 Z0.44
G0 F15000 X220.697 Y105.297 Z0.44
G1 F300 Z0.24
G1 F2700 E239.43937
G1 F2250 X196.201 Y80.801 E242.20469
G1 F2700 E237.20469
G1 F300 Z0.44
G0 F15000 X198.464 Y80.801 Z0.44
G1 F300 Z0.24
G1 F2700 E242.20469
G1 F2250 X220.697 Y103.034 E244.71455
G1 F2700 E239.71455
G1 F300 Z0.44
G0 F15000 X220.697 Y100.772 Z0.44
G1 F300 Z0.24
G1 F2700 E244.71455
G1 F2250 X200.727 Y80.802 E246.96893
G1 F2700 E241.96893
G1 F300 Z0.44
G0 F15000 X202.99 Y80.802 Z0.44
G1 F300 Z0.24
G1 F2700 E246.96893
G1 F2250 X220.697 Y98.509 E248.96785
G1 F2700 E243.96785
G1 F300 Z0.44
G0 F15000 X220.697 Y96.247 Z0.44
G1 F300 Z0.24
G1 F2700 E248.96785
G1 F2250 X205.254 Y80.803 E250.71125
G1 F2700 E245.71125
G1 F300 Z0.44
G0 F15000 X207.516 Y80.803 Z0.44
G1 F300 Z0.24
G1 F2700 E250.71125
G1 F2250 X220.697 Y93.984 E252.19923
G1 F2700 E247.19923
G1 F300 Z0.44
G0 F15000 X220.697 Y91.721 Z0.44
G1 F300 Z0.24
G1 F2700 E252.19923
G1 F2250 X209.779 Y80.803 E253.43175
G1 F2700 E248.43175
G1 F300 Z0.44
G0 F15000 X212.042 Y80.803 Z0.44
G1 F300 Z0.24
G1 F2700 E253.43175
G1 F2250 X220.697 Y89.458 E254.4088
G1 F2700 E249.4088
G1 F300 Z0.44
G0 F15000 X220.697 Y87.196 Z0.44
G1 F300 Z0.24
G1 F2700 E254.4088
G1 F2250 X214.305 Y80.803 E255.13044
G1 F2700 E250.13044
G1 F300 Z0.44
G0 F15000 X216.571 Y80.806 Z0.44
G1 F300 Z0.24
G1 F2700 E255.13044
G1 F2250 X220.688 Y84.923 E255.59521
G1 F2700 E250.59521
G1 F300 Z0.44
G0 F15000 X154.199 Y75.003 Z0.44
G1 F300 Z0.24
G1 F2700 E255.59521
G1 F2250 X93.497 Y14.301 E262.44777
G1 F2700 E257.44777
G1 F300 Z0.44
G0 F15000 X95.76 Y14.301 Z0.44
G1 F300 Z0.24
G1 F2700 E262.44777
G1 F2250 X154.199 Y72.74 E269.04487
G1 F2700 E264.04487
G1 F300 Z0.44
G0 F15000 X154.199 Y70.478 Z0.44
G1 F300 Z0.24
G1 F2700 E269.04487
G1 F2250 X98.023 Y14.301 E275.38656
G1 F2700 E270.38656
G1 F300 Z0.44
G0 F15000 X100.286 Y14.301 Z0.44
G1 F300 Z0.24
G1 F2700 E275.38656
G1 F2250 X154.199 Y68.215 E281.47278
G1 F2700 E276.47278
G1 F300 Z0.44
G0 F15000 X154.199 Y65.952 Z0.44
G1 F300 Z0.24
G1 F2700 E281.47278
G1 F2250 X102.549 Y14.302 E287.30348
G1 F2700 E282.30348
G1 F300 Z0.44
G0 F15000 X104.812 Y14.302 Z0.44
G1 F300 Z0.24
G1 F2700 E287.30348
G1 F2250 X154.199 Y63.689 E292.87871
G1 F2700 E287.87871
G1 F300 Z0.44
G0 F15000 X154.199 Y61.427 Z0.44
G1 F300 Z0.24
G1 F2700 E292.87871
G1 F2250 X107.075 Y14.302 E298.19853
G1 F2700 E293.19853
G1 F300 Z0.44
G0 F15000 X109.337 Y14.302 Z0.44
G1 F300 Z0.24
G1 F2700 E298.19853
G1 F2250 X154.199 Y59.164 E303.26294
G1 F2700 E298.26294
G1 F300 Z0.44
G0 F15000 X154.199 Y56.901 Z0.44
G1 F300 Z0.24
G1 F2700 E303.26294
G1 F2250 X111.6 Y14.302 E308.07189
G1 F2700 E303.07189
G1 F300 Z0.44
G0 F15000 X113.863 Y14.302 Z0.44
G1 F300 Z0.24
G1 F2700 E308.07189
G1 F2250 X154.199 Y54.638 E312.62536
G1 F2700 E307.62536
G1 F300 Z0.44
G0 F15000 X154.199 Y52.376 Z0.44
G1 F300 Z0.24
G1 F2700 E312.62536
G1 F2250 X116.126 Y14.302 E316.92343
G1 F2700 E311.92343
G1 F300 Z0.44
G0 F15000 X118.389 Y14.303 Z0.44
G1 F300 Z0.24
G1 F2700 E316.92343
G1 F2250 X154.199 Y50.113 E320.96597
G1 F2700 E315.96597
G1 F300 Z0.44
G0 F15000 X154.199 Y47.85 Z0.44
G1 F300 Z0.24
G1 F2700 E320.96597
G1 F2250 X120.652 Y14.303 E324.75304
G1 F2700 E319.75304
G1 F300 Z0.44
G0 F15000 X122.914 Y14.303 Z0.44
G1 F300 Z0.24
G1 F2700 E324.75304
G1 F2250 X154.199 Y45.587 E328.28471
G1 F2700 E323.28471
G1 F300 Z0.44
G0 F15000 X154.199 Y43.325 Z0.44
G1 F300 Z0.24
G1 F2700 E328.28471
G1 F2250 X125.177 Y14.303 E331.56096
G1 F2700 E326.56096
G1 F300 Z0.44
G0 F15000 X127.44 Y14.303 Z0.44
G1 F300 Z0.24
G1 F2700 E331.56096
G1 F2250 X154.199 Y41.062 E334.58175
G1 F2700 E329.58175
G1 F300 Z0.44
G0 F15000 X154.199 Y38.799 Z0.44
G1 F300 Z0.24
G1 F2700 E334.58175
G1 F2250 X129.703 Y14.303 E337.34707
G1 F2700 E332.34707
G1 F300 Z0.44
G0 F15000 X131.965 Y14.303 Z0.44
G1 F300 Z0.24
G1 F2700 E337.34707
G1 F2250 X154.199 Y36.536 E339.85698
G1 F2700 E334.85698
G1 F300 Z0.44
G0 F15000 X154.199 Y34.274 Z0.44
G1 F300 Z0.24
G1 F2700 E339.85698
G1 F2250 X134.229 Y14.304 E342.11137
G1 F2700 E337.11137
G1 F300 Z0.44
G0 F15000 X136.492 Y14.304 Z0.44
G1 F300 Z0.24
G1 F2700 E342.11137
G1 F2250 X154.199 Y32.011 E344.11029
G1 F2700 E339.11029
G1 F300 Z0.44
G0 F15000 X154.199 Y29.748 Z0.44
G1 F300 Z0.24
G1 F2700 E344.11029
G1 F2250 X138.754 Y14.304 E345.85379
G1 F2700 E340.85379
G1 F300 Z0.44
G0 F15000 X141.017 Y14.304 Z0.44
G1 F300 Z0.24
G1 F2700 E345.85379
G1 F2250 X154.199 Y27.485 E347.34184
G1 F2700 E342.34184
G1 F300 Z0.44
G0 F15000 X154.199 Y25.223 Z0.44
G1 F300 Z0.24
G1 F2700 E347.34184
G1 F2250 X143.28 Y14.304 E348.57447
G1 F2700 E343.57447
G1 F300 Z0.44
G0 F15000 X145.543 Y14.304 Z0.44
G1 F300 Z0.24
G1 F2700 E348.57447
G1 F2250 X154.199 Y22.96 E349.55163
G1 F2700 E344.55163
G1 F300 Z0.44
G0 F15000 X154.199 Y20.697 Z0.44
G1 F300 Z0.24
G1 F2700 E349.55163
G1 F2250 X147.805 Y14.304 E350.27338
G1 F2700 E345.27338
G1 F300 Z0.44
G0 F15000 X150.071 Y14.306 Z0.44
G1 F300 Z0.24
G1 F2700 E350.27338
G1 F2250 X154.188 Y18.424 E350.7382
G1 F2700 E345.7382
G1 F300 Z0.44
G0 F15000 X80.803 Y19.709 Z0.44
G1 F300 Z0.24
G1 F2700 E350.7382
G1 F2250 X215.293 Y154.199 E365.9206
G1 F2700 E360.9206
G1 F300 Z0.44
G0 F15000 X213.03 Y154.199 Z0.44
G1 F300 Z0.24
G1 F2700 E365.9206
G1 F2250 X80.803 Y21.971 E380.84758
G1 F2700 E375.84758
G1 F300 Z0.44
G0 F15000 X80.803 Y24.234 Z0.44
G1 F300 Z0.24
G1 F2700 E380.84758
G1 F2250 X210.768 Y154.199 E395.51915
G1 F2700 E390.51915
G1 F300 Z0.44
G0 F15000 X208.505 Y154.199 Z0.44
G1 F300 Z0.24
G1 F2700 E395.51915
G1 F2250 X80.803 Y26.497 E409.93526
G1 F2700 E404.93526
G1 F300 Z0.44
G0 F15000 X80.803 Y28.76 Z0.44
G1 F300 Z0.24
G1 F2700 E409.93526
G1 F2250 X206.242 Y154.199 E424.0959
G1 F2700 E419.0959
G1 F300 Z0.44
G0 F15000 X203.979 Y154.199 Z0.44
G1 F300 Z0.24
G1 F2700 E424.0959
G1 F2250 X80.803 Y31.022 E438.00112
G1 F2700 E433.00112
G1 F300 Z0.44
G0 F15000 X80.803 Y33.285 Z0.44
G1 F300 Z0.24
G1 F2700 E438.00112
G1 F2250 X201.717 Y154.199 E451.65094
G1 F2700 E446.65094
G1 F300 Z0.44
G0 F15000 X199.454 Y154.199 Z0.44
G1 F300 Z0.24
G1 F2700 E451.65094
G1 F2250 X80.802 Y35.547 E465.0454
G1 F2700 E460.0454
G1 F300 Z0.44
G0 F15000 X80.802 Y37.81 Z0.44
G1 F300 Z0.24
G1 F2700 E465.0454
G1 F2250 X197.191 Y154.199 E478.1844
G1 F2700 E473.1844
G1 F300 Z0.44
G0 F15000 X194.928 Y154.199 Z0.44
G1 F300 Z0.24
G1 F2700 E478.1844
G1 F2250 X80.802 Y40.073 E491.06793
G1 F2700 E486.06793
G1 F300 Z0.44
G0 F15000 X80.802 Y42.335 Z0.44
G1 F300 Z0.24
G1 F2700 E491.06793
G1 F2250 X192.666 Y154.199 E503.6961
G1 F2700 E498.6961
G1 F300 Z0.44
G0 F15000 X190.403 Y154.199 Z0.44
G1 F300 Z0.24
G1 F2700 E503.6961
G1 F2250 X80.802 Y44.598 E516.06881
G1 F2700 E511.06881
G1 F300 Z0.44
G0 F15000 X80.802 Y46.861 Z0.44
G1 F300 Z0.24
G1 F2700 E516.06881
G1 F2250 X188.14 Y154.199 E528.18605
G1 F2700 E523.18605
G1 F300 Z0.44
G0 F15000 X185.877 Y154.199 Z0.44
G1 F300 Z0.24
G1 F2700 E528.18605
G1 F2250 X80.802 Y49.124 E540.04783
G1 F2700 E535.04783
G1 F300 Z0.44
