;FLAVOR:Marlin
;TIME:1003
;Filament used: 1.84256m
;Layer height: 0.4
;MINX:75.885
;MINY:76.209
;MINZ:0.24
;MAXX:159.1
;MAXY:158.755
;MAXZ:6.59
;Generated with Cura_SteamEngine 5.3.1
M140 S60
M105
M190 S60
M104 S200
M105
M109 S200
M82 ;absolute extrusion mode
; Ender 3 Custom Start G-code
G92 E0 ; Reset Extruder
G28 ; Home all axes
G1 Z2.0 F3000 ; Move Z Axis up little to prevent scratching of Heat Bed
G1 X0.1 Y20 Z0.3 F5000.0 ; Move to start position
G1 X0.1 Y200.0 Z0.3 F1500.0 E15 ; Draw the first line
G1 X0.4 Y200.0 Z0.3 F5000.0 ; Move to side a little
G1 X0.4 Y20 Z0.3 F1500.0 E30 ; Draw the second line
G92 E0 ; Reset Extruder
G1 Z2.0 F3000 ; Move Z Axis up little to prevent scratching of Heat Bed
G1 X5 Y20 Z0.3 F5000.0 ; Move over to prevent blob squish
G92 E0
G92 E0
G1 F2700 E-5
;LAYER_COUNT:13
;LAYER:-5
M107
G0 F15000 X93.422 Y92.964 Z0.24
;TYPE:SUPPORT-INTERFACE
G1 F2700 E0
G1 F2250 X93.876 Y92.531 E0.05008
G1 X94.61 Y91.86 E0.12946
G1 X95.732 Y90.917 E0.24646
G1 X96.665 Y90.187 E0.34102
G1 X97.11 Y89.856 E0.38529
G1 X98.095 Y89.164 E0.48138
G1 X99.135 Y88.485 E0.58053
G1 X100.076 Y87.918 E0.66823
G1 X100.562 Y87.639 E0.71296
G1 X101.704 Y87.026 E0.81642
G1 X102.221 Y86.766 E0.86261
G1 X103.199 Y86.304 E0.94895
G1 X103.901 Y85.996 E1.01015
G1 X104.828 Y85.612 E1.09024
G1 X105.821 Y85.241 E1.17486
G1 X106.867 Y84.872 E1.2634
G1 X106.882 Y84.882 E1.26484
G1 X107.716 Y84.622 E1.33457
G1 X108.424 Y84.427 E1.39319
G1 X109.091 Y84.196 E1.44954
G1 X109.704 Y83.891 E1.50419
G1 X110.231 Y83.544 E1.55456
G1 X110.789 Y83.062 E1.61342
G1 X111.235 Y82.568 E1.66654
G1 X111.629 Y81.998 E1.72186
G1 X111.945 Y81.388 E1.7767
G1 X112.174 Y80.768 E1.82945
G1 X112.33 Y80.077 E1.886
G1 X112.399 Y79.25 E1.95224
G1 X112.389 Y78.891 E1.98091
G1 X112.401 Y78.88 E1.98221
G1 X112.419 Y78.582 E2.00604
G1 X112.489 Y78.169 E2.03948
G1 X112.617 Y77.789 E2.07149
G1 X112.826 Y77.399 E2.10681
G1 X113.056 Y77.099 E2.13698
G1 X113.381 Y76.785 E2.17306
G1 X113.714 Y76.563 E2.205
G1 X114.122 Y76.37 E2.24103
G1 X114.499 Y76.268 E2.27221
G1 X114.951 Y76.209 E2.3086
G1 X119.869 Y76.209 E2.70117
G1 X120.237 Y76.231 E2.7306
G1 X120.6 Y76.29 E2.75996
G1 X120.989 Y76.417 E2.79262
G1 X121.409 Y76.634 E2.83036
G1 X121.738 Y76.887 E2.86349
G1 X122.024 Y77.19 E2.89675
G1 X122.246 Y77.52 E2.92849
G1 X122.441 Y77.933 E2.96495
G1 X122.54 Y78.304 E2.9956
G1 X122.592 Y78.698 E3.02733
G1 X122.6 Y79.247 E3.07115
G1 X122.64 Y79.867 E3.12075
G1 X122.771 Y80.562 E3.1772
G1 X122.987 Y81.219 E3.23241
G1 X123.273 Y81.824 E3.28583
G1 X123.661 Y82.425 E3.34293
G1 X124.093 Y82.938 E3.39647
G1 X124.575 Y83.387 E3.44905
G1 X125.154 Y83.8 E3.50582
G1 X125.769 Y84.128 E3.56146
G1 X126.602 Y84.426 E3.63208
G1 X127.356 Y84.645 E3.69475
G1 X128.252 Y84.924 E3.76966
G1 X129.229 Y85.249 E3.85185
G1 X129.236 Y85.265 E3.85325
G1 X130.147 Y85.605 E3.93087
G1 X131.064 Y85.98 E4.00995
G1 X131.752 Y86.282 E4.06993
G1 X132.7 Y86.728 E4.15356
G1 X133.246 Y86.999 E4.20221
G1 X134.359 Y87.596 E4.30303
G1 X134.816 Y87.854 E4.34492
G1 X135.865 Y88.486 E4.44268
G1 X136.952 Y89.196 E4.54632
G1 X137.911 Y89.87 E4.63989
G1 X138.395 Y90.232 E4.68813
G1 X139.286 Y90.926 E4.77829
G1 X140.134 Y91.64 E4.86678
G1 X141.002 Y92.418 E4.95982
G1 X141.574 Y92.96 E5.02272
G1 X142.443 Y93.834 E5.12111
G1 X142.825 Y94.234 E5.16526
G1 X143.596 Y95.09 E5.25722
G1 X144.327 Y95.959 E5.34786
G1 X144.875 Y96.654 E5.41851
G1 X145.481 Y97.459 E5.49894
G1 X146.081 Y98.309 E5.582
G1 X146.498 Y98.936 E5.6421
G1 X147.096 Y99.888 E5.73185
G1 X147.371 Y100.348 E5.77463
G1 X147.956 Y101.39 E5.87002
G1 X148.536 Y102.517 E5.97119
G1 X148.777 Y103.01 E6.015
G1 X149.362 Y104.288 E6.12719
G1 X149.352 Y104.304 E6.1287
G1 X149.737 Y105.24 E6.20949
G1 X149.968 Y105.853 E6.26178
G1 X150.342 Y106.92 E6.35203
G1 X150.533 Y107.517 E6.40207
G1 X150.886 Y108.718 E6.50199
G1 X151.084 Y109.321 E6.55265
G1 X151.382 Y109.944 E6.60778
G1 X151.754 Y110.52 E6.66251
G1 X152.193 Y111.042 E6.71696
G1 X152.701 Y111.509 E6.77204
G1 X153.209 Y111.872 E6.82188
G1 X153.845 Y112.218 E6.87967
G1 X154.481 Y112.464 E6.93411
G1 X155.163 Y112.627 E6.99008
G1 X156.065 Y112.708 E7.06237
G1 X156.369 Y112.709 E7.08664
G1 X156.737 Y112.731 E7.11607
G1 X157.1 Y112.79 E7.14542
G1 X157.489 Y112.917 E7.17809
G1 X157.909 Y113.134 E7.21583
G1 X158.238 Y113.387 E7.24896
G1 X158.524 Y113.69 E7.28221
G1 X158.746 Y114.02 E7.31396
G1 X158.94 Y114.433 E7.35039
G1 X159.04 Y114.804 E7.38106
G1 X159.1 Y115.258 E7.41761
G1 X159.1 Y120.169 E7.80963
G1 X159.078 Y120.547 E7.83986
G1 X159.019 Y120.904 E7.86874
G1 X158.884 Y121.324 E7.90395
G1 X158.675 Y121.719 E7.93963
G1 X158.428 Y122.041 E7.97202
G1 X158.143 Y122.31 E8.0033
G1 X157.762 Y122.572 E8.04021
G1 X157.41 Y122.733 E8.07111
G1 X156.998 Y122.85 E8.1053
G1 X156.608 Y122.901 E8.1367
G1 X156.066 Y122.909 E8.17997
G1 X155.441 Y122.949 E8.22996
G1 X154.736 Y123.083 E8.28724
G1 X154.079 Y123.3 E8.34247
G1 X153.467 Y123.592 E8.3966
G1 X152.912 Y123.947 E8.44919
G1 X152.375 Y124.396 E8.50507
G1 X151.916 Y124.89 E8.5589
G1 X151.532 Y125.423 E8.61133
G1 X151.186 Y126.066 E8.66962
G1 X150.885 Y126.905 E8.74077
G1 X150.544 Y128.065 E8.83729
G1 X150.447 Y128.337 E8.86034
G1 X150.457 Y128.353 E8.86184
G1 X150.179 Y129.175 E8.93111
G1 X149.791 Y130.234 E9.02114
G1 X149.369 Y131.282 E9.11132
G1 X148.977 Y132.201 E9.19108
G1 X148.958 Y132.207 E9.19267
G1 X148.395 Y133.38 E9.29653
G1 X148.127 Y133.905 E9.34358
G1 X147.939 Y134.215 E9.37252
G1 X147.689 Y134.543 E9.40544
G1 X147.404 Y134.818 E9.43705
G1 X147.08 Y135.041 E9.46845
G1 X146.672 Y135.237 E9.50458
G1 X146.247 Y135.357 E9.53983
G1 X145.824 Y135.408 E9.57384
G1 X143.033 Y135.409 E9.79663
G1 X142.665 Y135.387 E9.82606
G1 X142.302 Y135.328 E9.85542
G1 X141.884 Y135.193 E9.89048
G1 X141.491 Y134.983 E9.92605
G1 X141.168 Y134.735 E9.95856
G1 X140.899 Y134.449 E9.9899
G1 X140.635 Y134.066 E10.02703
G1 X140.462 Y133.686 E10.06036
G1 X140.362 Y133.315 E10.09103
G1 X140.315 Y132.896 E10.12469
G1 X140.336 Y132.469 E10.15881
G1 X140.428 Y132.045 E10.19345
G1 X140.578 Y131.659 E10.2265
G1 X141.202 Y130.505 E10.33123
G1 X141.199 Y130.499 E10.33176
G1 X141.526 Y129.902 E10.3861
G1 X142.008 Y128.895 E10.47521
G1 X142.377 Y128.042 E10.5494
G1 X142.713 Y127.19 E10.62251
G1 X142.83 Y126.866 E10.65001
G1 X143.217 Y125.703 E10.74785
G1 X143.551 Y124.505 E10.84712
G1 X143.714 Y123.852 E10.90085
G1 X143.919 Y122.87 E10.98093
G1 X144.144 Y121.523 E11.08994
G1 X144.248 Y120.672 E11.15838
G1 X144.358 Y119.247 E11.27246
G1 X144.391 Y118.457 E11.33558
G1 X144.399 Y117.662 E11.39904
G1 X144.371 Y116.48 E11.49342
G1 X144.27 Y115.189 E11.59679
G1 X144.155 Y114.16 E11.67944
G1 X144.004 Y113.267 E11.75174
G1 X144.014 Y113.255 E11.75298
G1 X143.752 Y111.942 E11.85986
G1 X143.579 Y111.218 E11.91928
G1 X143.326 Y110.283 E11.9966
G1 X143.054 Y109.412 E12.06944
G1 X142.768 Y108.608 E12.13755
G1 X142.776 Y108.596 E12.13871
G1 X142.399 Y107.628 E12.22163
G1 X142.216 Y107.188 E12.25967
G1 X141.959 Y106.638 E12.30813
G1 X141.966 Y106.624 E12.30938
G1 X141.567 Y105.798 E12.3826
G1 X141.101 Y104.902 E12.46322
G1 X140.669 Y104.142 E12.533
G1 X140.24 Y103.44 E12.59867
G1 X139.909 Y102.925 E12.64754
G1 X139.449 Y102.256 E12.71235
G1 X139.188 Y101.894 E12.74797
G1 X138.54 Y101.047 E12.8331
G1 X137.944 Y100.326 E12.90777
G1 X137.442 Y99.757 E12.96834
G1 X136.736 Y99 E13.05097
G1 X135.651 Y97.953 E13.17133
G1 X135.335 Y97.67 E13.20519
G1 X134.708 Y97.134 E13.27104
G1 X134.248 Y96.759 E13.31841
G1 X133.636 Y96.286 E13.38016
G1 X132.861 Y95.727 E13.45643
G1 X131.929 Y95.106 E13.54583
G1 X131.204 Y94.663 E13.61365
G1 X130.502 Y94.261 E13.67823
G1 X129.641 Y93.807 E13.75592
G1 X128.744 Y93.37 E13.83557
G1 X127.903 Y93.002 E13.90885
G1 X127.401 Y92.797 E13.95213
G1 X126.699 Y92.53 E14.01209
G1 X126.074 Y92.313 E14.0649
G1 X125.298 Y92.065 E14.12993
G1 X124.055 Y91.721 E14.23288
G1 X122.625 Y91.41 E14.3497
G1 X122.62 Y91.415 E14.35026
G1 X121.639 Y91.229 E14.42996
G1 X120.993 Y91.136 E14.48206
G1 X120.389 Y91.062 E14.53064
G1 X119.649 Y90.995 E14.58995
G1 X118.676 Y90.937 E14.66776
G1 X117.883 Y90.913 E14.73109
G1 X116.954 Y90.916 E14.80524
G1 X115.872 Y90.959 E14.89168
G1 X114.91 Y91.036 E14.96872
G1 X114.015 Y91.135 E15.0406
G1 X112.806 Y91.323 E15.13826
G1 X111.869 Y91.504 E15.21444
G1 X111.38 Y91.612 E15.25442
G1 X110.917 Y91.726 E15.29248
G1 X109.689 Y92.068 E15.39423
G1 X108.729 Y92.376 E15.47471
G1 X108.259 Y92.545 E15.51458
G1 X107.191 Y92.964 E15.60616
G1 X106.543 Y93.241 E15.66241
G1 X105.789 Y93.601 E15.72911
G1 X105.776 Y93.594 E15.73029
G1 X104.822 Y94.085 E15.81594
G1 X104.024 Y94.53 E15.88887
G1 X103.559 Y94.804 E15.93195
G1 X102.607 Y95.407 E16.02191
G1 X102.049 Y95.79 E16.07593
G1 X101.235 Y96.383 E16.15632
G1 X100.906 Y96.635 E16.1894
G1 X100.024 Y97.357 E16.28039
G1 X99.146 Y98.139 E16.37424
G1 X98.666 Y98.603 E16.42753
G1 X98.01 Y99.27 E16.50221
G1 X97.49 Y99.833 E16.56339
G1 X96.844 Y100.578 E16.6421
G1 X96.199 Y101.383 E16.72444
G1 X95.62 Y102.162 E16.80192
G1 X95.02 Y103.039 E16.88674
G1 X94.68 Y103.567 E16.93687
G1 X94.186 Y104.391 E17.01356
G1 X93.676 Y105.323 E17.09837
G1 X93.222 Y106.228 E17.17919
G1 X92.903 Y106.921 E17.24009
G1 X92.717 Y107.349 E17.27734
G1 X92.293 Y108.446 E17.37122
G1 X92.297 Y108.452 E17.3718
G1 X92.004 Y109.232 E17.43831
G1 X91.769 Y109.966 E17.49983
G1 X91.501 Y110.902 E17.57755
G1 X91.285 Y111.773 E17.64918
G1 X91.084 Y112.721 E17.72654
G1 X90.925 Y113.645 E17.80138
G1 X90.796 Y114.547 E17.87411
G1 X90.686 Y115.658 E17.96323
G1 X90.63 Y116.562 E18.03553
G1 X90.605 Y117.374 E18.10038
G1 X90.606 Y118.303 E18.17453
G1 X90.648 Y119.408 E18.2628
G1 X90.722 Y120.341 E18.33751
G1 X90.819 Y121.238 E18.40953
G1 X90.885 Y121.711 E18.44766
G1 X91.005 Y122.452 E18.50758
G1 X91.194 Y123.428 E18.58693
G1 X91.44 Y124.483 E18.67341
G1 X91.769 Y125.655 E18.77058
G1 X92.114 Y126.708 E18.85903
G1 X92.229 Y127.028 E18.88617
G1 X92.62 Y128.034 E18.97233
G1 X92.801 Y128.466 E19.00972
G1 X93.129 Y129.2 E19.07389
G1 X93.388 Y129.736 E19.12141
G1 X93.732 Y130.405 E19.18146
G1 X94.272 Y131.376 E19.27015
G1 X94.545 Y131.83 E19.31244
G1 X94.926 Y132.436 E19.36957
G1 X95.457 Y133.224 E19.44543
G1 X96.115 Y134.127 E19.53461
G1 X96.693 Y134.861 E19.60919
G1 X96.974 Y135.196 E19.64409
G1 X97.619 Y135.928 E19.72197
G1 X98.136 Y136.481 E19.7824
G1 X98.788 Y137.134 E19.85606
G1 X99.485 Y137.786 E19.93225
G1 X100.191 Y138.399 E20.00688
G1 X100.904 Y138.979 E20.08025
G1 X101.674 Y139.56 E20.15725
G1 X102.454 Y140.106 E20.23325
G1 X102.876 Y140.388 E20.27376
G1 X103.741 Y140.921 E20.35487
G1 X104.447 Y141.328 E20.41992
G1 X105.445 Y141.855 E20.51001
G1 X105.804 Y142.032 E20.54196
G1 X106.646 Y142.423 E20.61606
G1 X107.015 Y142.586 E20.64827
G1 X108.09 Y142.998 E20.74016
G1 X108.957 Y143.305 E20.81358
G1 X108.962 Y143.301 E20.81409
G1 X110.006 Y143.63 E20.90147
G1 X110.011 Y143.626 E20.90198
G1 X110.701 Y143.834 E20.95951
G1 X111.569 Y144.046 E21.03083
G1 X112.378 Y144.218 E21.09685
G1 X113.29 Y144.377 E21.17075
G1 X114.502 Y144.542 E21.26839
G1 X115.593 Y144.639 E21.35582
G1 X116.689 Y144.695 E21.44342
G1 X117.636 Y144.707 E21.51902
G1 X118.546 Y144.688 E21.59168
G1 X119.002 Y144.667 E21.62812
G1 X120.003 Y144.589 E21.70826
G1 X120.892 Y144.494 E21.77963
G1 X121.363 Y144.429 E21.81759
G1 X122.115 Y144.31 E21.87836
G1 X123.049 Y144.129 E21.9543
G1 X124.116 Y143.881 E22.04175
G1 X124.864 Y143.68 E22.10357
G1 X125.459 Y143.503 E22.15313
G1 X126.388 Y143.198 E22.23118
G1 X127.256 Y142.875 E22.30511
G1 X128.121 Y142.522 E22.37968
G1 X128.855 Y142.195 E22.44382
G1 X129.16 Y142.081 E22.46982
G1 X129.548 Y141.978 E22.50186
G1 X129.967 Y141.938 E22.53546
G1 X130.411 Y141.971 E22.571
G1 X130.796 Y142.063 E22.6026
G1 X131.219 Y142.247 E22.63942
G1 X131.521 Y142.437 E22.6679
G1 X131.869 Y142.735 E22.70447
G1 X132.156 Y143.097 E22.74135
G1 X132.328 Y143.397 E22.76895
G1 X132.484 Y143.801 E22.80352
G1 X132.568 Y144.228 E22.83826
G1 X132.6 Y144.648 E22.87188
G1 X132.6 Y147.129 E23.06993
G1 X132.578 Y147.504 E23.09991
G1 X132.519 Y147.865 E23.12911
G1 X132.381 Y148.286 E23.16448
G1 X132.12 Y149.009 E23.22584
G1 X131.983 Y149.651 E23.27824
G1 X131.923 Y150.364 E23.33535
G1 X131.972 Y151.217 E23.40355
G1 X132.507 Y154.971 E23.70624
G1 X132.536 Y155.349 E23.73651
G1 X132.522 Y155.758 E23.76917
G1 X132.45 Y156.145 E23.80059
G1 X132.291 Y156.569 E23.83674
G1 X132.113 Y156.884 E23.86562
G1 X131.836 Y157.239 E23.90157
G1 X131.544 Y157.504 E23.93304
G1 X131.156 Y157.757 E23.97002
G1 X130.802 Y157.908 E24.00074
G1 X130.366 Y158.031 E24.0369
G1 X125.488 Y158.726 E24.43022
G1 X125.122 Y158.755 E24.45952
G1 X124.729 Y158.746 E24.4909
G1 X124.32 Y158.671 E24.52409
G1 X123.92 Y158.524 E24.55811
G1 X123.547 Y158.315 E24.59224
G1 X123.22 Y158.052 E24.62574
G1 X122.916 Y157.705 E24.66257
G1 X122.706 Y157.376 E24.69372
G1 X122.553 Y157.046 E24.72276
G1 X122.558 Y157.034 E24.72379
G1 X122.394 Y156.488 E24.7693
G1 X122.403 Y156.473 E24.7707
G1 X122.305 Y156.128 E24.79933
G1 X122.065 Y155.515 E24.85188
G1 X121.74 Y154.923 E24.90579
G1 X121.345 Y154.377 E24.95958
G1 X120.851 Y153.854 E25.01701
G1 X120.328 Y153.422 E25.07115
G1 X119.748 Y153.059 E25.12577
G1 X119.129 Y152.772 E25.18024
G1 X118.486 Y152.567 E25.23411
G1 X117.855 Y152.449 E25.28535
G1 X117.32 Y152.408 E25.32818
G1 X116.035 Y152.378 E25.43078
G1 X114.611 Y152.288 E25.54468
G1 X112.845 Y152.104 E25.68641
G1 X112.837 Y152.093 E25.6875
G1 X111.471 Y151.877 E25.79789
G1 X110.242 Y151.639 E25.89782
G1 X109.633 Y151.502 E25.94765
G1 X108.358 Y151.187 E26.05249
G1 X108.35 Y151.173 E26.05377
G1 X107.369 Y150.891 E26.13525
G1 X106.455 Y150.61 E26.21158
G1 X106.45 Y150.597 E26.21269
G1 X105.125 Y150.119 E26.32513
G1 X103.943 Y149.642 E26.42688
G1 X103.444 Y149.425 E26.47031
G1 X102.432 Y148.952 E26.55948
G1 X101.749 Y148.613 E26.62035
G1 X100.671 Y148.039 E26.71784
G1 X99.744 Y147.504 E26.80328
G1 X98.72 Y146.868 E26.8995
G1 X97.688 Y146.174 E26.99877
G1 X96.642 Y145.414 E27.10198
G1 X95.779 Y144.739 E27.18944
G1 X94.8 Y143.919 E27.29138
G1 X93.978 Y143.182 E27.3795
G1 X93.545 Y142.774 E27.427
G1 X92.63 Y141.861 E27.53018
G1 X91.887 Y141.07 E27.6168
G1 X91.475 Y140.609 E27.66616
G1 X90.717 Y139.712 E27.7599
G1 X90.286 Y139.173 E27.81499
G1 X89.565 Y138.242 E27.90899
G1 X89.566 Y138.222 E27.91059
G1 X88.846 Y137.202 E28.01025
G1 X88.213 Y136.233 E28.10264
G1 X87.624 Y135.259 E28.1935
G1 X87.309 Y134.71 E28.24402
G1 X86.656 Y133.513 E28.35287
G1 X86.664 Y133.497 E28.35429
G1 X86.471 Y133.117 E28.38832
G1 X85.989 Y132.097 E28.47837
G1 X85.509 Y130.987 E28.5749
G1 X85.269 Y130.388 E28.62641
G1 X84.722 Y128.907 E28.75244
G1 X84.269 Y127.439 E28.87507
G1 X84.122 Y126.919 E28.91821
G1 X83.92 Y126.315 E28.96905
G1 X83.623 Y125.688 E29.02443
G1 X83.261 Y125.12 E29.07819
G1 X82.791 Y124.561 E29.13649
G1 X82.319 Y124.126 E29.18773
G1 X81.731 Y123.707 E29.24536
G1 X81.169 Y123.407 E29.29622
G1 X80.5 Y123.149 E29.35345
G1 X79.809 Y122.987 E29.41011
G1 X78.935 Y122.91 E29.48014
G1 X78.631 Y122.909 E29.50441
G1 X78.263 Y122.887 E29.53384
G1 X77.9 Y122.828 E29.5632
G1 X77.482 Y122.693 E29.59826
G1 X77.089 Y122.483 E29.63383
G1 X76.766 Y122.235 E29.66633
G1 X76.497 Y121.95 E29.69762
G1 X76.249 Y121.587 E29.73271
G1 X76.061 Y121.189 E29.76785
G1 X75.96 Y120.813 E29.79892
G1 X75.9 Y120.358 E29.83556
G1 X75.885 Y115.405 E30.23093
G1 X75.9 Y115.392 E30.23252
G1 X75.919 Y115.082 E30.25731
G1 X75.989 Y114.669 E30.29074
G1 X76.117 Y114.289 E30.32275
G1 X76.326 Y113.899 E30.35807
G1 X76.556 Y113.599 E30.38825
G1 X76.881 Y113.285 E30.42432
G1 X77.214 Y113.063 E30.45627
G1 X77.622 Y112.87 E30.4923
G1 X77.999 Y112.768 E30.52347
G1 X78.392 Y112.717 E30.55511
G1 X78.933 Y112.709 E30.5983
G1 X79.558 Y112.669 E30.64829
G1 X80.26 Y112.536 E30.70532
G1 X80.917 Y112.319 E30.76055
G1 X81.517 Y112.035 E30.81354
G1 X82.116 Y111.648 E30.87047
G1 X82.635 Y111.211 E30.92463
G1 X83.103 Y110.702 E30.97982
G1 X83.467 Y110.193 E31.02977
G1 X83.815 Y109.553 E31.08792
G1 X84.109 Y108.738 E31.15708
G1 X84.454 Y107.555 E31.25545
G1 X84.646 Y106.956 E31.30566
G1 X85.03 Y105.859 E31.39844
G1 X85.614 Y104.351 E31.52753
