;FLAVOR:Marlin
;TIME:12365
;Filament used: 21.1071m
;Layer height: 0.4
;MINX:44.95
;MINY:65.2
;MINZ:0.2
;MAXX:190.05
;MAXY:169.8
;MAXZ:5.2
;Generated with Cura_SteamEngine 5.3.1
M140 S60
M105
M190 S60
M104 S200
M105
M109 S200
M82 ;absolute extrusion mode
; Ender 3 Custom Start G-code
G92 E0 ; Reset Extruder
G28 ; Home all axes
G1 Z2.0 F3000 ; Move Z Axis up little to prevent scratching of Heat Bed
G1 X0.1 Y20 Z0.3 F5000.0 ; Move to start position
G1 X0.1 Y200.0 Z0.3 F1500.0 E15 ; Draw the first line
G1 X0.4 Y200.0 Z0.3 F5000.0 ; Move to side a little
G1 X0.4 Y20 Z0.3 F1500.0 E30 ; Draw the second line
G92 E0 ; Reset Extruder
G1 Z2.0 F3000 ; Move Z Axis up little to prevent scratching of Heat Bed
G1 X5 Y20 Z0.3 F5000.0 ; Move over to prevent blob squish
G92 E0
G92 E0
G1 F2700 E-5
;LAYER_COUNT:13
;LAYER:0
M107
G1 F300 Z0.4
;MESH:Cube_Holder.stl(13)
G0 F6000 X50.856 Y72.891 Z0.4
;TYPE:WALL-INNER
G1 F300 Z0.2
G1 F2700 E0
G1 F1200 X50.442 Y73.011 E0.01434
G1 X49.882 Y73.098 E0.03319
G1 X49.498 Y73.092 E0.04596
G1 X49.017 Y73.026 E0.06211
G1 X48.55 Y72.879 E0.07839
G1 X48.183 Y72.705 E0.0919
G1 X47.862 Y72.508 E0.10443
G1 X47.488 Y72.173 E0.12113
G1 X47.213 Y71.852 E0.13519
G1 X47.062 Y71.631 E0.14409
G1 X46.81 Y71.159 E0.16188
G1 X46.674 Y70.678 E0.17851
G1 X46.608 Y70.226 E0.1937
G1 X46.608 Y69.798 E0.20794
G1 X46.674 Y69.317 E0.22409
G1 X46.821 Y68.85 E0.24037
G1 X46.995 Y68.483 E0.25388
G1 X47.191 Y68.163 E0.26636
G1 X47.511 Y67.803 E0.28238
G1 X47.848 Y67.513 E0.29717
G1 X48.13 Y67.325 E0.30844
G1 X48.544 Y67.109 E0.32397
G1 X49.022 Y66.974 E0.34049
G1 X49.475 Y66.908 E0.35572
G1 X49.902 Y66.908 E0.36992
G1 X50.382 Y66.974 E0.38603
G1 X50.85 Y67.12 E0.40234
G1 X51.217 Y67.295 E0.41586
G1 X51.538 Y67.492 E0.42839
G1 X51.912 Y67.827 E0.44509
G1 X52.187 Y68.148 E0.45915
G1 X52.338 Y68.369 E0.46805
G1 X52.588 Y68.839 E0.48576
G1 X52.711 Y69.258 E0.50028
G1 X52.798 Y69.819 E0.51916
G1 X52.798 Y70.117 E0.52907
G1 X52.731 Y70.654 E0.54707
G1 X52.598 Y71.11 E0.56287
G1 X52.405 Y71.517 E0.57785
G1 X52.208 Y71.839 E0.59041
G1 X51.873 Y72.211 E0.60706
G1 X51.552 Y72.487 E0.62114
G1 X51.331 Y72.638 E0.63004
G1 X50.856 Y72.891 E0.64794
G1 F2700 E-4.35206
G1 F300 Z0.4
G0 F6000 X54.05 Y169.4 Z0.4
G1 F300 Z0.2
G1 F2700 E0.64794
G1 F1200 X54.05 Y65.6 E4.10034
G1 X45.351 Y65.601 E4.38967
G1 X45.35 Y169.4 E7.84204
G1 X54.05 Y169.4 E8.13141
G0 F6000 X54.45 Y169.8
;TYPE:WALL-OUTER
G1 F1200 X54.45 Y65.2 E11.61042
G1 X44.951 Y65.201 E11.92635
G1 X44.95 Y169.8 E15.40533
G1 X54.45 Y169.8 E15.7213
G1 F2700 E10.7213
G1 F300 Z0.4
G0 F6000 X50.688 Y72.523 Z0.4
G1 F300 Z0.2
G1 F2700 E15.7213
G1 F1200 X50.33 Y72.627 E15.7337
G1 X49.868 Y72.695 E15.74923
G1 X49.552 Y72.696 E15.75974
G1 X49.12 Y72.637 E15.77424
G1 X48.744 Y72.526 E15.78728
G1 X48.392 Y72.364 E15.80017
G1 X48.09 Y72.176 E15.812
G1 X47.789 Y71.909 E15.82539
G1 X47.558 Y71.646 E15.83703
G1 X47.38 Y71.385 E15.84754
G1 X47.177 Y70.988 E15.86237
G1 X47.068 Y70.609 E15.87548
G1 X47.004 Y70.168 E15.8903
G1 X47.004 Y69.852 E15.90081
G1 X47.063 Y69.42 E15.91532
G1 X47.174 Y69.044 E15.92836
G1 X47.336 Y68.692 E15.94124
G1 X47.524 Y68.39 E15.95308
G1 X47.775 Y68.105 E15.96571
G1 X48.074 Y67.843 E15.97893
G1 X48.315 Y67.68 E15.98861
G1 X48.712 Y67.477 E16.00344
G1 X49.091 Y67.368 E16.01655
G1 X49.532 Y67.304 E16.03137
G1 X49.848 Y67.304 E16.04188
G1 X50.28 Y67.363 E16.05639
G1 X50.656 Y67.474 E16.06943
G1 X51.008 Y67.636 E16.08231
G1 X51.31 Y67.824 E16.09415
G1 X51.611 Y68.091 E16.10753
G1 X51.857 Y68.374 E16.12
G1 X52.02 Y68.615 E16.12968
G1 X52.208 Y68.975 E16.14318
G1 X52.327 Y69.37 E16.15691
G1 X52.398 Y69.861 E16.17341
G1 X52.398 Y70.117 E16.18192
G1 X52.337 Y70.585 E16.19762
G1 X52.216 Y70.982 E16.21142
G1 X52.064 Y71.308 E16.22339
G1 X51.876 Y71.61 E16.23522
G1 X51.609 Y71.911 E16.2486
G1 X51.326 Y72.157 E16.26107
G1 X51.085 Y72.32 E16.27075
G1 X50.688 Y72.523 E16.28558
G1 F2700 E11.28558
G1 F300 Z0.4
G0 F6000 X53.69 Y169.04 Z0.4
;TYPE:SKIN
G1 F300 Z0.2
G1 F2700 E16.28558
G1 F1200 X45.71 Y169.04 E16.55099
G1 X45.712 Y71.378 E19.79925
G1 F1061.9 X45.763 Y70.775 E19.82199
G1 F983.6 X45.747 Y70.313 E19.84075
G1 F1025.6 X45.744 Y69.844 E19.859
G1 F991.7 X45.764 Y69.219 E19.88417
G1 F1061.9 X45.711 Y68.664 E19.90512
G1 F1200 X45.712 Y65.962 E19.99499
G1 X48.316 Y65.961 E20.0816
G1 F1034.5 X48.926 Y66.025 E20.10526
G1 F937.5 X49.438 Y66.007 E20.12707
G1 F973.6 X49.858 Y66.005 E20.14429
G1 F941.2 X50.484 Y66.025 E20.17085
G1 F932 X50.57 Y66.01 E20.17459
G1 F1066.7 X51.047 Y65.961 E20.19253
G1 F1200 X53.69 Y65.96 E20.28044
G1 X53.69 Y68.615 E20.36874
G1 F1057.3 X53.636 Y69.181 E20.39021
G1 F983.6 X53.656 Y69.747 E20.41319
G1 F1027.8 X53.657 Y70.109 E20.42724
G1 F989.7 X53.638 Y70.774 E20.45407
G1 F1061.9 X53.69 Y71.324 E20.47484
G1 F1200 X53.69 Y169.04 E23.72488
G1 F2700 E18.72488
G1 F300 Z0.4
G0 F6000 X50.978 Y73.234 Z0.4
G1 F300 Z0.2
G1 F2700 E23.72488
G1 F1200 X51.534 Y72.935 E23.74588
G1 X51.838 Y72.721 E23.75825
G1 X52.105 Y72.489 E23.77001
G1 X52.507 Y72.04 E23.79006
G1 X52.722 Y71.689 E23.80375
G1 X52.932 Y71.25 E23.81993
G1 F1061.9 X53.137 Y70.731 E23.8409
G1 F987.7 X53.19 Y70.137 E23.865
G1 F1025.6 X53.19 Y69.78 E23.8789
G1 F983.6 X53.129 Y69.217 E23.90187
G1 F1057.3 X52.916 Y68.684 E23.92354
G1 F1200 X52.647 Y68.185 E23.9424
G1 X52.471 Y67.926 E23.95281
G1 X52.141 Y67.546 E23.96955
G1 X51.736 Y67.19 E23.98749
G1 X51.407 Y66.988 E24.00033
G1 X50.957 Y66.772 E24.01693
G1 F1111.1 X50.427 Y66.55 E24.03757
G1 F1004.2 X49.9 Y66.497 E24.05862
G1 F969.7 X49.411 Y66.504 E24.07875
G1 F1000 X48.985 Y66.551 E24.09586
G1 F1111.1 X48.386 Y66.783 E24.11893
G1 F1200 X47.946 Y67.015 E24.13547
G1 X47.648 Y67.212 E24.14736
G1 X47.265 Y67.539 E24.16411
G1 X46.906 Y67.941 E24.18203
G1 X46.69 Y68.288 E24.19563
G1 X46.472 Y68.747 E24.21253
G1 F1061.9 X46.266 Y69.252 E24.23303
G1 F989.7 X46.21 Y69.804 E24.2554
G1 F1023.5 X46.216 Y70.28 E24.27397
G1 F983.6 X46.266 Y70.739 E24.2927
G1 F1061.9 X46.484 Y71.311 E24.31571
G1 F1200 X46.715 Y71.755 E24.33235
G1 X46.935 Y72.088 E24.34563
G1 X47.232 Y72.425 E24.36057
G1 X47.636 Y72.79 E24.37868
G1 X47.995 Y73.014 E24.39275
G1 X48.471 Y73.238 E24.41025
G1 X48.951 Y73.381 E24.42691
G1 X49.448 Y73.449 E24.44359
G1 X49.913 Y73.456 E24.45906
G1 X50.476 Y73.376 E24.47797
G1 X50.978 Y73.234 E24.49532
G1 F2700 E19.49532
G1 F300 Z0.4
G0 F6000 X53.149 Y66.16 Z0.4
G1 F300 Z0.2
G1 F2700 E24.49532
G1 F1200 X53.49 Y66.501 E24.51136
G0 F6000 X53.49 Y67.066
G1 F1200 X52.583 Y66.16 E24.554
G0 F6000 X52.018 Y66.16
G1 F1200 X53.49 Y67.632 E24.62324
G0 F6000 X53.49 Y68.198
G1 F1200 X51.452 Y66.16 E24.7191
G0 F6000 X50.914 Y66.188
G1 F1200 X51.591 Y66.865 E24.75095
G1 F2700 E19.75095
G1 F300 Z0.4
G0 F6000 X52.826 Y68.1 Z0.4
G1 F300 Z0.2
G1 F2700 E24.75095
G1 F1200 X53.467 Y68.741 E24.7811
G1 F2700 E19.7811
G1 F300 Z0.4
G0 F6000 X53.336 Y70.872 Z0.4
G1 F300 Z0.2
G1 F2700 E24.7811
G1 F1200 X53.42 Y70.956 E24.78505
G0 F6000 X53.147 Y71.249
G1 F1200 X53.49 Y71.592 E24.80118
G0 F6000 X52.967 Y71.634
G1 F1200 X53.49 Y72.158 E24.82581
G0 F6000 X53.49 Y72.723
G1 F1200 X52.765 Y71.999 E24.85988
G0 F6000 X52.523 Y72.322
G1 F1200 X53.49 Y73.289 E24.90537
G0 F6000 X53.49 Y73.855
G1 F1200 X52.255 Y72.619 E24.96348
G0 F6000 X51.953 Y72.884
G1 F1200 X53.49 Y74.42 E25.03576
G0 F6000 X53.49 Y74.986
G1 F1200 X51.619 Y73.115 E25.12376
G0 F6000 X51.253 Y73.315
G1 F1200 X53.49 Y75.552 E25.22898
G0 F6000 X53.49 Y76.117
G1 F1200 X50.849 Y73.476 E25.35321
G0 F6000 X50.395 Y73.588
G1 F1200 X53.49 Y76.683 E25.49879
G0 F6000 X53.49 Y77.249
G1 F1200 X49.894 Y73.652 E25.66796
G0 F6000 X49.305 Y73.63
G1 F1200 X53.49 Y77.814 E25.86478
G0 F6000 X53.49 Y78.38
G1 F1200 X48.593 Y73.483 E26.09512
G1 F2700 E21.09512
G1 F300 Z0.4
G0 F6000 X47.285 Y72.741 Z0.4
G1 F300 Z0.2
G1 F2700 E26.09512
G1 F1200 X53.49 Y78.946 E26.38699
G0 F6000 X53.49 Y79.512
G1 F1200 X45.911 Y71.932 E26.7435
G0 F6000 X45.912 Y71.368
G1 F1200 X46.964 Y72.42 E26.79298
G0 F6000 X45.911 Y72.498
G1 F1200 X53.49 Y80.077 E27.14948
G0 F6000 X53.49 Y80.643
G1 F1200 X45.911 Y73.063 E27.50599
G0 F6000 X45.911 Y73.629
G1 F1200 X53.49 Y81.209 E27.86251
G0 F6000 X53.49 Y81.774
G1 F1200 X45.911 Y74.195 E28.219
G0 F6000 X45.911 Y74.76
G1 F1200 X53.49 Y82.34 E28.57552
G0 F6000 X53.49 Y82.906
G1 F1200 X45.911 Y75.326 E28.93204
G0 F6000 X45.911 Y75.892
G1 F1200 X53.49 Y83.471 E29.28853
G0 F6000 X53.49 Y84.037
G1 F1200 X45.911 Y76.458 E29.64502
G0 F6000 X45.911 Y77.023
G1 F1200 X53.49 Y84.603 E30.00154
G0 F6000 X53.49 Y85.168
G1 F1200 X45.911 Y77.589 E30.35803
G0 F6000 X45.911 Y78.155
G1 F1200 X53.49 Y85.734 E30.71452
G0 F6000 X53.49 Y86.3
G1 F1200 X45.911 Y78.72 E31.07104
G0 F6000 X45.911 Y79.286
G1 F1200 X53.49 Y86.865 E31.42753
G0 F6000 X53.49 Y87.431
G1 F1200 X45.911 Y79.852 E31.78403
G0 F6000 X45.911 Y80.417
G1 F1200 X53.49 Y87.997 E32.14054
G0 F6000 X53.49 Y88.563
G1 F1200 X45.911 Y80.983 E32.49706
G0 F6000 X45.911 Y81.549
G1 F1200 X53.49 Y89.128 E32.85355
G0 F6000 X53.49 Y89.694
G1 F1200 X45.911 Y82.114 E33.21007
G0 F6000 X45.911 Y82.68
G1 F1200 X53.49 Y90.26 E33.56659
G0 F6000 X53.49 Y90.825
G1 F1200 X45.911 Y83.246 E33.92308
G0 F6000 X45.911 Y83.811
G1 F1200 X53.49 Y91.391 E34.27959
G0 F6000 X53.49 Y91.957
G1 F1200 X45.911 Y84.377 E34.63611
G0 F6000 X45.911 Y84.943
G1 F1200 X53.49 Y92.522 E34.9926
G0 F6000 X53.49 Y93.088
G1 F1200 X45.911 Y85.509 E35.3491
G0 F6000 X45.911 Y86.074
G1 F1200 X53.49 Y93.654 E35.70561
G0 F6000 X53.49 Y94.219
G1 F1200 X45.911 Y86.64 E36.06211
G0 F6000 X45.911 Y87.206
G1 F1200 X53.49 Y94.785 E36.4186
G0 F6000 X53.49 Y95.351
G1 F1200 X45.911 Y87.771 E36.77512
G0 F6000 X45.911 Y88.337
G1 F1200 X53.49 Y95.916 E37.13161
G0 F6000 X53.49 Y96.482
G1 F1200 X45.911 Y88.903 E37.4881
G0 F6000 X45.911 Y89.468
G1 F1200 X53.49 Y97.048 E37.84462
G0 F6000 X53.49 Y97.613
G1 F1200 X45.911 Y90.034 E38.20111
G0 F6000 X45.911 Y90.6
G1 F1200 X53.49 Y98.179 E38.5576
G0 F6000 X53.49 Y98.745
G1 F1200 X45.911 Y91.165 E38.91412
G0 F6000 X45.911 Y91.731
G1 F1200 X53.49 Y99.311 E39.27064
G0 F6000 X53.49 Y99.876
G1 F1200 X45.911 Y92.297 E39.62713
G0 F6000 X45.911 Y92.862
G1 F1200 X53.49 Y100.442 E39.98365
G0 F6000 X53.49 Y101.008
G1 F1200 X45.911 Y93.428 E40.34016
G0 F6000 X45.911 Y93.994
G1 F1200 X53.49 Y101.573 E40.69666
G0 F6000 X53.49 Y102.139
G1 F1200 X45.911 Y94.559 E41.05317
G0 F6000 X45.911 Y95.125
G1 F1200 X53.49 Y102.705 E41.40969
G0 F6000 X53.49 Y103.27
G1 F1200 X45.911 Y95.691 E41.76618
G0 F6000 X45.911 Y96.257
G1 F1200 X53.49 Y103.836 E42.12267
G0 F6000 X53.49 Y104.402
G1 F1200 X45.911 Y96.822 E42.47919
G0 F6000 X45.911 Y97.388
G1 F1200 X53.49 Y104.967 E42.83568
G0 F6000 X53.49 Y105.533
G1 F1200 X45.911 Y97.954 E43.19218
G0 F6000 X45.911 Y98.519
G1 F1200 X53.49 Y106.099 E43.54869
G0 F6000 X53.49 Y106.664
G1 F1200 X45.911 Y99.085 E43.90519
G0 F6000 X45.911 Y99.651
G1 F1200 X53.49 Y107.23 E44.26168
G0 F6000 X53.49 Y107.796
G1 F1200 X45.911 Y100.216 E44.6182
G0 F6000 X45.911 Y100.782
G1 F1200 X53.49 Y108.361 E44.97469
G0 F6000 X53.49 Y108.927
G1 F1200 X45.911 Y101.348 E45.33118
G0 F6000 X45.911 Y101.913
G1 F1200 X53.49 Y109.493 E45.6877
G0 F6000 X53.49 Y110.059
G1 F1200 X45.911 Y102.479 E46.04421
G0 F6000 X45.911 Y103.045
G1 F1200 X53.49 Y110.624 E46.40071
G0 F6000 X53.49 Y111.19
G1 F1200 X45.911 Y103.61 E46.75722
G0 F6000 X45.911 Y104.176
G1 F1200 X53.49 Y111.756 E47.11374
G0 F6000 X53.49 Y112.321
G1 F1200 X45.911 Y104.742 E47.47023
G0 F6000 X45.911 Y105.307
G1 F1200 X53.49 Y112.887 E47.82675
G0 F6000 X53.49 Y113.453
G1 F1200 X45.911 Y105.873 E48.18327
G0 F6000 X45.911 Y106.439
G1 F1200 X53.49 Y114.018 E48.53976
G0 F6000 X53.49 Y114.584
G1 F1200 X45.911 Y107.005 E48.89625
G0 F6000 X45.911 Y107.57
G1 F1200 X53.49 Y115.15 E49.25277
G0 F6000 X53.49 Y115.715
G1 F1200 X45.911 Y108.136 E49.60926
G0 F6000 X45.911 Y108.702
G1 F1200 X53.49 Y116.281 E49.96575
G0 F6000 X53.49 Y116.847
G1 F1200 X45.911 Y109.267 E50.32227
G0 F6000 X45.911 Y109.833
G1 F1200 X53.49 Y117.412 E50.67876
G0 F6000 X53.49 Y117.978
G1 F1200 X45.911 Y110.399 E51.03526
G0 F6000 X45.911 Y110.964
G1 F1200 X53.49 Y118.544 E51.39177
G0 F6000 X53.49 Y119.11
G1 F1200 X45.911 Y111.53 E51.74829
G0 F6000 X45.911 Y112.096
G1 F1200 X53.49 Y119.675 E52.10478
G0 F6000 X53.49 Y120.241
G1 F1200 X45.911 Y112.661 E52.4613
G0 F6000 X45.911 Y113.227
G1 F1200 X53.49 Y120.807 E52.81781
G0 F6000 X53.49 Y121.372
G1 F1200 X45.911 Y113.793 E53.17431
G0 F6000 X45.911 Y114.358
G1 F1200 X53.49 Y121.938 E53.53082
G0 F6000 X53.49 Y122.504
G1 F1200 X45.911 Y114.924 E53.88734
G0 F6000 X45.911 Y115.49
G1 F1200 X53.49 Y123.069 E54.24383
G0 F6000 X53.49 Y123.635
G1 F1200 X45.911 Y116.056 E54.60033
G0 F6000 X45.911 Y116.621
G1 F1200 X53.49 Y124.201 E54.95684
G0 F6000 X53.49 Y124.766
G1 F1200 X45.911 Y117.187 E55.31334
G0 F6000 X45.911 Y117.753
G1 F1200 X53.49 Y125.332 E55.66983
G0 F6000 X53.49 Y125.898
G1 F1200 X45.911 Y118.318 E56.02635
G0 F6000 X45.911 Y118.884
G1 F1200 X53.49 Y126.463 E56.38284
G0 F6000 X53.49 Y127.029
G1 F1200 X45.911 Y119.45 E56.73933
G0 F6000 X45.911 Y120.015
G1 F1200 X53.49 Y127.595 E57.09585
G0 F6000 X53.49 Y128.16
G1 F1200 X45.91 Y120.58 E57.45239
G0 F6000 X45.91 Y121.146
G1 F1200 X53.49 Y128.726 E57.80893
G0 F6000 X53.49 Y129.292
G1 F1200 X45.91 Y121.712 E58.16547
G0 F6000 X45.91 Y122.277
G1 F1200 X53.49 Y129.858 E58.52203
G0 F6000 X53.49 Y130.423
G1 F1200 X45.91 Y122.843 E58.87857
G0 F6000 X45.91 Y123.409
G1 F1200 X53.49 Y130.989 E59.23511
G0 F6000 X53.49 Y131.555
G1 F1200 X45.91 Y123.974 E59.59167
G0 F6000 X45.91 Y124.54
G1 F1200 X53.49 Y132.12 E59.94821
G0 F6000 X53.49 Y132.686
G1 F1200 X45.91 Y125.106 E60.30475
G0 F6000 X45.91 Y125.671
G1 F1200 X53.49 Y133.252 E60.66132
G0 F6000 X53.49 Y133.817
G1 F1200 X45.91 Y126.237 E61.01786
G0 F6000 X45.91 Y126.803
G1 F1200 X53.49 Y134.383 E61.3744
G0 F6000 X53.49 Y134.949
G1 F1200 X45.91 Y127.369 E61.73094
G0 F6000 X45.91 Y127.934
G1 F1200 X53.49 Y135.514 E62.08748
G0 F6000 X53.49 Y136.08
G1 F1200 X45.91 Y128.5 E62.44402
G0 F6000 X45.91 Y129.066
G1 F1200 X53.49 Y136.646 E62.80056
G0 F6000 X53.49 Y137.211
G1 F1200 X45.91 Y129.631 E63.1571
G0 F6000 X45.91 Y130.197
G1 F1200 X53.49 Y137.777 E63.51364
G0 F6000 X53.49 Y138.343
G1 F1200 X45.91 Y130.763 E63.87018
G0 F6000 X45.91 Y131.328
G1 F1200 X53.49 Y138.909 E64.22674
G0 F6000 X53.49 Y139.474
G1 F1200 X45.91 Y131.894 E64.58328
G0 F6000 X45.91 Y132.46
G1 F1200 X53.49 Y140.04 E64.93982
G0 F6000 X53.49 Y140.606
G1 F1200 X45.91 Y133.025 E65.29638
G0 F6000 X45.91 Y133.591
G1 F1200 X53.49 Y141.171 E65.65292
G0 F6000 X53.49 Y141.737
G1 F1200 X45.91 Y134.157 E66.00946
G0 F6000 X45.91 Y134.722
G1 F1200 X53.49 Y142.303 E66.36603
G0 F6000 X53.49 Y142.868
G1 F1200 X45.91 Y135.288 E66.72257
G0 F6000 X45.91 Y135.854
G1 F1200 X53.49 Y143.434 E67.07911
G0 F6000 X53.49 Y144
G1 F1200 X45.91 Y136.419 E67.43567
G0 F6000 X45.91 Y136.985
G1 F1200 X53.49 Y144.565 E67.79221
G0 F6000 X53.49 Y145.131
G1 F1200 X45.91 Y137.551 E68.14875
G0 F6000 X45.91 Y138.117
G1 F1200 X53.49 Y145.697 E68.50529
G0 F6000 X53.49 Y146.262
G1 F1200 X45.91 Y138.682 E68.86183
G0 F6000 X45.91 Y139.248
G1 F1200 X53.49 Y146.828 E69.21837
G0 F6000 X53.49 Y147.394
G1 F1200 X45.91 Y139.814 E69.57491
G0 F6000 X45.91 Y140.379
G1 F1200 X53.49 Y147.959 E69.93145
G0 F6000 X53.49 Y148.525
G1 F1200 X45.91 Y140.945 E70.28799
G0 F6000 X45.91 Y141.511
G1 F1200 X53.49 Y149.091 E70.64453
G0 F6000 X53.49 Y149.657
G1 F1200 X45.91 Y142.076 E71.00109
G0 F6000 X45.91 Y142.642
G1 F1200 X53.49 Y150.222 E71.35763
G0 F6000 X53.49 Y150.788
G1 F1200 X45.91 Y143.208 E71.71417
G0 F6000 X45.91 Y143.773
G1 F1200 X53.49 Y151.354 E72.07074
G0 F6000 X53.49 Y151.919
G1 F1200 X45.91 Y144.339 E72.42728
G0 F6000 X45.91 Y144.905
G1 F1200 X53.49 Y152.485 E72.78382
G0 F6000 X53.49 Y153.051
G1 F1200 X45.91 Y145.47 E73.14038
G0 F6000 X45.91 Y146.036
G1 F1200 X53.49 Y153.616 E73.49692
G0 F6000 X53.49 Y154.182
G1 F1200 X45.91 Y146.602 E73.85346
G0 F6000 X45.91 Y147.168
G1 F1200 X53.49 Y154.748 E74.21
G0 F6000 X53.49 Y155.313
G1 F1200 X45.91 Y147.733 E74.56654
G0 F6000 X45.91 Y148.299
G1 F1200 X53.49 Y155.879 E74.92308
G0 F6000 X53.49 Y156.445
G1 F1200 X45.91 Y148.865 E75.27962
