;FLAVOR:Marlin
;TIME:1294
;Filament used: 2.28798m
;Layer height: 0.4
;MINX:109.935
;MINY:62.4
;MINZ:0.24
;MAXX:125.05
;MAXY:172.6
;MAXZ:6.59
;Generated with Cura_SteamEngine 5.3.1
M140 S60
M105
M190 S60
M104 S230
M105
M109 S230
M82 ;absolute extrusion mode
; Ender 3 Custom Start G-code
G92 E0 ; Reset Extruder
G28 ; Home all axes
G1 Z2.0 F3000 ; Move Z Axis up little to prevent scratching of Heat Bed
G1 X0.1 Y20 Z0.3 F5000.0 ; Move to start position
G1 X0.1 Y200.0 Z0.3 F1500.0 E15 ; Draw the first line
G1 X0.4 Y200.0 Z0.3 F5000.0 ; Move to side a little
G1 X0.4 Y20 Z0.3 F1500.0 E30 ; Draw the second line
G92 E0 ; Reset Extruder
G1 Z2.0 F3000 ; Move Z Axis up little to prevent scratching of Heat Bed
G1 X5 Y20 Z0.3 F5000.0 ; Move over to prevent blob squish
G92 E0
G92 E0
G1 F2700 E-5
;LAYER_COUNT:13
;LAYER:-5
M107
G0 F15000 X110.376 Y63.59 Z0.24
;TYPE:SUPPORT-INTERFACE
G1 F2700 E0
G1 F2250 X110.606 Y63.29 E0.03018
G1 X110.931 Y62.976 E0.06625
G1 X111.264 Y62.754 E0.0982
G1 X111.672 Y62.561 E0.13422
G1 X112.049 Y62.459 E0.1654
G1 X112.501 Y62.4 E0.20179
G1 X122.319 Y62.4 E0.9855
G1 X122.687 Y62.422 E1.01493
G1 X123.05 Y62.481 E1.04429
G1 X123.439 Y62.608 E1.07695
G1 X123.859 Y62.825 E1.11469
G1 X124.188 Y63.078 E1.14782
G1 X124.474 Y63.381 E1.18108
G1 X124.696 Y63.711 E1.21282
G1 X124.891 Y64.124 E1.24928
G1 X124.99 Y64.495 E1.27993
G1 X125.05 Y64.948 E1.31641
G1 X125.05 Y169.86 E9.69094
G1 X125.028 Y170.238 E9.72116
G1 X124.969 Y170.6 E9.75044
G1 X124.835 Y171.015 E9.78525
G1 X124.625 Y171.41 E9.82096
G1 X124.378 Y171.732 E9.85336
G1 X124.093 Y172.001 E9.88464
G1 X123.712 Y172.263 E9.92155
G1 X123.36 Y172.424 E9.95245
G1 X122.949 Y172.542 E9.98658
G1 X122.499 Y172.599 E10.02279
G1 X112.681 Y172.6 E10.8065
G1 X112.313 Y172.578 E10.83593
G1 X111.95 Y172.519 E10.86529
G1 X111.532 Y172.384 E10.90035
G1 X111.139 Y172.174 E10.93592
G1 X110.816 Y171.926 E10.96843
G1 X110.547 Y171.641 E10.99971
G1 X110.299 Y171.278 E11.0348
G1 X110.111 Y170.88 E11.06994
G1 X110.01 Y170.504 E11.10102
G1 X109.951 Y170.049 E11.13764
G1 X109.935 Y65.097 E19.51536
G1 X109.95 Y65.084 E19.51695
G1 X109.969 Y64.773 E19.54182
G1 X110.039 Y64.36 E19.57526
G1 X110.167 Y63.98 E19.60727
G1 X110.376 Y63.59 E19.64259
G0 F15000 X110.991 Y63.474
G1 F2250 X124.65 Y77.132 E21.18447
G1 F2700 E16.18447
G1 F300 Z0.44
G0 F15000 X124.65 Y79.395 Z0.44
G1 F300 Z0.24
G1 F2700 E21.18447
G1 F2250 X110.348 Y65.093 E22.79901
G1 F2700 E17.79901
G1 F300 Z0.44
G0 F15000 X110.334 Y67.342 Z0.44
G1 F300 Z0.24
G1 F2700 E22.79901
G1 F2250 X124.65 Y81.658 E24.41512
G1 F2700 E19.41512
G1 F300 Z0.44
G0 F15000 X124.65 Y83.92 Z0.44
G1 F300 Z0.24
G1 F2700 E24.41512
G1 F2250 X110.334 Y69.605 E26.03118
G1 F2700 E21.03118
G1 F300 Z0.44
G0 F15000 X110.334 Y71.868 Z0.44
G1 F300 Z0.24
G1 F2700 E26.03118
G1 F2250 X124.65 Y86.183 E27.64724
G1 F2700 E22.64724
G1 F300 Z0.44
G0 F15000 X124.65 Y88.446 Z0.44
G1 F300 Z0.24
G1 F2700 E27.64724
G1 F2250 X110.335 Y74.131 E29.26324
G1 F2700 E24.26324
G1 F300 Z0.44
G0 F15000 X110.335 Y76.394 Z0.44
G1 F300 Z0.24
G1 F2700 E29.26324
G1 F2250 X124.65 Y90.709 E30.87924
G1 F2700 E25.87924
G1 F300 Z0.44
G0 F15000 X124.65 Y92.971 Z0.44
G1 F300 Z0.24
G1 F2700 E30.87924
G1 F2250 X110.336 Y78.657 E32.49513
G1 F2700 E27.49513
G1 F300 Z0.44
G0 F15000 X110.336 Y80.92 Z0.44
G1 F300 Z0.24
G1 F2700 E32.49513
G1 F2250 X124.65 Y95.234 E34.11101
G1 F2700 E29.11101
G1 F300 Z0.44
G0 F15000 X124.65 Y97.497 Z0.44
G1 F300 Z0.24
G1 F2700 E34.11101
G1 F2250 X110.336 Y83.184 E35.72685
G1 F2700 E30.72685
G1 F300 Z0.44
G0 F15000 X110.336 Y85.446 Z0.44
G1 F300 Z0.24
G1 F2700 E35.72685
G1 F2250 X124.65 Y99.76 E37.34273
G1 F2700 E32.34273
G1 F300 Z0.44
G0 F15000 X124.65 Y102.022 Z0.44
G1 F300 Z0.24
G1 F2700 E37.34273
G1 F2250 X110.337 Y87.71 E38.95845
G1 F2700 E33.95845
G1 F300 Z0.44
G0 F15000 X110.337 Y89.972 Z0.44
G1 F300 Z0.24
G1 F2700 E38.95845
G1 F2250 X124.65 Y104.285 E40.57423
G1 F2700 E35.57423
G1 F300 Z0.44
G0 F15000 X124.65 Y106.548 Z0.44
G1 F300 Z0.24
G1 F2700 E40.57423
G1 F2250 X110.338 Y92.236 E42.18989
G1 F2700 E37.18989
G1 F300 Z0.44
G0 F15000 X110.338 Y94.499 Z0.44
G1 F300 Z0.24
G1 F2700 E42.18989
G1 F2250 X124.65 Y108.811 E43.80555
G1 F2700 E38.80555
G1 F300 Z0.44
G0 F15000 X124.65 Y111.073 Z0.44
G1 F300 Z0.24
G1 F2700 E43.80555
G1 F2250 X110.339 Y96.762 E45.4211
G1 F2700 E40.4211
G1 F300 Z0.44
G0 F15000 X110.339 Y99.025 Z0.44
G1 F300 Z0.24
G1 F2700 E45.4211
G1 F2250 X124.65 Y113.336 E47.03665
G1 F2700 E42.03665
G1 F300 Z0.44
G0 F15000 X124.65 Y115.599 Z0.44
G1 F300 Z0.24
G1 F2700 E47.03665
G1 F2250 X110.339 Y101.288 E48.6522
G1 F2700 E43.6522
G1 F300 Z0.44
G0 F15000 X110.339 Y103.551 Z0.44
G1 F300 Z0.24
G1 F2700 E48.6522
G1 F2250 X124.65 Y117.861 E50.26769
G1 F2700 E45.26769
G1 F300 Z0.44
G0 F15000 X124.65 Y120.124 Z0.44
G1 F300 Z0.24
G1 F2700 E50.26769
G1 F2250 X110.34 Y105.814 E51.88313
G1 F2700 E46.88313
G1 F300 Z0.44
G0 F15000 X110.34 Y108.077 Z0.44
G1 F300 Z0.24
G1 F2700 E51.88313
G1 F2250 X124.65 Y122.387 E53.49857
G1 F2700 E48.49857
G1 F300 Z0.44
G0 F15000 X124.65 Y124.65 Z0.44
G1 F300 Z0.24
G1 F2700 E53.49857
G1 F2250 X110.341 Y110.341 E55.11389
G1 F2700 E50.11389
G1 F300 Z0.44
G0 F15000 X110.341 Y112.603 Z0.44
G1 F300 Z0.24
G1 F2700 E55.11389
G1 F2250 X124.65 Y126.912 E56.72921
G1 F2700 E51.72921
G1 F300 Z0.44
G0 F15000 X124.65 Y129.175 Z0.44
G1 F300 Z0.24
G1 F2700 E56.72921
G1 F2250 X110.341 Y114.867 E58.34448
G1 F2700 E53.34448
G1 F300 Z0.44
G0 F15000 X110.341 Y117.13 Z0.44
G1 F300 Z0.24
G1 F2700 E58.34448
G1 F2250 X124.65 Y131.438 E59.95975
G1 F2700 E54.95975
G1 F300 Z0.44
G0 F15000 X124.65 Y133.701 Z0.44
G1 F300 Z0.24
G1 F2700 E59.95975
G1 F2250 X110.342 Y119.393 E61.57496
G1 F2700 E56.57496
G1 F300 Z0.44
G0 F15000 X110.342 Y121.656 Z0.44
G1 F300 Z0.24
G1 F2700 E61.57496
G1 F2250 X124.65 Y135.963 E63.19011
G1 F2700 E58.19011
G1 F300 Z0.44
G0 F15000 X124.65 Y138.226 Z0.44
G1 F300 Z0.24
G1 F2700 E63.19011
G1 F2250 X110.343 Y123.919 E64.80521
G1 F2700 E59.80521
G1 F300 Z0.44
G0 F15000 X110.343 Y126.182 Z0.44
G1 F300 Z0.24
G1 F2700 E64.80521
G1 F2250 X124.65 Y140.489 E66.42031
G1 F2700 E61.42031
G1 F300 Z0.44
G0 F15000 X124.65 Y142.752 Z0.44
G1 F300 Z0.24
G1 F2700 E66.42031
G1 F2250 X110.344 Y128.445 E68.03535
G1 F2700 E63.03535
G1 F300 Z0.44
G0 F15000 X110.344 Y130.709 Z0.44
G1 F300 Z0.24
G1 F2700 E68.03535
G1 F2250 X124.65 Y145.014 E69.65028
G1 F2700 E64.65028
G1 F300 Z0.44
G0 F15000 X124.65 Y147.277 Z0.44
G1 F300 Z0.24
G1 F2700 E69.65028
G1 F2250 X110.344 Y132.972 E71.26521
G1 F2700 E66.26521
G1 F300 Z0.44
G0 F15000 X110.345 Y135.235 Z0.44
G1 F300 Z0.24
G1 F2700 E71.26521
G1 F2250 X124.65 Y149.54 E72.88008
G1 F2700 E67.88008
G1 F300 Z0.44
G0 F15000 X124.65 Y151.803 Z0.44
G1 F300 Z0.24
G1 F2700 E72.88008
G1 F2250 X110.345 Y137.498 E74.49495
G1 F2700 E69.49495
G1 F300 Z0.44
G0 F15000 X110.346 Y139.761 Z0.44
G1 F300 Z0.24
G1 F2700 E74.49495
G1 F2250 X124.65 Y154.065 E76.10971
G1 F2700 E71.10971
G1 F300 Z0.44
G0 F15000 X124.65 Y156.328 Z0.44
G1 F300 Z0.24
G1 F2700 E76.10971
G1 F2250 X110.346 Y142.024 E77.72447
G1 F2700 E72.72447
G1 F300 Z0.44
G0 F15000 X110.346 Y144.287 Z0.44
G1 F300 Z0.24
G1 F2700 E77.72447
G1 F2250 X124.65 Y158.591 E79.33923
G1 F2700 E74.33923
G1 F300 Z0.44
G0 F15000 X124.65 Y160.854 Z0.44
G1 F300 Z0.24
G1 F2700 E79.33923
G1 F2250 X110.346 Y146.55 E80.95399
G1 F2700 E75.95399
G1 F300 Z0.44
G0 F15000 X110.347 Y148.814 Z0.44
G1 F300 Z0.24
G1 F2700 E80.95399
G1 F2250 X124.65 Y163.116 E82.56858
G1 F2700 E77.56858
G1 F300 Z0.44
G0 F15000 X124.65 Y165.379 Z0.44
G1 F300 Z0.24
G1 F2700 E82.56858
G1 F2250 X110.347 Y151.076 E84.18322
G1 F2700 E79.18322
G1 F300 Z0.44
G0 F15000 X110.348 Y153.34 Z0.44
G1 F300 Z0.24
G1 F2700 E84.18322
G1 F2250 X124.65 Y167.642 E85.79776
G1 F2700 E80.79776
G1 F300 Z0.44
G0 F15000 X124.647 Y169.902 Z0.44
G1 F300 Z0.24
G1 F2700 E85.79776
G1 F2250 X110.348 Y155.603 E87.41195
G1 F2700 E82.41195
G1 F300 Z0.44
G0 F15000 X110.348 Y157.866 Z0.44
G1 F300 Z0.24
G1 F2700 E87.41195
G1 F2250 X124.01 Y171.527 E88.95418
G1 F2700 E83.95418
G1 F300 Z0.44
G0 F15000 X122.417 Y172.198 Z0.44
G1 F300 Z0.24
G1 F2700 E88.95418
G1 F2250 X110.348 Y160.129 E90.31663
G1 F2700 E85.31663
G1 F300 Z0.44
G0 F15000 X110.349 Y162.392 Z0.44
G1 F300 Z0.24
G1 F2700 E90.31663
G1 F2250 X120.155 Y172.198 E91.42362
G1 F2700 E86.42362
G1 F300 Z0.44
G0 F15000 X117.892 Y172.198 Z0.44
G1 F300 Z0.24
G1 F2700 E91.42362
G1 F2250 X110.349 Y164.655 E92.27514
G1 F2700 E87.27514
G1 F300 Z0.44
G0 F15000 X110.35 Y166.918 Z0.44
G1 F300 Z0.24
G1 F2700 E92.27514
G1 F2250 X115.63 Y172.198 E92.87119
G1 F2700 E87.87119
G1 F300 Z0.44
G0 F15000 X113.367 Y172.198 Z0.44
G1 F300 Z0.24
G1 F2700 E92.87119
G1 F2250 X110.35 Y169.181 E93.21177
G1 F2700 E88.21177
G1 F300 Z0.44
G0 F15000 X124.65 Y74.869 Z0.44
G1 F300 Z0.24
G1 F2700 E93.21177
G1 F2250 X112.58 Y62.8 E94.57428
G1 F2700 E89.57428
G1 F300 Z0.44
G0 F15000 X114.843 Y62.8 Z0.44
G1 F300 Z0.24
G1 F2700 E94.57428
G1 F2250 X124.65 Y72.607 E95.68138
G1 F2700 E90.68138
G1 F300 Z0.44
G0 F15000 X124.65 Y70.344 Z0.44
G1 F300 Z0.24
G1 F2700 E95.68138
G1 F2250 X117.106 Y62.8 E96.53301
G1 F2700 E91.53301
G1 F300 Z0.44
G0 F15000 X119.368 Y62.8 Z0.44
G1 F300 Z0.24
G1 F2700 E96.53301
G1 F2250 X124.65 Y68.081 E97.12924
G1 F2700 E92.12924
G1 F300 Z0.44
G0 F15000 X124.65 Y65.818 Z0.44
G1 F300 Z0.24
G1 F2700 E97.12924
G1 F2250 X121.631 Y62.8 E97.46999
G1 F2700 E92.46999
G1 F300 Z0.44
G0 F15000 X112.473 Y62.804 Z0.44
;TIME_ELAPSED:63.299414
;LAYER:-4
G0 X112.473 Y62.804 Z1.04
;TYPE:SUPPORT
G1 F300 Z0.84
G1 F2700 E97.46999
G1 F2250 X112.174 Y62.839 E97.53007
G1 X111.782 Y62.949 E97.61132
G1 X111.469 Y63.095 E97.68024
G1 X111.167 Y63.301 E97.75319
G1 X110.912 Y63.544 E97.82349
G1 X110.703 Y63.823 E97.89305
G1 X110.529 Y64.158 E97.96839
G1 X110.422 Y64.487 E98.03743
G1 X110.367 Y64.815 E98.1038
G1 X110.356 Y65.005 E98.14178
G1 X112.558 Y62.803 E98.76323
G1 X113.973 Y62.803 E99.04561
G1 X110.35 Y66.426 E100.0681
G1 X110.35 Y67.84 E100.35027
G1 X115.388 Y62.802 E101.77211
G1 X116.803 Y62.801 E102.05449
G1 X110.35 Y69.254 E103.87566
G1 X110.35 Y70.668 E104.15784
G1 X118.218 Y62.8 E106.37836
G1 X119.633 Y62.8 E106.66074
G1 X110.35 Y72.083 E109.2806
G1 X110.35 Y73.497 E109.56278
G1 X121.048 Y62.799 E112.58199
G1 X122.462 Y62.799 E112.86417
G1 X110.35 Y74.911 E116.28243
G1 X110.35 Y76.325 E116.56461
G1 X123.567 Y63.108 E120.29474
G1 X123.937 Y63.394 E120.38806
G1 X124.146 Y63.616 E120.44891
G1 X124.278 Y63.811 E120.4959
G1 X110.35 Y77.74 E124.42682
G1 X110.35 Y79.154 E124.709
G1 X124.648 Y64.855 E128.74435
G1 X124.648 Y66.27 E129.02673
G1 X110.35 Y80.568 E133.06193
G1 X110.35 Y81.982 E133.34411
G1 X124.648 Y67.684 E137.37931
G1 X124.648 Y69.098 E137.66149
G1 X110.35 Y83.396 E141.6967
G1 X110.35 Y84.811 E141.97908
G1 X124.648 Y70.512 E146.01442
G1 X124.648 Y71.926 E146.2966
G1 X110.35 Y86.225 E150.33195
G1 X110.35 Y87.639 E150.61413
G1 X124.648 Y73.341 E154.64933
G1 X124.648 Y74.755 E154.93151
G1 X110.35 Y89.053 E158.96671
G1 X110.35 Y90.467 E159.24889
G1 X124.648 Y76.169 E163.2841
G1 X124.648 Y77.583 E163.56628
G1 X110.35 Y91.882 E167.60162
G1 X110.35 Y93.296 E167.8838
G1 X124.648 Y78.997 E171.91915
G1 X124.648 Y80.412 E172.20152
G1 X110.35 Y94.71 E176.23673
G1 X110.35 Y96.124 E176.51891
G1 X124.648 Y81.826 E180.55411
G1 X124.648 Y83.24 E180.83629
G1 X110.35 Y97.539 E184.87164
G1 X110.35 Y98.953 E185.15382
G1 X124.648 Y84.654 E189.18916
G1 X124.648 Y86.069 E189.47154
G1 X110.35 Y100.367 E193.50675
G1 X110.35 Y101.781 E193.78892
G1 X124.648 Y87.483 E197.82413
G1 X124.648 Y88.897 E198.10631
G1 X110.35 Y103.195 E202.14151
G1 X110.35 Y104.61 E202.42389
G1 X124.648 Y90.311 E206.45924
G1 X124.648 Y91.725 E206.74142
G1 X110.35 Y106.024 E210.77676
G1 X110.35 Y107.438 E211.05894
G1 X124.648 Y93.14 E215.09414
G1 X124.648 Y94.554 E215.37632
G1 X110.35 Y108.852 E219.41153
G1 X110.35 Y110.266 E219.69371
G1 X124.648 Y95.968 E223.72891
G1 X124.648 Y97.382 E224.01109
G1 X110.35 Y111.681 E228.04644
G1 X110.35 Y113.095 E228.32861
G1 X124.648 Y98.796 E232.36396
G1 X124.648 Y100.211 E232.64634
G1 X110.35 Y114.509 E236.68154
G1 X110.35 Y115.923 E236.96372
G1 X124.648 Y101.625 E240.99893
G1 X124.648 Y103.039 E241.28111
G1 X110.35 Y117.338 E245.31645
G1 X110.35 Y118.752 E245.59863
G1 X124.648 Y104.453 E249.63398
G1 X124.648 Y105.868 E249.91635
G1 X110.35 Y120.166 E253.95156
G1 X110.35 Y121.58 E254.23374
G1 X124.648 Y107.282 E258.26894
G1 X124.648 Y108.696 E258.55112
G1 X110.35 Y122.994 E262.58633
G1 X110.35 Y124.409 E262.8687
G1 X124.648 Y110.11 E266.90405
G1 X124.648 Y111.524 E267.18623
G1 X110.35 Y125.823 E271.22157
G1 X110.35 Y127.237 E271.50375
G1 X124.648 Y112.939 E275.53896
G1 X124.648 Y114.353 E275.82114
G1 X110.35 Y128.651 E279.85634
G1 X110.35 Y130.065 E280.13852
G1 X124.648 Y115.767 E284.17373
G1 X124.648 Y117.181 E284.4559
G1 X110.35 Y131.48 E288.49125
G1 X110.35 Y132.894 E288.77343
G1 X124.648 Y118.595 E292.80877
G1 X124.648 Y120.01 E293.09115
G1 X110.35 Y134.308 E297.12636
G1 X110.35 Y135.722 E297.40854
G1 X124.648 Y121.424 E301.44374
G1 X124.648 Y122.838 E301.72592
G1 X110.35 Y137.136 E305.76112
G1 X110.35 Y138.551 E306.0435
G1 X124.648 Y124.252 E310.07885
G1 X124.648 Y125.667 E310.36123
G1 X110.35 Y139.965 E314.39643
G1 X110.35 Y141.379 E314.67861
G1 X124.648 Y127.081 E318.71382
G1 X124.648 Y128.495 E318.99599
G1 X110.35 Y142.793 E323.0312
G1 X110.35 Y144.208 E323.31358
G1 X124.648 Y129.909 E327.34892
G1 X124.648 Y131.323 E327.6311
G1 X110.35 Y145.622 E331.66645
G1 X110.35 Y147.036 E331.94863
G1 X124.648 Y132.738 E335.98383
G1 X124.648 Y134.152 E336.26601
G1 X110.35 Y148.45 E340.30121
G1 X110.35 Y149.864 E340.58339
G1 X124.648 Y135.566 E344.6186
G1 X124.648 Y136.98 E344.90078
G1 X110.35 Y151.279 E348.93612
G1 X110.35 Y152.693 E349.2183
G1 X124.648 Y138.394 E353.25365
G1 X124.648 Y139.809 E353.53603
G1 X110.35 Y154.107 E357.57123
G1 X110.35 Y155.521 E357.85341
G1 X124.648 Y141.223 E361.88861
G1 X124.648 Y142.637 E362.17079
G1 X110.35 Y156.935 E366.206
G1 X110.35 Y158.35 E366.48838
G1 X124.648 Y144.051 E370.52372
G1 X124.648 Y145.466 E370.8061
G1 X110.35 Y159.764 E374.8413
G1 X110.35 Y161.178 E375.12348
G1 X124.648 Y146.88 E379.15869
G1 X124.648 Y148.294 E379.44087
G1 X110.35 Y162.592 E383.47607
G1 X110.35 Y164.007 E383.75845
G1 X124.648 Y149.708 E387.7938
G1 X124.648 Y151.122 E388.07597
G1 X110.35 Y165.421 E392.11132
G1 X110.35 Y166.835 E392.3935
G1 X124.648 Y152.537 E396.4287
G1 X124.648 Y153.951 E396.71088
G1 X110.35 Y168.249 E400.74609
G1 X110.35 Y169.663 E401.02827
G1 X124.648 Y155.365 E405.06347
G1 X124.648 Y156.779 E405.34565
G1 X110.551 Y170.876 E409.32413
G1 X110.62 Y171.034 E409.35853
G1 X110.854 Y171.384 E409.44255
G1 X111.149 Y171.693 E409.52781
G1 X124.648 Y158.193 E413.33766
G1 X124.648 Y159.608 E413.62004
G1 X112.116 Y172.14 E417.15684
G1 X112.364 Y172.181 E417.207
G1 X112.683 Y172.199 E417.27076
G1 X113.471 Y172.199 E417.42801
G1 X124.648 Y161.022 E420.58241
G1 X124.648 Y162.436 E420.86458
G1 X114.886 Y172.198 E423.61963
G1 X116.301 Y172.198 E423.90201
G1 X124.648 Y163.85 E426.25785
G1 X124.648 Y165.264 E426.54003
G1 X117.717 Y172.196 E428.49625
G1 X119.131 Y172.196 E428.77843
G1 X124.648 Y166.679 E430.33545
G1 X124.648 Y168.093 E430.61763
G1 X120.546 Y172.195 E431.7753
G1 X121.961 Y172.194 E432.05768
G1 X124.648 Y169.507 E432.81601
G1 X124.649 Y169.863 E432.88705
G1 X124.632 Y170.184 E432.9512
G1 X124.577 Y170.512 E433.01757
G1 X124.47 Y170.841 E433.08661
G1 X124.295 Y171.175 E433.16186
G1 X124.086 Y171.454 E433.23143
G1 X123.832 Y171.697 E433.30158
G1 X123.533 Y171.901 E433.37381
G1 X123.204 Y172.054 E433.44622
G1 X122.871 Y172.147 E433.51521
G1 X122.516 Y172.193 E433.58665
G1 F2700 E428.58665
G1 F300 Z1.04
G0 F15000 X111.145 Y171.674 Z1.04
;TIME_ELAPSED:116.025990
;LAYER:-3
;TYPE:SUPPORT-INTERFACE
G1 F300 Z1.04
G1 F2700 E433.58665
G1 F3000 X110.854 Y171.384 E433.60031
G1 X111.094 Y171.636 E433.61189
G1 X111.373 Y171.845 E433.62348
G1 X111.707 Y172.019 E433.63601
G1 X112.036 Y172.126 E433.64752
G1 X112.189 Y172.152 E433.65268
G1 X110.386 Y170.349 E433.73749
G1 X110.35 Y170.03 E433.74816
G1 X110.349 Y169.746 E433.75761
