;FLAVOR:Marlin
;TIME:5463
;Filament used: 9.02758m
;Layer height: 0.4
;MINX:67.45
;MINY:74.95
;MINZ:0.2
;MAXX:156.25
;MAXY:160.05
;MAXZ:5.2
;Generated with Cura_SteamEngine 5.3.1
M140 S60
M105
M190 S60
M104 S200
M105
M109 S200
M82 ;absolute extrusion mode
; Ender 3 Custom Start G-code
G92 E0 ; Reset Extruder
G28 ; Home all axes
G1 Z2.0 F3000 ; Move Z Axis up little to prevent scratching of Heat Bed
G1 X0.1 Y20 Z0.3 F5000.0 ; Move to start position
G1 X0.1 Y200.0 Z0.3 F1500.0 E15 ; Draw the first line
G1 X0.4 Y200.0 Z0.3 F5000.0 ; Move to side a little
G1 X0.4 Y20 Z0.3 F1500.0 E30 ; Draw the second line
G92 E0 ; Reset Extruder
G1 Z2.0 F3000 ; Move Z Axis up little to prevent scratching of Heat Bed
G1 X5 Y20 Z0.3 F5000.0 ; Move over to prevent blob squish
G92 E0
G92 E0
G1 F2700 E-5
;LAYER_COUNT:13
;LAYER:0
M107
G1 F300 Z0.4
;MESH:Cube_Holder_ET_V2_(78mm).stl
G0 F6000 X73.602 Y82.531 Z0.4
;TYPE:WALL-INNER
G1 F300 Z0.2
G1 F2700 E0
G1 F1200 X73.076 Y82.724 E0.01864
G1 X72.783 Y82.795 E0.02866
G1 X72.404 Y82.843 E0.04137
G1 X72.027 Y82.845 E0.05391
G1 X71.546 Y82.791 E0.07001
G1 X71.082 Y82.642 E0.08622
G1 X70.575 Y82.409 E0.10477
G1 X70.14 Y82.067 E0.12318
G1 X69.8 Y81.734 E0.13901
G1 X69.42 Y81.152 E0.16213
G1 X69.226 Y80.626 E0.18077
G1 X69.147 Y80.295 E0.19209
G1 X69.106 Y79.954 E0.20351
G1 X69.109 Y79.511 E0.21825
G1 X69.16 Y79.092 E0.23229
G1 X69.336 Y78.559 E0.25096
G1 X69.544 Y78.121 E0.26708
G1 X69.836 Y77.744 E0.28294
G1 X70.214 Y77.351 E0.30108
G1 X70.798 Y76.969 E0.32429
G1 X71.324 Y76.776 E0.34293
G1 X71.655 Y76.697 E0.35424
G1 X71.996 Y76.656 E0.36567
G1 X72.439 Y76.659 E0.3804
G1 X72.855 Y76.71 E0.39434
G1 X73.318 Y76.858 E0.41051
G1 X73.83 Y77.094 E0.42926
G1 X74.259 Y77.433 E0.44745
G1 X74.602 Y77.769 E0.46342
G1 X74.979 Y78.348 E0.4864
G1 X75.174 Y78.874 E0.50505
G1 X75.245 Y79.167 E0.51508
G1 X75.298 Y79.616 E0.53012
G1 X75.291 Y79.989 E0.54253
G1 X75.243 Y80.379 E0.5556
G1 X75.092 Y80.868 E0.57262
G1 X74.861 Y81.37 E0.591
G1 X74.564 Y81.756 E0.6072
G1 X74.183 Y82.151 E0.62545
G1 X73.602 Y82.531 E0.64854
G1 F2700 E-4.35146
G1 F300 Z0.4
G0 F6000 X76.55 Y159.65 Z0.4
G1 F300 Z0.2
G1 F2700 E0.64854
G1 F1200 X76.55 Y75.35 E3.45237
G1 X67.85 Y75.35 E3.74173
G1 X67.85 Y159.65 E6.54556
G1 X76.55 Y159.65 E6.83493
G0 F6000 X76.95 Y160.05
;TYPE:WALL-OUTER
G1 F1200 X76.95 Y74.95 E9.66536
G1 X67.45 Y74.95 E9.98133
G1 X67.45 Y160.05 E12.81177
G1 X76.95 Y160.05 E13.12774
G1 F2700 E8.12774
G1 F300 Z0.4
G0 F6000 X73.4 Y82.179 Z0.4
G1 F300 Z0.2
G1 F2700 E13.12774
G1 F1200 X73.005 Y82.328 E13.14178
G1 X72.689 Y82.406 E13.15261
G1 X72.358 Y82.446 E13.1637
G1 X72.031 Y82.445 E13.17458
G1 X71.613 Y82.392 E13.18859
G1 X71.204 Y82.261 E13.20287
G1 X70.768 Y82.052 E13.21895
G1 X70.438 Y81.797 E13.23283
G1 X70.126 Y81.493 E13.24731
G1 X69.791 Y80.989 E13.26744
G1 X69.622 Y80.555 E13.28293
G1 X69.541 Y80.226 E13.2942
G1 X69.504 Y79.908 E13.30485
G1 X69.507 Y79.559 E13.31646
G1 X69.558 Y79.164 E13.32971
G1 X69.698 Y78.73 E13.34487
G1 X69.898 Y78.318 E13.36011
G1 X70.153 Y77.988 E13.37398
G1 X70.457 Y77.676 E13.38847
G1 X70.961 Y77.341 E13.40859
G1 X71.395 Y77.172 E13.42408
G1 X71.724 Y77.091 E13.43535
G1 X72.042 Y77.054 E13.446
G1 X72.391 Y77.057 E13.45761
G1 X72.786 Y77.108 E13.47086
G1 X73.196 Y77.239 E13.48517
G1 X73.632 Y77.448 E13.50125
G1 X73.962 Y77.703 E13.51512
G1 X74.301 Y78.04 E13.53102
G1 X74.609 Y78.511 E13.54974
G1 X74.785 Y78.968 E13.56603
G1 X74.856 Y79.261 E13.57606
G1 X74.898 Y79.616 E13.58795
G1 X74.893 Y79.941 E13.59876
G1 X74.849 Y80.31 E13.61112
G1 X74.711 Y80.746 E13.62633
G1 X74.502 Y81.182 E13.64241
G1 X74.247 Y81.512 E13.65628
G1 X73.91 Y81.851 E13.67218
G1 X73.4 Y82.179 E13.69235
G1 F2700 E8.69235
G1 F300 Z0.4
G0 F6000 X76.19 Y159.29 Z0.4
;TYPE:SKIN
G1 F300 Z0.2
G1 F2700 E13.69235
G1 F1200 X68.21 Y159.29 E13.95776
G1 X68.211 Y80.848 E16.56675
G1 F1071.4 X68.259 Y80.443 E16.58195
G1 F997.9 X68.243 Y79.91 E16.60327
G1 F1023.5 X68.246 Y79.439 E16.62164
G1 F989.7 X68.26 Y78.994 E16.6396
G1 X68.246 Y78.892 E16.64375
G1 F1100.9 X68.21 Y78.296 E16.66539
G1 F1200 X68.211 Y75.711 E16.75137
G1 X71.157 Y75.71 E16.84936
G1 F1048 X71.563 Y75.769 E16.86498
G1 F954.3 X72.039 Y75.755 E16.8849
G1 F971.7 X72.516 Y75.758 E16.90449
G1 F943 X72.947 Y75.772 E16.92274
G1 F948.6 X73.047 Y75.756 E16.927
G1 F1078.7 X73.557 Y75.711 E16.94595
G1 F1200 X76.19 Y75.71 E17.03352
G1 X76.19 Y78.725 E17.1338
G1 F1081.1 X76.146 Y79.171 E17.15035
G1 F1006.3 X76.157 Y79.567 E17.16606
G1 F1023.5 X76.155 Y80.016 E17.18357
G1 F991.7 X76.141 Y80.497 E17.20293
G1 F1069 X76.19 Y81.128 E17.22656
G1 F1200 X76.19 Y159.29 E19.82624
G1 F2700 E14.82624
G1 F300 Z0.4
G0 F6000 X73.787 Y82.84 Z0.4
G1 F300 Z0.2
G1 F2700 E19.82624
G1 F1200 X74.395 Y82.443 E19.85039
G1 X74.839 Y81.988 E19.87154
G1 X75.152 Y81.586 E19.88848
G1 X75.415 Y81.04 E19.90864
G1 F1069 X75.646 Y80.454 E19.93216
G1 F989.7 X75.684 Y80.034 E19.94916
G1 F1023.5 X75.691 Y79.592 E19.9664
G1 F1006.3 X75.659 Y79.197 E19.98212
G1 F1081.1 X75.519 Y78.772 E19.99864
G1 F1200 X75.308 Y78.202 E20.01886
G1 X74.895 Y77.557 E20.04433
G1 X74.422 Y77.097 E20.06628
G1 X74.029 Y76.793 E20.0828
G1 X73.455 Y76.524 E20.10388
G1 F1116.3 X72.893 Y76.29 E20.12565
G1 F1002.1 X72.487 Y76.254 E20.14189
G1 F971.7 X72 Y76.247 E20.16189
G1 F952.4 X71.593 Y76.283 E20.17901
G1 F1048 X71.242 Y76.426 E20.19345
G1 F1200 X70.654 Y76.637 E20.21423
G1 X70.001 Y77.059 E20.24009
G1 X69.551 Y77.522 E20.26156
G1 X69.248 Y77.915 E20.27807
G1 X69.012 Y78.403 E20.29609
G1 F1132.1 X68.754 Y79.043 E20.32042
G1 F1043.5 X68.716 Y79.467 E20.33671
G1 F1023.5 X68.71 Y79.948 E20.35546
G1 F997.9 X68.748 Y80.385 E20.37301
G1 F1071.4 X68.882 Y80.73 E20.3868
G1 F1200 X69.087 Y81.294 E20.40676
G1 X69.506 Y81.946 E20.43253
G1 X69.972 Y82.399 E20.45415
G1 X70.371 Y82.707 E20.47091
G1 X70.975 Y82.988 E20.49307
G1 X71.449 Y83.138 E20.50961
G1 X72.007 Y83.204 E20.52829
G1 X72.445 Y83.201 E20.54286
G1 X72.774 Y83.162 E20.55388
G1 X73.156 Y83.076 E20.56691
G1 X73.787 Y82.84 E20.58931
G1 F2700 E15.58931
G1 F300 Z0.4
G0 F6000 X75.989 Y75.989 Z0.4
G1 F300 Z0.2
G1 F2700 E20.58931
G1 F1200 X75.91 Y75.91 E20.59303
G0 F6000 X75.344 Y75.91
G1 F1200 X75.989 Y76.555 E20.62337
G0 F6000 X75.989 Y77.121
G1 F1200 X74.778 Y75.91 E20.68033
G0 F6000 X74.212 Y75.91
G1 F1200 X75.99 Y77.687 E20.76394
G0 F6000 X75.99 Y78.253
G1 F1200 X73.647 Y75.91 E20.87414
G0 F6000 X73.498 Y76.326
G1 F1200 X73.153 Y75.982 E20.89035
G1 F2700 E15.89035
G1 F300 Z0.4
G0 F6000 X71.153 Y76.244 Z0.4
G1 F300 Z0.2
G1 F2700 E20.89035
G1 F1200 X70.818 Y75.91 E20.90608
G0 F6000 X70.736 Y76.393
G1 F1200 X70.253 Y75.91 E20.9288
G0 F6000 X69.688 Y75.91
G1 F1200 X70.36 Y76.583 E20.96043
G0 F6000 X70.019 Y76.807
G1 F1200 X69.122 Y75.91 E21.00263
G0 F6000 X68.556 Y75.91
G1 F1200 X69.711 Y77.065 E21.05695
G0 F6000 X69.435 Y77.355
G1 F1200 X68.41 Y76.33 E21.10517
G0 F6000 X68.41 Y76.895
G1 F1200 X69.184 Y77.67 E21.1416
G0 F6000 X68.971 Y78.022
G1 F1200 X68.409 Y77.46 E21.16803
G0 F6000 X68.409 Y78.026
G1 F1200 X68.788 Y78.405 E21.18586
G0 F6000 X68.45 Y78.633
G1 F1200 X68.606 Y78.788 E21.19317
G1 F2700 E16.19317
G1 F300 Z0.4
G0 F6000 X68.41 Y80.855 Z0.4
G1 F300 Z0.2
G1 F2700 E21.19317
G1 F1200 X68.89 Y81.335 E21.21575
G0 F6000 X68.41 Y81.421
G1 F1200 X75.989 Y89 E21.57224
G0 F6000 X75.989 Y88.435
G1 F1200 X70.586 Y83.031 E21.82641
G0 F6000 X71.465 Y83.345
G1 F1200 X75.989 Y87.869 E22.0392
G0 F6000 X75.989 Y87.303
G1 F1200 X72.088 Y83.401 E22.22272
G0 F6000 X72.632 Y83.38
G1 F1200 X75.989 Y86.737 E22.38062
G0 F6000 X75.989 Y86.172
G1 F1200 X73.108 Y83.29 E22.51616
G0 F6000 X73.533 Y83.15
G1 F1200 X75.989 Y85.606 E22.63168
G0 F6000 X75.989 Y85.04
G1 F1200 X73.932 Y82.983 E22.72843
G0 F6000 X74.275 Y82.76
G1 F1200 X75.989 Y84.475 E22.80908
G0 F6000 X75.989 Y83.909
G1 F1200 X74.601 Y82.521 E22.87437
G0 F6000 X74.878 Y82.232
G1 F1200 X75.989 Y83.343 E22.92662
G0 F6000 X75.989 Y82.778
G1 F1200 X75.139 Y81.927 E22.96663
G0 F6000 X75.372 Y81.595
G1 F1200 X75.989 Y82.212 E22.99565
G0 F6000 X75.989 Y81.646
G1 F1200 X75.551 Y81.208 E23.01625
G0 F6000 X75.733 Y80.824
G1 F1200 X75.982 Y81.073 E23.02797
G1 F2700 E18.02797
G1 F300 Z0.4
G0 F6000 X75.975 Y78.803 Z0.4
G1 F300 Z0.2
G1 F2700 E23.02797
G1 F1200 X75.607 Y78.435 E23.04528
G1 F2700 E18.04528
G1 F300 Z0.4
G0 F6000 X68.41 Y81.986 Z0.4
G1 F300 Z0.2
G1 F2700 E23.04528
G1 F1200 X75.989 Y89.566 E23.40179
G0 F6000 X75.989 Y90.132
G1 F1200 X68.41 Y82.552 E23.75831
G0 F6000 X68.41 Y83.118
G1 F1200 X75.989 Y90.697 E24.1148
G0 F6000 X75.989 Y91.263
G1 F1200 X68.41 Y83.683 E24.47132
G0 F6000 X68.41 Y84.249
G1 F1200 X75.989 Y91.829 E24.82783
G0 F6000 X75.989 Y92.394
G1 F1200 X68.41 Y84.815 E25.18433
G0 F6000 X68.41 Y85.381
G1 F1200 X75.989 Y92.96 E25.54082
G0 F6000 X75.989 Y93.526
G1 F1200 X68.41 Y85.946 E25.89734
G0 F6000 X68.41 Y86.512
G1 F1200 X75.989 Y94.091 E26.25383
G0 F6000 X75.989 Y94.657
G1 F1200 X68.41 Y87.078 E26.61032
G0 F6000 X68.41 Y87.643
G1 F1200 X75.989 Y95.223 E26.96684
G0 F6000 X75.989 Y95.788
G1 F1200 X68.41 Y88.209 E27.32333
G0 F6000 X68.41 Y88.775
G1 F1200 X75.989 Y96.354 E27.67982
G0 F6000 X75.989 Y96.92
G1 F1200 X68.41 Y89.34 E28.03634
G0 F6000 X68.41 Y89.906
G1 F1200 X75.989 Y97.485 E28.39283
G0 F6000 X75.989 Y98.051
G1 F1200 X68.41 Y90.472 E28.74933
G0 F6000 X68.41 Y91.037
G1 F1200 X75.989 Y98.617 E29.10584
G0 F6000 X75.989 Y99.183
G1 F1200 X68.41 Y91.603 E29.46236
G0 F6000 X68.41 Y92.169
G1 F1200 X75.989 Y99.748 E29.81885
G0 F6000 X75.989 Y100.314
G1 F1200 X68.41 Y92.734 E30.17537
G0 F6000 X68.41 Y93.3
G1 F1200 X75.989 Y100.88 E30.53189
G0 F6000 X75.989 Y101.445
G1 F1200 X68.41 Y93.866 E30.88838
G0 F6000 X68.41 Y94.431
G1 F1200 X75.989 Y102.011 E31.24489
G0 F6000 X75.989 Y102.577
G1 F1200 X68.41 Y94.997 E31.60141
G0 F6000 X68.41 Y95.563
G1 F1200 X75.989 Y103.142 E31.9579
G0 F6000 X75.989 Y103.708
G1 F1200 X68.41 Y96.129 E32.3144
G0 F6000 X68.41 Y96.694
G1 F1200 X75.989 Y104.274 E32.67091
G0 F6000 X75.989 Y104.839
G1 F1200 X68.41 Y97.26 E33.02741
G0 F6000 X68.41 Y97.826
G1 F1200 X75.989 Y105.405 E33.3839
G0 F6000 X75.989 Y105.971
G1 F1200 X68.41 Y98.391 E33.74042
G0 F6000 X68.41 Y98.957
G1 F1200 X75.989 Y106.536 E34.09691
G0 F6000 X75.989 Y107.102
G1 F1200 X68.41 Y99.523 E34.4534
G0 F6000 X68.41 Y100.088
G1 F1200 X75.989 Y107.668 E34.80992
G0 F6000 X75.989 Y108.234
G1 F1200 X68.41 Y100.654 E35.16643
G0 F6000 X68.41 Y101.22
G1 F1200 X75.989 Y108.799 E35.52293
G0 F6000 X75.989 Y109.365
G1 F1200 X68.41 Y101.785 E35.87944
G0 F6000 X68.41 Y102.351
G1 F1200 X75.989 Y109.931 E36.23596
G0 F6000 X75.989 Y110.496
G1 F1200 X68.41 Y102.917 E36.59245
G0 F6000 X68.41 Y103.482
G1 F1200 X75.989 Y111.062 E36.94897
G0 F6000 X75.989 Y111.628
G1 F1200 X68.41 Y104.048 E37.30549
G0 F6000 X68.41 Y104.614
G1 F1200 X75.989 Y112.193 E37.66198
G0 F6000 X75.989 Y112.759
G1 F1200 X68.41 Y105.18 E38.01847
G0 F6000 X68.41 Y105.745
G1 F1200 X75.989 Y113.325 E38.37499
G0 F6000 X75.989 Y113.89
G1 F1200 X68.41 Y106.311 E38.73148
G0 F6000 X68.41 Y106.877
G1 F1200 X75.989 Y114.456 E39.08797
G0 F6000 X75.989 Y115.022
G1 F1200 X68.41 Y107.442 E39.44449
G0 F6000 X68.41 Y108.008
G1 F1200 X75.989 Y115.587 E39.80098
G0 F6000 X75.989 Y116.153
G1 F1200 X68.41 Y108.574 E40.15748
G0 F6000 X68.41 Y109.139
G1 F1200 X75.989 Y116.719 E40.51399
G0 F6000 X75.989 Y117.284
G1 F1200 X68.41 Y109.705 E40.87049
G0 F6000 X68.41 Y110.271
G1 F1200 X75.989 Y117.85 E41.22698
G0 F6000 X75.989 Y118.416
G1 F1200 X68.41 Y110.836 E41.5835
G0 F6000 X68.41 Y111.402
G1 F1200 X75.989 Y118.982 E41.94001
G0 F6000 X75.989 Y119.547
G1 F1200 X68.41 Y111.968 E42.2965
G0 F6000 X68.41 Y112.533
G1 F1200 X75.989 Y120.113 E42.65302
G0 F6000 X75.989 Y120.679
G1 F1200 X68.41 Y113.099 E43.00954
G0 F6000 X68.41 Y113.665
G1 F1200 X75.989 Y121.244 E43.36603
G0 F6000 X75.989 Y121.81
G1 F1200 X68.41 Y114.23 E43.72255
G0 F6000 X68.41 Y114.796
G1 F1200 X75.989 Y122.376 E44.07906
G0 F6000 X75.989 Y122.941
G1 F1200 X68.41 Y115.362 E44.43556
G0 F6000 X68.41 Y115.928
G1 F1200 X75.989 Y123.507 E44.79205
G0 F6000 X75.989 Y124.073
G1 F1200 X68.41 Y116.493 E45.14857
G0 F6000 X68.41 Y117.059
G1 F1200 X75.989 Y124.638 E45.50506
G0 F6000 X75.989 Y125.204
G1 F1200 X68.41 Y117.625 E45.86155
G0 F6000 X68.41 Y118.19
G1 F1200 X75.989 Y125.77 E46.21807
G0 F6000 X75.989 Y126.335
G1 F1200 X68.41 Y118.756 E46.57456
G0 F6000 X68.41 Y119.322
G1 F1200 X75.989 Y126.901 E46.93105
G0 F6000 X75.989 Y127.467
G1 F1200 X68.41 Y119.887 E47.28757
G0 F6000 X68.409 Y120.452
G1 F1200 X75.989 Y128.032 E47.64411
G0 F6000 X75.989 Y128.598
G1 F1200 X68.409 Y121.018 E48.00065
G0 F6000 X68.409 Y121.584
G1 F1200 X75.989 Y129.164 E48.35719
G0 F6000 X75.989 Y129.73
G1 F1200 X68.409 Y122.149 E48.71375
G0 F6000 X68.409 Y122.715
G1 F1200 X75.989 Y130.295 E49.07029
G0 F6000 X75.989 Y130.861
G1 F1200 X68.409 Y123.281 E49.42683
G0 F6000 X68.409 Y123.846
G1 F1200 X75.989 Y131.427 E49.7834
G0 F6000 X75.989 Y131.992
G1 F1200 X68.409 Y124.412 E50.13994
G0 F6000 X68.409 Y124.978
G1 F1200 X75.989 Y132.558 E50.49648
G0 F6000 X75.989 Y133.124
G1 F1200 X68.409 Y125.543 E50.85304
G0 F6000 X68.409 Y126.109
G1 F1200 X75.989 Y133.689 E51.20958
G0 F6000 X75.989 Y134.255
G1 F1200 X68.409 Y126.675 E51.56612
G0 F6000 X68.409 Y127.241
G1 F1200 X75.989 Y134.821 E51.92266
G0 F6000 X75.989 Y135.386
G1 F1200 X68.409 Y127.806 E52.2792
G0 F6000 X68.409 Y128.372
G1 F1200 X75.989 Y135.952 E52.63574
G0 F6000 X75.989 Y136.518
G1 F1200 X68.409 Y128.938 E52.99228
G0 F6000 X68.409 Y129.503
G1 F1200 X75.989 Y137.083 E53.34882
G0 F6000 X75.989 Y137.649
G1 F1200 X68.409 Y130.069 E53.70536
G0 F6000 X68.409 Y130.635
G1 F1200 X75.989 Y138.215 E54.0619
G0 F6000 X75.989 Y138.781
G1 F1200 X68.409 Y131.2 E54.41846
G0 F6000 X68.409 Y131.766
G1 F1200 X75.989 Y139.346 E54.775
G0 F6000 X75.989 Y139.912
G1 F1200 X68.409 Y132.332 E55.13154
G0 F6000 X68.409 Y132.897
G1 F1200 X75.989 Y140.478 E55.48811
G0 F6000 X75.989 Y141.043
G1 F1200 X68.409 Y133.463 E55.84465
G0 F6000 X68.409 Y134.029
G1 F1200 X75.989 Y141.609 E56.20119
G0 F6000 X75.989 Y142.175
G1 F1200 X68.409 Y134.594 E56.55775
G0 F6000 X68.409 Y135.16
G1 F1200 X75.989 Y142.74 E56.91429
G0 F6000 X75.989 Y143.306
G1 F1200 X68.409 Y135.726 E57.27083
G0 F6000 X68.409 Y136.292
G1 F1200 X75.989 Y143.872 E57.62737
G0 F6000 X75.989 Y144.437
G1 F1200 X68.409 Y136.857 E57.98391
G0 F6000 X68.409 Y137.423
G1 F1200 X75.989 Y145.003 E58.34045
G0 F6000 X75.989 Y145.569
G1 F1200 X68.409 Y137.989 E58.69699
G0 F6000 X68.409 Y138.554
G1 F1200 X75.989 Y146.134 E59.05353
G0 F6000 X75.989 Y146.7
G1 F1200 X68.409 Y139.12 E59.41007
G0 F6000 X68.409 Y139.686
G1 F1200 X75.989 Y147.266 E59.76661
G0 F6000 X75.989 Y147.831
G1 F1200 X68.409 Y140.251 E60.12315
G0 F6000 X68.409 Y140.817
G1 F1200 X75.989 Y148.397 E60.47969
G0 F6000 X75.989 Y148.963
G1 F1200 X68.409 Y141.383 E60.83623
G0 F6000 X68.409 Y141.948
G1 F1200 X75.989 Y149.529 E61.19279
G0 F6000 X75.989 Y150.094
G1 F1200 X68.409 Y142.514 E61.54933
G0 F6000 X68.409 Y143.08
G1 F1200 X75.989 Y150.66 E61.90587
G0 F6000 X75.989 Y151.226
G1 F1200 X68.409 Y143.645 E62.26244
G0 F6000 X68.409 Y144.211
G1 F1200 X75.989 Y151.791 E62.61898
G0 F6000 X75.989 Y152.357
G1 F1200 X68.409 Y144.777 E62.97552
G0 F6000 X68.409 Y145.342
G1 F1200 X75.989 Y152.923 E63.33208
G0 F6000 X75.989 Y153.488
G1 F1200 X68.409 Y145.908 E63.68862
G0 F6000 X68.409 Y146.474
G1 F1200 X75.989 Y154.054 E64.04516
G0 F6000 X75.989 Y154.62
G1 F1200 X68.409 Y147.04 E64.4017
G0 F6000 X68.409 Y147.605
G1 F1200 X75.989 Y155.185 E64.75824
G0 F6000 X75.989 Y155.751
G1 F1200 X68.409 Y148.171 E65.11478
G0 F6000 X68.409 Y148.737
G1 F1200 X75.989 Y156.317 E65.47132
G0 F6000 X75.989 Y156.882
G1 F1200 X68.409 Y149.302 E65.82786
G0 F6000 X68.409 Y149.868
G1 F1200 X75.989 Y157.448 E66.1844
G0 F6000 X75.989 Y158.014
G1 F1200 X68.409 Y150.434 E66.54094
G0 F6000 X68.409 Y150.999
G1 F1200 X75.989 Y158.58 E66.8975
G0 F6000 X75.933 Y159.089
G1 F1200 X68.409 Y151.565 E67.25141
G0 F6000 X68.409 Y152.131
G1 F1200 X75.367 Y159.089 E67.57869
G0 F6000 X74.801 Y159.089
G1 F1200 X68.409 Y152.696 E67.87938
G0 F6000 X68.409 Y153.262
G1 F1200 X74.236 Y159.089 E68.15346
G0 F6000 X73.67 Y159.089
