;FLAVOR:Marlin
;TIME:1557
;Filament used: 2.68897m
;Layer height: 0.4
;MINX:112.75
;MINY:73.95
;MINZ:0.2
;MAXX:137.25
;MAXY:161.05
;MAXZ:5.2
;Generated with Cura_SteamEngine 5.3.1
M140 S60
M105
M190 S60
M104 S200
M105
M109 S200
M82 ;absolute extrusion mode
; Ender 3 Custom Start G-code
G92 E0 ; Reset Extruder
G28 ; Home all axes
G1 Z2.0 F3000 ; Move Z Axis up little to prevent scratching of Heat Bed
G1 X0.1 Y20 Z0.3 F5000.0 ; Move to start position
G1 X0.1 Y200.0 Z0.3 F1500.0 E15 ; Draw the first line
G1 X0.4 Y200.0 Z0.3 F5000.0 ; Move to side a little
G1 X0.4 Y20 Z0.3 F1500.0 E30 ; Draw the second line
G92 E0 ; Reset Extruder
G1 Z2.0 F3000 ; Move Z Axis up little to prevent scratching of Heat Bed
G1 X5 Y20 Z0.3 F5000.0 ; Move over to prevent blob squish
G92 E0
G92 E0
G1 F2700 E-5
;LAYER_COUNT:13
;LAYER:0
M107
G1 F300 Z0.4
;MESH:Cube_Holder_ST_V3_(79mm).stl
G0 F6000 X116.846 Y82.291 Z0.4
;TYPE:WALL-INNER
G1 F300 Z0.2
G1 F2700 E0
G1 F1200 X116.382 Y82.142 E0.01621
G1 X115.875 Y81.909 E0.03477
G1 X115.44 Y81.567 E0.05317
G1 X115.1 Y81.234 E0.069
G1 X114.72 Y80.652 E0.09212
G1 X114.526 Y80.126 E0.11077
G1 X114.447 Y79.795 E0.12208
G1 X114.406 Y79.454 E0.13351
G1 X114.409 Y79.011 E0.14824
G1 X114.46 Y78.592 E0.16228
G1 X114.636 Y78.059 E0.18095
G1 X114.844 Y77.621 E0.19708
G1 X115.136 Y77.244 E0.21294
G1 X115.514 Y76.851 E0.23107
G1 X116.098 Y76.469 E0.25428
G1 X116.624 Y76.276 E0.27292
G1 X116.955 Y76.197 E0.28424
G1 X117.296 Y76.156 E0.29566
G1 X117.739 Y76.159 E0.3104
G1 X118.155 Y76.21 E0.32433
G1 X118.618 Y76.358 E0.3405
G1 X119.13 Y76.594 E0.35925
G1 X119.559 Y76.933 E0.37744
G1 X119.902 Y77.269 E0.39341
G1 X120.279 Y77.848 E0.41639
G1 X120.474 Y78.374 E0.43505
G1 X120.545 Y78.667 E0.44507
G1 X120.598 Y79.116 E0.46011
G1 X120.591 Y79.489 E0.47252
G1 X120.543 Y79.879 E0.48559
G1 X120.392 Y80.368 E0.50261
G1 X120.161 Y80.87 E0.52099
G1 X119.864 Y81.256 E0.53719
G1 X119.483 Y81.651 E0.55544
G1 X118.902 Y82.031 E0.57853
G1 X118.376 Y82.224 E0.59717
G1 X118.083 Y82.295 E0.6072
G1 X117.704 Y82.343 E0.6199
G1 X117.327 Y82.345 E0.63244
G1 X116.846 Y82.291 E0.64854
G1 F2700 E-4.35146
G1 F300 Z0.4
G0 F6000 X121.85 Y160.15 Z0.4
G1 F300 Z0.2
G1 F2700 E0.64854
G1 F1200 X121.85 Y74.85 E3.48563
G1 X113.15 Y74.85 E3.77499
G1 X113.15 Y160.15 E6.61208
G1 X121.85 Y160.15 E6.90145
G0 F6000 X122.25 Y160.55
;TYPE:WALL-OUTER
G1 F1200 X122.25 Y74.45 E9.76514
G1 X112.75 Y74.45 E10.08111
G1 X112.75 Y160.55 E12.94481
G1 X122.25 Y160.55 E13.26078
G1 F2700 E8.26078
G1 F300 Z0.4
G0 F6000 X116.913 Y81.892 Z0.4
G1 F300 Z0.2
G1 F2700 E13.26078
G1 F1200 X116.504 Y81.761 E13.27507
G1 X116.068 Y81.552 E13.29115
G1 X115.738 Y81.297 E13.30502
G1 X115.426 Y80.993 E13.31951
G1 X115.091 Y80.489 E13.33964
G1 X114.922 Y80.055 E13.35513
G1 X114.841 Y79.726 E13.3664
G1 X114.804 Y79.408 E13.37704
G1 X114.807 Y79.059 E13.38865
G1 X114.858 Y78.664 E13.4019
G1 X114.998 Y78.23 E13.41707
G1 X115.198 Y77.818 E13.4323
G1 X115.453 Y77.488 E13.44617
G1 X115.757 Y77.176 E13.46066
G1 X116.261 Y76.841 E13.48079
G1 X116.695 Y76.672 E13.49628
G1 X117.024 Y76.591 E13.50755
G1 X117.342 Y76.554 E13.5182
G1 X117.691 Y76.557 E13.5298
G1 X118.086 Y76.608 E13.54305
G1 X118.496 Y76.739 E13.55737
G1 X118.932 Y76.948 E13.57345
G1 X119.262 Y77.203 E13.58732
G1 X119.601 Y77.54 E13.60322
G1 X119.909 Y78.011 E13.62194
G1 X120.085 Y78.468 E13.63822
G1 X120.156 Y78.761 E13.64825
G1 X120.198 Y79.116 E13.66014
G1 X120.193 Y79.441 E13.67095
G1 X120.149 Y79.81 E13.68331
G1 X120.011 Y80.246 E13.69852
G1 X119.802 Y80.682 E13.7146
G1 X119.547 Y81.012 E13.72847
G1 X119.21 Y81.351 E13.74437
G1 X118.7 Y81.679 E13.76454
G1 X118.305 Y81.828 E13.77858
G1 X117.989 Y81.906 E13.78941
G1 X117.658 Y81.946 E13.8005
G1 X117.331 Y81.945 E13.81137
G1 X116.913 Y81.892 E13.82539
G1 F2700 E8.82539
G1 F300 Z0.4
G0 F6000 X113.51 Y159.79 Z0.4
;TYPE:SKIN
G1 F300 Z0.2
G1 F2700 E13.82539
G1 F1200 X113.511 Y80.348 E16.46764
G1 F1071.4 X113.559 Y79.943 E16.48283
G1 F997.9 X113.543 Y79.41 E16.50416
G1 F1023.5 X113.546 Y78.939 E16.52253
G1 F989.7 X113.56 Y78.494 E16.54048
G1 X113.546 Y78.392 E16.54463
G1 F1100.9 X113.51 Y77.796 E16.56628
G1 F1200 X113.511 Y75.211 E16.65226
G1 X116.457 Y75.21 E16.75024
G1 F1048 X116.863 Y75.269 E16.76587
G1 F954.3 X117.339 Y75.255 E16.78578
G1 F971.7 X117.816 Y75.258 E16.80538
G1 F943 X118.247 Y75.272 E16.82363
G1 F948.6 X118.347 Y75.256 E16.82789
G1 F1078.7 X118.857 Y75.211 E16.84683
G1 F1200 X121.49 Y75.21 E16.93441
G1 X121.49 Y78.225 E17.03469
G1 F1081.1 X121.446 Y78.671 E17.05123
G1 F1006.3 X121.457 Y79.067 E17.06694
G1 F1023.5 X121.455 Y79.516 E17.08445
G1 F991.7 X121.441 Y79.997 E17.10382
G1 F1069 X121.49 Y80.628 E17.12745
G1 F1200 X121.49 Y159.79 E19.76039
G1 X113.51 Y159.79 E20.0258
G1 F2700 E15.0258
G1 F300 Z0.4
G0 F6000 X116.749 Y82.638 Z0.4
G1 F300 Z0.2
G1 F2700 E20.0258
G1 F1200 X117.307 Y82.704 E20.04449
G1 X117.745 Y82.701 E20.05906
G1 X118.074 Y82.662 E20.07008
G1 X118.456 Y82.576 E20.0831
G1 X119.087 Y82.34 E20.10551
G1 X119.695 Y81.943 E20.12966
G1 X120.139 Y81.488 E20.15081
G1 X120.452 Y81.086 E20.16775
G1 X120.715 Y80.54 E20.18791
G1 F1069 X120.946 Y79.954 E20.21142
G1 F989.7 X120.984 Y79.534 E20.22843
G1 F1023.5 X120.991 Y79.092 E20.24567
G1 F1006.3 X120.959 Y78.697 E20.26139
G1 F1081.1 X120.819 Y78.272 E20.27791
G1 F1200 X120.608 Y77.702 E20.29812
G1 X120.195 Y77.057 E20.3236
G1 X119.722 Y76.597 E20.34554
G1 X119.329 Y76.293 E20.36207
G1 X118.755 Y76.024 E20.38315
G1 F1116.3 X118.193 Y75.79 E20.40492
G1 F1002.1 X117.787 Y75.754 E20.42115
G1 F971.7 X117.3 Y75.747 E20.44116
G1 F952.4 X116.893 Y75.783 E20.45828
G1 F1048 X116.542 Y75.926 E20.47272
G1 F1200 X115.954 Y76.137 E20.49349
G1 X115.301 Y76.559 E20.51935
G1 X114.851 Y77.022 E20.54083
G1 X114.548 Y77.415 E20.55733
G1 X114.312 Y77.903 E20.57536
G1 F1132.1 X114.054 Y78.543 E20.59969
G1 F1043.5 X114.016 Y78.967 E20.61597
G1 F1023.5 X114.01 Y79.448 E20.63473
G1 F997.9 X114.048 Y79.885 E20.65228
G1 F1071.4 X114.182 Y80.23 E20.66606
G1 F1200 X114.387 Y80.794 E20.68602
G1 X114.806 Y81.446 E20.7118
G1 X115.272 Y81.899 E20.73342
G1 X115.671 Y82.207 E20.75018
G1 X116.275 Y82.488 E20.77234
G1 X116.749 Y82.638 E20.78887
G1 F2700 E15.78887
G1 F300 Z0.4
G0 F6000 X121.289 Y75.468 Z0.4
G1 F300 Z0.2
G1 F2700 E20.78887
G1 F1200 X121.23 Y75.41 E20.79162
G0 F6000 X120.664 Y75.41
G1 F1200 X121.289 Y76.034 E20.821
G0 F6000 X121.289 Y76.6
G1 F1200 X120.099 Y75.41 E20.87697
G0 F6000 X119.534 Y75.411
G1 F1200 X121.289 Y77.165 E20.9595
G0 F6000 X121.289 Y77.731
G1 F1200 X118.969 Y75.411 E21.06863
G0 F6000 X118.837 Y75.845
G1 F1200 X118.472 Y75.48 E21.08579
G1 F2700 E16.08579
G1 F300 Z0.4
G0 F6000 X116.468 Y75.739 Z0.4
G1 F300 Z0.2
G1 F2700 E21.08579
G1 F1200 X116.14 Y75.41 E21.10125
G0 F6000 X116.052 Y75.888
G1 F1200 X115.574 Y75.41 E21.12373
G0 F6000 X115.008 Y75.41
G1 F1200 X115.672 Y76.074 E21.15496
G0 F6000 X115.331 Y76.298
G1 F1200 X114.443 Y75.41 E21.19673
G0 F6000 X113.877 Y75.41
G1 F1200 X115.021 Y76.554 E21.25054
G0 F6000 X114.745 Y76.844
G1 F1200 X113.709 Y75.808 E21.29927
G0 F6000 X113.709 Y76.374
G1 F1200 X114.494 Y77.158 E21.33617
G0 F6000 X114.277 Y77.508
G1 F1200 X113.709 Y76.94 E21.36289
G0 F6000 X113.709 Y77.505
G1 F1200 X114.095 Y77.891 E21.38104
G0 F6000 X113.748 Y78.109
G1 F1200 X113.912 Y78.274 E21.38878
G1 F2700 E16.38878
G1 F300 Z0.4
G0 F6000 X113.712 Y80.337 Z0.4
G1 F300 Z0.2
G1 F2700 E21.38878
G1 F1200 X114.176 Y80.801 E21.41061
G0 F6000 X113.709 Y80.9
G1 F1200 X121.29 Y88.48 E21.76717
G0 F6000 X121.29 Y89.045
G1 F1200 X113.709 Y81.465 E22.12373
G0 F6000 X113.709 Y82.031
G1 F1200 X121.29 Y89.611 E22.4803
G0 F6000 X121.29 Y90.177
G1 F1200 X113.709 Y82.597 E22.83686
G0 F6000 X113.709 Y83.162
G1 F1200 X121.29 Y90.743 E23.19345
G0 F6000 X121.29 Y91.308
G1 F1200 X113.709 Y83.728 E23.55001
G0 F6000 X113.709 Y84.294
G1 F1200 X121.29 Y91.874 E23.90658
G0 F6000 X121.29 Y92.44
G1 F1200 X113.709 Y84.859 E24.26316
G0 F6000 X113.709 Y85.425
G1 F1200 X121.29 Y93.005 E24.61973
G0 F6000 X121.29 Y93.571
G1 F1200 X113.709 Y85.991 E24.97629
G0 F6000 X113.709 Y86.556
G1 F1200 X121.29 Y94.137 E25.33288
G0 F6000 X121.29 Y94.702
G1 F1200 X113.709 Y87.122 E25.68944
G0 F6000 X113.709 Y87.688
G1 F1200 X121.29 Y95.268 E26.046
G0 F6000 X121.29 Y95.834
G1 F1200 X113.709 Y88.253 E26.40259
G0 F6000 X113.709 Y88.819
G1 F1200 X121.29 Y96.399 E26.75915
G0 F6000 X121.29 Y96.965
G1 F1200 X113.709 Y89.385 E27.11572
G0 F6000 X113.709 Y89.951
G1 F1200 X121.29 Y97.531 E27.47228
G0 F6000 X121.29 Y98.096
G1 F1200 X113.709 Y90.516 E27.82884
G0 F6000 X113.709 Y91.082
G1 F1200 X121.29 Y98.662 E28.18541
G0 F6000 X121.29 Y99.228
G1 F1200 X113.709 Y91.648 E28.54197
G0 F6000 X113.709 Y92.213
G1 F1200 X121.29 Y99.793 E28.89853
G0 F6000 X121.29 Y100.359
G1 F1200 X113.709 Y92.779 E29.2551
G0 F6000 X113.709 Y93.345
G1 F1200 X121.29 Y100.925 E29.61166
G0 F6000 X121.29 Y101.491
G1 F1200 X113.709 Y93.91 E29.96825
G0 F6000 X113.709 Y94.476
G1 F1200 X121.29 Y102.056 E30.32481
G0 F6000 X121.29 Y102.622
G1 F1200 X113.709 Y95.042 E30.68138
G0 F6000 X113.709 Y95.607
G1 F1200 X121.29 Y103.188 E31.03796
G0 F6000 X121.29 Y103.753
G1 F1200 X113.709 Y96.173 E31.39453
G0 F6000 X113.709 Y96.739
G1 F1200 X121.29 Y104.319 E31.75109
G0 F6000 X121.29 Y104.885
G1 F1200 X113.709 Y97.304 E32.10768
G0 F6000 X113.709 Y97.87
G1 F1200 X121.29 Y105.45 E32.46424
G0 F6000 X121.29 Y106.016
G1 F1200 X113.709 Y98.436 E32.8208
G0 F6000 X113.709 Y99.002
G1 F1200 X121.29 Y106.582 E33.17737
G0 F6000 X121.29 Y107.147
G1 F1200 X113.709 Y99.567 E33.53393
G0 F6000 X113.709 Y100.133
G1 F1200 X121.29 Y107.713 E33.89049
G0 F6000 X121.29 Y108.279
G1 F1200 X113.709 Y100.699 E34.24706
G0 F6000 X113.709 Y101.264
G1 F1200 X121.29 Y108.844 E34.60362
G0 F6000 X121.29 Y109.41
G1 F1200 X113.709 Y101.83 E34.96018
G0 F6000 X113.709 Y102.396
G1 F1200 X121.29 Y109.976 E35.31675
G0 F6000 X121.29 Y110.542
G1 F1200 X113.709 Y102.961 E35.67333
G0 F6000 X113.709 Y103.527
G1 F1200 X121.29 Y111.107 E36.0299
G0 F6000 X121.29 Y111.673
G1 F1200 X113.709 Y104.093 E36.38646
G0 F6000 X113.709 Y104.658
G1 F1200 X121.29 Y112.239 E36.74305
G0 F6000 X121.29 Y112.804
G1 F1200 X113.709 Y105.224 E37.09961
G0 F6000 X113.709 Y105.79
G1 F1200 X121.29 Y113.37 E37.45618
G0 F6000 X121.29 Y113.936
G1 F1200 X113.709 Y106.355 E37.81276
G0 F6000 X113.709 Y106.921
G1 F1200 X121.29 Y114.501 E38.16933
G0 F6000 X121.29 Y115.067
G1 F1200 X113.709 Y107.487 E38.52589
G0 F6000 X113.709 Y108.052
G1 F1200 X121.29 Y115.633 E38.88248
G0 F6000 X121.29 Y116.198
G1 F1200 X113.709 Y108.618 E39.23904
G0 F6000 X113.709 Y109.184
G1 F1200 X121.29 Y116.764 E39.5956
G0 F6000 X121.29 Y117.33
G1 F1200 X113.709 Y109.75 E39.95217
G0 F6000 X113.709 Y110.315
G1 F1200 X121.29 Y117.895 E40.30873
G0 F6000 X121.29 Y118.461
G1 F1200 X113.709 Y110.881 E40.66529
G0 F6000 X113.709 Y111.447
G1 F1200 X121.29 Y119.027 E41.02186
G0 F6000 X121.29 Y119.592
G1 F1200 X113.709 Y112.012 E41.37842
G0 F6000 X113.709 Y112.578
G1 F1200 X121.29 Y120.158 E41.73498
G0 F6000 X121.29 Y120.724
G1 F1200 X113.709 Y113.144 E42.09155
G0 F6000 X113.709 Y113.709
G1 F1200 X121.29 Y121.29 E42.44813
G0 F6000 X121.29 Y121.855
G1 F1200 X113.709 Y114.275 E42.8047
G0 F6000 X113.709 Y114.841
G1 F1200 X121.29 Y122.421 E43.16126
G0 F6000 X121.29 Y122.987
G1 F1200 X113.709 Y115.406 E43.51785
G0 F6000 X113.709 Y115.972
G1 F1200 X121.29 Y123.552 E43.87441
G0 F6000 X121.29 Y124.118
G1 F1200 X113.709 Y116.538 E44.23098
G0 F6000 X113.709 Y117.103
G1 F1200 X121.29 Y124.684 E44.58756
G0 F6000 X121.29 Y125.249
G1 F1200 X113.709 Y117.669 E44.94413
G0 F6000 X113.709 Y118.235
G1 F1200 X121.29 Y125.815 E45.30069
G0 F6000 X121.29 Y126.381
G1 F1200 X113.709 Y118.801 E45.65725
G0 F6000 X113.709 Y119.366
G1 F1200 X121.29 Y126.946 E46.01382
G0 F6000 X121.29 Y127.512
G1 F1200 X113.709 Y119.932 E46.37038
G0 F6000 X113.709 Y120.498
G1 F1200 X121.29 Y128.078 E46.72694
G0 F6000 X121.29 Y128.643
G1 F1200 X113.709 Y121.063 E47.08351
G0 F6000 X113.709 Y121.629
G1 F1200 X121.29 Y129.209 E47.44007
G0 F6000 X121.29 Y129.775
G1 F1200 X113.709 Y122.195 E47.79663
G0 F6000 X113.709 Y122.76
G1 F1200 X121.29 Y130.34 E48.1532
G0 F6000 X121.29 Y130.906
G1 F1200 X113.709 Y123.326 E48.50976
G0 F6000 X113.709 Y123.892
G1 F1200 X121.29 Y131.472 E48.86632
G0 F6000 X121.29 Y132.038
G1 F1200 X113.709 Y124.457 E49.22291
G0 F6000 X113.709 Y125.023
G1 F1200 X121.29 Y132.603 E49.57947
G0 F6000 X121.29 Y133.169
G1 F1200 X113.709 Y125.589 E49.93604
G0 F6000 X113.709 Y126.154
G1 F1200 X121.29 Y133.735 E50.29263
G0 F6000 X121.29 Y134.3
G1 F1200 X113.709 Y126.72 E50.64919
G0 F6000 X113.709 Y127.286
G1 F1200 X121.29 Y134.866 E51.00575
G0 F6000 X121.29 Y135.432
G1 F1200 X113.709 Y127.851 E51.36234
G0 F6000 X113.709 Y128.417
G1 F1200 X121.29 Y135.997 E51.7189
G0 F6000 X121.29 Y136.563
G1 F1200 X113.709 Y128.983 E52.07547
G0 F6000 X113.709 Y129.549
G1 F1200 X121.29 Y137.129 E52.43203
G0 F6000 X121.29 Y137.694
G1 F1200 X113.709 Y130.114 E52.78859
G0 F6000 X113.709 Y130.68
G1 F1200 X121.29 Y138.26 E53.14516
G0 F6000 X121.29 Y138.826
G1 F1200 X113.709 Y131.246 E53.50172
G0 F6000 X113.709 Y131.811
G1 F1200 X121.29 Y139.391 E53.85828
G0 F6000 X121.29 Y139.957
G1 F1200 X113.709 Y132.377 E54.21485
G0 F6000 X113.709 Y132.943
G1 F1200 X121.29 Y140.523 E54.57141
G0 F6000 X121.29 Y141.089
G1 F1200 X113.709 Y133.508 E54.928
G0 F6000 X113.709 Y134.074
G1 F1200 X121.29 Y141.654 E55.28456
G0 F6000 X121.29 Y142.22
G1 F1200 X113.709 Y134.64 E55.64112
G0 F6000 X113.709 Y135.205
G1 F1200 X121.29 Y142.786 E55.99771
G0 F6000 X121.29 Y143.351
G1 F1200 X113.709 Y135.771 E56.35428
G0 F6000 X113.709 Y136.337
G1 F1200 X121.29 Y143.917 E56.71084
G0 F6000 X121.29 Y144.483
G1 F1200 X113.709 Y136.902 E57.06743
G0 F6000 X113.709 Y137.468
G1 F1200 X121.29 Y145.048 E57.42399
G0 F6000 X121.29 Y145.614
G1 F1200 X113.709 Y138.034 E57.78055
G0 F6000 X113.709 Y138.6
G1 F1200 X121.29 Y146.18 E58.13712
G0 F6000 X121.29 Y146.745
G1 F1200 X113.709 Y139.165 E58.49368
G0 F6000 X113.709 Y139.731
G1 F1200 X121.29 Y147.311 E58.85024
G0 F6000 X121.29 Y147.877
G1 F1200 X113.709 Y140.297 E59.20681
G0 F6000 X113.709 Y140.862
G1 F1200 X121.29 Y148.442 E59.56337
G0 F6000 X121.29 Y149.008
G1 F1200 X113.709 Y141.428 E59.91993
G0 F6000 X113.709 Y141.994
G1 F1200 X121.29 Y149.574 E60.2765
G0 F6000 X121.29 Y150.139
G1 F1200 X113.709 Y142.559 E60.63306
G0 F6000 X113.709 Y143.125
G1 F1200 X121.29 Y150.705 E60.98962
G0 F6000 X121.29 Y151.271
G1 F1200 X113.709 Y143.691 E61.34619
G0 F6000 X113.709 Y144.256
G1 F1200 X121.29 Y151.837 E61.70277
G0 F6000 X121.29 Y152.402
G1 F1200 X113.709 Y144.822 E62.05934
G0 F6000 X113.709 Y145.388
G1 F1200 X121.29 Y152.968 E62.4159
G0 F6000 X121.29 Y153.534
G1 F1200 X113.709 Y145.953 E62.77249
G0 F6000 X113.709 Y146.519
G1 F1200 X121.29 Y154.099 E63.12905
G0 F6000 X121.29 Y154.665
G1 F1200 X113.709 Y147.085 E63.48562
G0 F6000 X113.709 Y147.65
G1 F1200 X121.29 Y155.231 E63.8422
G0 F6000 X121.29 Y155.796
G1 F1200 X113.709 Y148.216 E64.19877
G0 F6000 X113.709 Y148.782
G1 F1200 X121.29 Y156.362 E64.55533
G0 F6000 X121.29 Y156.928
G1 F1200 X113.709 Y149.348 E64.91189
G0 F6000 X113.709 Y149.913
G1 F1200 X121.29 Y157.493 E65.26846
G0 F6000 X121.29 Y158.059
G1 F1200 X113.709 Y150.479 E65.62502
G0 F6000 X113.709 Y151.045
G1 F1200 X121.29 Y158.625 E65.98158
G0 F6000 X121.29 Y159.19
G1 F1200 X113.709 Y151.61 E66.33815
G0 F6000 X113.709 Y152.176
G1 F1200 X121.123 Y159.589 E66.68685
G0 F6000 X120.557 Y159.589
G1 F1200 X113.709 Y152.742 E67.00894
G0 F6000 X113.709 Y153.307
G1 F1200 X119.991 Y159.589 E67.30443
G0 F6000 X119.426 Y159.589
G1 F1200 X113.709 Y153.873 E67.57331
G0 F6000 X113.709 Y154.439
G1 F1200 X118.86 Y159.589 E67.81558
G0 F6000 X118.294 Y159.589
G1 F1200 X113.709 Y155.004 E68.03124
G0 F6000 X113.709 Y155.57
G1 F1200 X117.729 Y159.589 E68.22031
G0 F6000 X117.163 Y159.589
G1 F1200 X113.709 Y156.136 E68.38275
G0 F6000 X113.709 Y156.701
G1 F1200 X116.597 Y159.589 E68.51859
G0 F6000 X116.031 Y159.589
G1 F1200 X113.709 Y157.267 E68.62781
G0 F6000 X113.709 Y157.833
G1 F1200 X115.466 Y159.589 E68.71043
G0 F6000 X114.9 Y159.589
G1 F1200 X113.709 Y158.398 E68.76645
G0 F6000 X113.709 Y158.964
