;FLAVOR:Marlin
;TIME:7002
;Filament used: 12.7646m
;Layer height: 0.4
;MINX:73.95
;MINY:69.15
;MINZ:0.24
;MAXX:172.349
;MAXY:165.85
;MAXZ:6.59
;Generated with Cura_SteamEngine 5.3.1
M140 S60
M105
M190 S60
M104 S200
M105
M109 S200
M82 ;absolute extrusion mode
; Ender 3 Custom Start G-code
G92 E0 ; Reset Extruder
G28 ; Home all axes
G1 Z2.0 F3000 ; Move Z Axis up little to prevent scratching of Heat Bed
G1 X0.1 Y20 Z0.3 F5000.0 ; Move to start position
G1 X0.1 Y200.0 Z0.3 F1500.0 E15 ; Draw the first line
G1 X0.4 Y200.0 Z0.3 F5000.0 ; Move to side a little
G1 X0.4 Y20 Z0.3 F1500.0 E30 ; Draw the second line
G92 E0 ; Reset Extruder
G1 Z2.0 F3000 ; Move Z Axis up little to prevent scratching of Heat Bed
G1 X5 Y20 Z0.3 F5000.0 ; Move over to prevent blob squish
G92 E0
G92 E0
G1 F2700 E-5
;LAYER_COUNT:13
;LAYER:-5
M107
G0 F15000 X75.312 Y70.994 Z0.24
;TYPE:SUPPORT-INTERFACE
G1 F2700 E0
G1 F2250 X75.53 Y70.791 E0.02378
G1 X75.764 Y70.6 E0.04789
G1 X75.985 Y70.442 E0.06958
G1 X76.351 Y70.213 E0.10404
G1 X76.766 Y70.02 E0.14057
G1 X77.037 Y69.915 E0.16377
G1 X77.415 Y69.795 E0.19543
G1 X77.919 Y69.709 E0.23624
G1 X78.574 Y69.65 E0.28874
G1 X88.37 Y69.65 E1.0707
G1 X88.883 Y69.68 E1.11172
G1 X89.185 Y69.718 E1.13602
G1 X89.446 Y69.768 E1.15723
G1 X89.75 Y69.847 E1.1823
G1 X90.02 Y69.936 E1.20499
G1 X90.275 Y70.037 E1.22689
G1 X90.565 Y70.174 E1.25249
G1 X90.788 Y70.297 E1.27282
G1 X91.033 Y70.454 E1.29605
G1 X91.294 Y70.645 E1.32186
G1 X91.492 Y70.811 E1.34249
G1 X91.706 Y71.012 E1.36592
G1 X91.91 Y71.231 E1.38982
G1 X92.186 Y71.55 E1.42349
G1 X92.183 Y71.571 E1.42518
G1 X92.487 Y71.929 E1.46267
G1 X92.991 Y72.406 E1.51806
G1 X93.514 Y72.79 E1.56986
G1 X94.136 Y73.134 E1.6266
G1 X94.763 Y73.384 E1.68048
G1 X95.396 Y73.548 E1.73267
G1 X96.053 Y73.636 E1.78559
G1 X96.432 Y73.65 E1.81586
G1 X99.77 Y73.65 E2.08231
G1 X100.283 Y73.68 E2.12333
G1 X100.585 Y73.718 E2.14763
G1 X100.846 Y73.768 E2.16884
G1 X101.15 Y73.847 E2.19392
G1 X101.42 Y73.936 E2.21661
G1 X101.675 Y74.037 E2.2385
G1 X101.965 Y74.174 E2.26411
G1 X102.188 Y74.297 E2.28444
G1 X102.433 Y74.454 E2.30766
G1 X102.694 Y74.645 E2.33348
G1 X102.892 Y74.811 E2.3541
G1 X103.106 Y75.012 E2.37754
G1 X103.306 Y75.227 E2.40098
G1 X103.501 Y75.465 E2.42554
G1 X103.655 Y75.68 E2.44665
G1 X103.887 Y76.051 E2.48158
G1 X104.08 Y76.466 E2.51811
G1 X104.185 Y76.738 E2.54139
G1 X104.305 Y77.115 E2.57297
G1 X104.391 Y77.619 E2.61378
G1 X104.45 Y78.273 E2.6662
G1 X104.45 Y84.786 E3.1861
G1 X104.49 Y85.406 E3.23569
G1 X104.622 Y86.106 E3.29255
G1 X104.839 Y86.764 E3.34786
G1 X105.129 Y87.373 E3.4017
G1 X105.5 Y87.951 E3.45653
G1 X105.936 Y88.471 E3.5107
G1 X106.443 Y88.941 E3.56588
G1 X106.997 Y89.336 E3.62019
G1 X107.585 Y89.652 E3.67348
G1 X108.216 Y89.898 E3.72754
G1 X108.892 Y90.065 E3.78312
G1 X109.819 Y90.149 E3.85742
G1 X111.07 Y90.151 E3.95728
G1 X111.583 Y90.18 E3.9983
G1 X111.884 Y90.218 E4.02252
G1 X112.141 Y90.267 E4.0434
G1 X112.478 Y90.355 E4.0712
G1 X113.138 Y90.483 E4.12487
G1 X113.842 Y90.531 E4.1812
G1 X114.535 Y90.487 E4.23663
G1 X115.204 Y90.358 E4.29101
G1 X115.847 Y90.148 E4.34501
G1 X116.446 Y89.866 E4.39786
G1 X117.017 Y89.505 E4.45178
G1 X117.568 Y89.048 E4.50892
G1 X118.007 Y88.579 E4.5602
G1 X118.422 Y88.006 E4.61668
G1 X118.751 Y87.401 E4.67165
G1 X119.003 Y86.751 E4.7273
G1 X119.166 Y86.073 E4.78296
G1 X119.249 Y85.164 E4.85583
G1 X119.25 Y75.33 E5.64082
G1 X119.278 Y74.829 E5.68087
G1 X119.318 Y74.513 E5.7063
G1 X119.368 Y74.254 E5.72735
G1 X119.446 Y73.956 E5.75194
G1 X119.539 Y73.671 E5.77587
G1 X119.634 Y73.431 E5.79648
G1 X119.774 Y73.135 E5.82262
G1 X119.897 Y72.911 E5.84302
G1 X120.054 Y72.667 E5.86618
G1 X120.245 Y72.406 E5.89199
G1 X120.411 Y72.208 E5.91262
G1 X120.612 Y71.994 E5.93605
G1 X120.827 Y71.794 E5.95949
G1 X121.065 Y71.599 E5.98405
G1 X121.285 Y71.442 E6.00563
G1 X121.55 Y71.276 E6.03059
G1 X121.788 Y71.148 E6.05216
G1 X122.056 Y71.024 E6.07573
G1 X122.338 Y70.915 E6.09987
G1 X122.714 Y70.795 E6.13137
G1 X123.219 Y70.709 E6.17226
G1 X123.874 Y70.65 E6.22476
G1 X132.089 Y70.65 E6.88052
G1 X132.731 Y70.61 E6.93186
G1 X133.672 Y70.405 E7.00874
G1 X134.015 Y70.295 E7.03749
G1 X134.519 Y70.208 E7.07832
G1 X135.174 Y70.15 E7.13081
G1 X144.97 Y70.15 E7.91277
G1 X145.483 Y70.18 E7.95379
G1 X145.785 Y70.218 E7.97809
G1 X146.046 Y70.268 E7.9993
G1 X146.35 Y70.347 E8.02437
G1 X146.62 Y70.436 E8.04706
G1 X146.875 Y70.537 E8.06896
G1 X147.165 Y70.674 E8.09456
G1 X147.387 Y70.797 E8.11482
G1 X148.221 Y71.331 E8.19387
G1 X148.835 Y71.626 E8.24825
G1 X149.48 Y71.841 E8.30252
G1 X150.171 Y71.974 E8.35869
G1 X150.813 Y72.016 E8.41005
G1 X151.542 Y71.972 E8.46834
G1 X152.196 Y71.846 E8.52151
G1 X152.843 Y71.637 E8.57578
G1 X153.458 Y71.346 E8.63009
G1 X154.026 Y70.986 E8.68377
G1 X154.512 Y70.586 E8.73402
G1 X154.83 Y70.291 E8.76864
G1 X155.064 Y70.1 E8.79275
G1 X155.285 Y69.942 E8.81444
G1 X155.651 Y69.713 E8.8489
G1 X156.066 Y69.52 E8.88544
G1 X156.337 Y69.415 E8.90864
G1 X156.715 Y69.295 E8.94029
G1 X157.219 Y69.209 E8.98111
G1 X157.874 Y69.15 E9.0336
G1 X167.67 Y69.15 E9.81556
G1 X168.183 Y69.18 E9.85658
G1 X168.485 Y69.218 E9.88088
G1 X168.746 Y69.268 E9.90209
G1 X169.05 Y69.347 E9.92716
G1 X169.32 Y69.436 E9.94986
G1 X169.575 Y69.537 E9.97175
G1 X169.865 Y69.674 E9.99735
G1 X170.088 Y69.797 E10.01768
G1 X170.333 Y69.954 E10.04091
G1 X170.594 Y70.145 E10.06673
G1 X170.792 Y70.311 E10.08735
G1 X171.006 Y70.512 E10.11079
G1 X171.205 Y70.728 E10.13423
G1 X171.398 Y70.964 E10.15857
G1 X171.555 Y71.181 E10.17995
G1 X171.786 Y71.55 E10.2147
G1 X171.98 Y71.966 E10.25134
G1 X172.085 Y72.238 E10.27461
G1 X172.205 Y72.615 E10.30619
G1 X172.291 Y73.119 E10.34701
G1 X172.349 Y73.773 E10.39942
G1 X172.347 Y161.272 E17.38397
G1 X172.322 Y161.669 E17.41572
G1 X172.282 Y161.985 E17.44115
G1 X172.232 Y162.246 E17.46236
G1 X172.155 Y162.545 E17.487
G1 X172.064 Y162.82 E17.51013
G1 X171.963 Y163.076 E17.53209
G1 X171.829 Y163.359 E17.55709
G1 X171.702 Y163.588 E17.57799
G1 X171.546 Y163.833 E17.60118
G1 X171.355 Y164.094 E17.62699
G1 X171.189 Y164.292 E17.64762
G1 X170.988 Y164.506 E17.67105
G1 X170.772 Y164.705 E17.6945
G1 X170.537 Y164.898 E17.71877
G1 X170.314 Y165.059 E17.74073
G1 X170.051 Y165.223 E17.76547
G1 X169.818 Y165.348 E17.78658
G1 X169.536 Y165.479 E17.8114
G1 X169.262 Y165.585 E17.83485
G1 X168.886 Y165.705 E17.86635
G1 X168.381 Y165.791 E17.90725
G1 X167.726 Y165.85 E17.95974
G1 X157.93 Y165.85 E18.7417
G1 X157.417 Y165.82 E18.78272
G1 X157.115 Y165.782 E18.80702
G1 X156.854 Y165.732 E18.82823
G1 X156.549 Y165.652 E18.8534
G1 X156.28 Y165.564 E18.87599
G1 X156.025 Y165.463 E18.89789
G1 X155.735 Y165.326 E18.92349
G1 X155.51 Y165.202 E18.944
G1 X155.261 Y165.043 E18.96758
G1 X155.013 Y164.859 E18.99223
G1 X154.792 Y164.675 E19.01518
G1 X154.565 Y164.461 E19.04009
G1 X154.026 Y164.013 E19.09603
G1 X153.466 Y163.654 E19.14913
G1 X152.854 Y163.365 E19.20316
G1 X152.208 Y163.155 E19.25738
G1 X151.54 Y163.026 E19.31169
G1 X150.878 Y162.982 E19.36465
G1 X150.185 Y163.022 E19.42006
G1 X149.5 Y163.154 E19.47575
G1 X148.84 Y163.37 E19.53118
G1 X148.217 Y163.668 E19.58631
G1 X147.246 Y164.289 E19.67831
G1 X146.836 Y164.479 E19.71438
G1 X146.562 Y164.585 E19.73783
G1 X146.186 Y164.705 E19.76934
G1 X145.681 Y164.791 E19.81023
G1 X145.026 Y164.85 E19.86273
G1 X135.23 Y164.85 E20.64469
G1 X134.717 Y164.82 E20.68571
G1 X134.416 Y164.782 E20.70992
G1 X134.154 Y164.732 E20.73122
G1 X133.097 Y164.45 E20.81854
G1 X132.438 Y164.363 E20.8716
G1 X132.07 Y164.35 E20.901
G1 X123.93 Y164.35 E21.55077
G1 X123.417 Y164.32 E21.59179
G1 X123.115 Y164.282 E21.61608
G1 X122.854 Y164.232 E21.6373
G1 X122.55 Y164.153 E21.66237
G1 X122.278 Y164.063 E21.68524
G1 X122.025 Y163.963 E21.70695
G1 X121.735 Y163.826 E21.73256
G1 X121.512 Y163.703 E21.75289
G1 X121.261 Y163.542 E21.77669
G1 X121.006 Y163.355 E21.80193
G1 X120.808 Y163.188 E21.82261
G1 X120.585 Y162.976 E21.84717
G1 X120.38 Y162.756 E21.87117
G1 X120.2 Y162.536 E21.89386
G1 X120.033 Y162.302 E21.91681
G1 X119.812 Y161.947 E21.95019
G1 X119.619 Y161.532 E21.98672
G1 X119.515 Y161.264 E22.00967
G1 X119.395 Y160.885 E22.04141
G1 X119.309 Y160.381 E22.08222
G1 X119.25 Y159.727 E22.13464
G1 X119.25 Y149.837 E22.9241
G1 X119.208 Y149.195 E22.97546
G1 X119.077 Y148.515 E23.03073
G1 X118.863 Y147.864 E23.08544
G1 X118.568 Y147.244 E23.14024
G1 X118.214 Y146.691 E23.19266
G1 X117.766 Y146.154 E23.24848
G1 X117.268 Y145.691 E23.30276
G1 X116.721 Y145.298 E23.35652
G1 X116.123 Y144.975 E23.41078
G1 X115.472 Y144.721 E23.46656
G1 X114.842 Y144.564 E23.51839
G1 X114.133 Y144.48 E23.57538
G1 X113.443 Y144.488 E23.63046
G1 X112.581 Y144.624 E23.70012
G1 X112.158 Y144.728 E23.73489
G1 X111.781 Y144.791 E23.7654
G1 X111.126 Y144.849 E23.81789
G1 X109.819 Y144.85 E23.92222
G1 X109.18 Y144.891 E23.97333
G1 X108.502 Y145.02 E24.02843
G1 X107.869 Y145.226 E24.08156
G1 X107.235 Y145.524 E24.13748
G1 X106.649 Y145.9 E24.19306
G1 X106.129 Y146.336 E24.24723
G1 X105.67 Y146.83 E24.30106
G1 X105.258 Y147.408 E24.35772
G1 X104.945 Y147.992 E24.41061
G1 X104.701 Y148.62 E24.46439
G1 X104.534 Y149.301 E24.52036
G1 X104.451 Y150.219 E24.59394
G1 X104.45 Y156.67 E25.10888
G1 X104.422 Y157.17 E25.14886
G1 X104.382 Y157.485 E25.17421
G1 X104.332 Y157.746 E25.19542
G1 X104.254 Y158.045 E25.22008
G1 X104.164 Y158.32 E25.24318
G1 X104.063 Y158.575 E25.26508
G1 X103.926 Y158.865 E25.29068
G1 X103.803 Y159.088 E25.31101
G1 X103.646 Y159.333 E25.33423
G1 X103.455 Y159.594 E25.36005
G1 X103.289 Y159.792 E25.38068
G1 X103.088 Y160.006 E25.40411
G1 X102.872 Y160.206 E25.42761
G1 X102.637 Y160.399 E25.45188
G1 X102.414 Y160.558 E25.47375
G1 X102.151 Y160.723 E25.49853
G1 X101.918 Y160.848 E25.51964
G1 X101.636 Y160.979 E25.54446
G1 X101.362 Y161.085 E25.56791
G1 X100.985 Y161.205 E25.59949
G1 X100.481 Y161.291 E25.6403
G1 X99.826 Y161.35 E25.6928
G1 X96.407 Y161.35 E25.96572
G1 X95.756 Y161.393 E26.0178
G1 X95.097 Y161.518 E26.07134
G1 X94.456 Y161.727 E26.12516
G1 X93.823 Y162.024 E26.18097
G1 X93.245 Y162.395 E26.2358
G1 X92.718 Y162.836 E26.29065
G1 X92.116 Y163.516 E26.36315
G1 X91.879 Y163.802 E26.3928
G1 X91.687 Y164.006 E26.41516
G1 X91.472 Y164.206 E26.4386
G1 X91.237 Y164.398 E26.46282
G1 X91.014 Y164.559 E26.48478
G1 X90.751 Y164.723 E26.50952
G1 X90.518 Y164.848 E26.53063
G1 X90.236 Y164.979 E26.55545
G1 X89.962 Y165.085 E26.5789
G1 X89.586 Y165.205 E26.6104
G1 X89.081 Y165.291 E26.65129
G1 X88.426 Y165.349 E26.70378
G1 X78.63 Y165.35 E27.48574
G1 X78.117 Y165.32 E27.52676
G1 X77.815 Y165.282 E27.55106
G1 X77.554 Y165.232 E27.57227
G1 X77.25 Y165.153 E27.59735
G1 X76.98 Y165.064 E27.62004
G1 X76.725 Y164.963 E27.64193
G1 X76.435 Y164.826 E27.66754
G1 X76.206 Y164.699 E27.68844
G1 X75.961 Y164.543 E27.71162
G1 X75.706 Y164.355 E27.73691
G1 X75.508 Y164.188 E27.75759
G1 X75.285 Y163.976 E27.78215
G1 X75.08 Y163.756 E27.80615
G1 X74.898 Y163.532 E27.82919
G1 X74.733 Y163.303 E27.85172
G1 X74.514 Y162.951 E27.88481
G1 X74.319 Y162.532 E27.92171
G1 X74.215 Y162.264 E27.94465
G1 X74.095 Y161.885 E27.97639
G1 X74.009 Y161.381 E28.0172
G1 X73.95 Y160.727 E28.06962
G1 X73.95 Y74.32 E34.967
G1 X73.978 Y73.829 E35.00625
G1 X74.018 Y73.513 E35.03168
G1 X74.068 Y73.254 E35.05274
G1 X74.145 Y72.955 E35.07738
G1 X74.236 Y72.68 E35.10051
G1 X74.337 Y72.425 E35.1224
G1 X74.474 Y72.135 E35.148
G1 X74.597 Y71.912 E35.16833
G1 X74.754 Y71.667 E35.19156
G1 X74.945 Y71.406 E35.21738
G1 X75.111 Y71.208 E35.238
G1 X75.312 Y70.994 E35.26144
G0 F15000 X75.702 Y71.177
G1 F2250 X169.554 Y165.028 E45.8562
G1 F2700 E40.8562
G1 F300 Z0.44
G0 F15000 X170.853 Y164.065 Z0.44
G1 F300 Z0.24
G1 F2700 E45.8562
G1 F2250 X77.105 Y70.316 E56.43935
G1 F2700 E51.43935
G1 F300 Z0.44
G0 F15000 X79.101 Y70.05 Z0.44
G1 F300 Z0.24
G1 F2700 E56.43935
G1 F2250 X171.698 Y162.647 E66.89249
G1 F2700 E61.89249
G1 F300 Z0.44
G0 F15000 X171.946 Y160.632 Z0.44
G1 F300 Z0.24
G1 F2700 E66.89249
G1 F2250 X81.363 Y70.05 E77.11823
G1 F2700 E72.11823
G1 F300 Z0.44
G0 F15000 X83.626 Y70.05 Z0.44
G1 F300 Z0.24
G1 F2700 E77.11823
G1 F2250 X171.946 Y158.369 E87.0885
G1 F2700 E82.0885
G1 F300 Z0.44
G0 F15000 X171.946 Y156.107 Z0.44
G1 F300 Z0.24
G1 F2700 E87.0885
G1 F2250 X85.889 Y70.05 E96.80336
G1 F2700 E91.80336
G1 F300 Z0.44
G0 F15000 X88.152 Y70.05 Z0.44
G1 F300 Z0.24
G1 F2700 E96.80336
G1 F2250 X104.218 Y86.116 E98.61703
G1 F2700 E93.61703
G1 F300 Z0.44
G0 F15000 X104.049 Y83.684 Z0.44
G1 F300 Z0.24
G1 F2700 E98.61703
G1 F2250 X93.74 Y73.375 E99.78079
G1 F2700 E94.78079
G1 F300 Z0.44
G0 F15000 X96.677 Y74.049 Z0.44
G1 F300 Z0.24
G1 F2700 E99.78079
G1 F2250 X104.049 Y81.421 E100.61301
G1 F2700 E95.61301
G1 F300 Z0.44
G0 F15000 X104.049 Y79.159 Z0.44
G1 F300 Z0.24
G1 F2700 E100.61301
G1 F2250 X98.939 Y74.049 E101.18987
G1 F2700 E96.18987
G1 F300 Z0.44
G0 F15000 X101.594 Y74.441 Z0.44
G1 F300 Z0.24
G1 F2700 E101.18987
G1 F2250 X103.655 Y76.502 E101.42253
G1 F2700 E96.42253
G1 F300 Z0.44
G0 F15000 X108.477 Y90.375 Z0.44
G1 F300 Z0.24
G1 F2700 E101.42253
G1 F2250 X171.946 Y153.844 E108.58746
G1 F2700 E103.58746
G1 F300 Z0.44
G0 F15000 X171.946 Y151.581 Z0.44
G1 F300 Z0.24
G1 F2700 E108.58746
G1 F2250 X110.916 Y90.551 E115.47706
G1 F2700 E110.47706
G1 F300 Z0.44
G0 F15000 X113.54 Y90.912 Z0.44
G1 F300 Z0.24
G1 F2700 E115.47706
G1 F2250 X171.946 Y149.319 E122.07049
G1 F2700 E117.07049
G1 F300 Z0.44
G0 F15000 X171.946 Y147.056 Z0.44
G1 F300 Z0.24
G1 F2700 E122.07049
G1 F2250 X115.554 Y90.664 E128.4365
G1 F2700 E123.4365
G1 F300 Z0.44
G0 F15000 X117.086 Y89.933 Z0.44
G1 F300 Z0.24
G1 F2700 E128.4365
G1 F2250 X171.946 Y144.793 E134.62957
G1 F2700 E129.62957
G1 F300 Z0.44
G0 F15000 X171.946 Y142.53 Z0.44
G1 F300 Z0.24
G1 F2700 E134.62957
G1 F2250 X118.283 Y88.867 E140.68752
G1 F2700 E135.68752
G1 F300 Z0.44
G0 F15000 X119.15 Y87.471 Z0.44
G1 F300 Z0.24
G1 F2700 E140.68752
G1 F2250 X171.946 Y140.268 E146.64764
G1 F2700 E141.64764
G1 F300 Z0.44
G0 F15000 X171.947 Y138.006 Z0.44
G1 F300 Z0.24
G1 F2700 E146.64764
G1 F2250 X119.603 Y85.662 E152.55669
G1 F2700 E147.55669
G1 F300 Z0.44
G0 F15000 X119.648 Y83.444 Z0.44
G1 F300 Z0.24
G1 F2700 E152.55669
G1 F2250 X171.947 Y135.743 E158.46065
G1 F2700 E153.46065
G1 F300 Z0.44
G0 F15000 X171.947 Y133.48 Z0.44
G1 F300 Z0.24
G1 F2700 E158.46065
G1 F2250 X119.648 Y81.181 E164.36461
G1 F2700 E159.36461
G1 F300 Z0.44
G0 F15000 X119.648 Y78.919 Z0.44
G1 F300 Z0.24
G1 F2700 E164.36461
G1 F2250 X171.947 Y131.217 E170.26852
G1 F2700 E165.26852
G1 F300 Z0.44
G0 F15000 X171.947 Y128.955 Z0.44
G1 F300 Z0.24
G1 F2700 E170.26852
G1 F2250 X119.648 Y76.656 E176.17248
G1 F2700 E171.17248
G1 F300 Z0.44
G0 F15000 X119.725 Y74.47 Z0.44
G1 F300 Z0.24
G1 F2700 E176.17248
G1 F2250 X171.947 Y126.692 E182.06775
G1 F2700 E177.06775
G1 F300 Z0.44
G0 F15000 X171.947 Y124.429 Z0.44
G1 F300 Z0.24
G1 F2700 E182.06775
G1 F2250 X120.394 Y72.877 E187.88744
G1 F2700 E182.88744
G1 F300 Z0.44
G0 F15000 X121.537 Y71.757 Z0.44
G1 F300 Z0.24
G1 F2700 E187.88744
G1 F2250 X171.947 Y122.166 E193.5781
G1 F2700 E188.5781
G1 F300 Z0.44
G0 F15000 X171.947 Y119.904 Z0.44
G1 F300 Z0.24
G1 F2700 E193.5781
G1 F2250 X123.166 Y71.123 E199.08492
G1 F2700 E194.08492
G1 F300 Z0.44
G0 F15000 X125.355 Y71.05 Z0.44
G1 F300 Z0.24
G1 F2700 E199.08492
G1 F2250 X171.947 Y117.641 E204.34458
G1 F2700 E199.34458
G1 F300 Z0.44
G0 F15000 X171.947 Y115.379 Z0.44
G1 F300 Z0.24
G1 F2700 E204.34458
G1 F2250 X127.618 Y71.05 E209.34882
G1 F2700 E204.34882
G1 F300 Z0.44
G0 F15000 X129.88 Y71.049 Z0.44
G1 F300 Z0.24
G1 F2700 E209.34882
G1 F2250 X171.947 Y113.116 E214.0977
G1 F2700 E209.0977
G1 F300 Z0.44
G0 F15000 X171.947 Y110.853 Z0.44
G1 F300 Z0.24
G1 F2700 E214.0977
G1 F2250 X132.141 Y71.047 E218.59135
G1 F2700 E213.59135
G1 F300 Z0.44
G0 F15000 X134.058 Y70.702 Z0.44
G1 F300 Z0.24
G1 F2700 E218.59135
G1 F2250 X171.947 Y108.591 E222.86859
G1 F2700 E217.86859
G1 F300 Z0.44
G0 F15000 X171.947 Y106.328 Z0.44
G1 F300 Z0.24
G1 F2700 E222.86859
G1 F2250 X136.169 Y70.55 E226.90752
G1 F2700 E221.90752
G1 F300 Z0.44
G0 F15000 X138.432 Y70.55 Z0.44
G1 F300 Z0.24
G1 F2700 E226.90752
G1 F2250 X171.947 Y104.065 E230.69098
G1 F2700 E225.69098
G1 F300 Z0.44
