;FLAVOR:Marlin
;TIME:2106
;Filament used: 4.05671m
;Layer height: 0.4
;MINX:107.95
;MINY:69.15
;MINZ:0.24
;MAXX:142.049
;MAXY:165.85
;MAXZ:6.59
;Generated with Cura_SteamEngine 5.3.1
M140 S60
M105
M190 S60
M104 S200
M105
M109 S200
M82 ;absolute extrusion mode
; Ender 3 Custom Start G-code
G92 E0 ; Reset Extruder
G28 ; Home all axes
G1 Z2.0 F3000 ; Move Z Axis up little to prevent scratching of Heat Bed
G1 X0.1 Y20 Z0.3 F5000.0 ; Move to start position
G1 X0.1 Y200.0 Z0.3 F1500.0 E15 ; Draw the first line
G1 X0.4 Y200.0 Z0.3 F5000.0 ; Move to side a little
G1 X0.4 Y20 Z0.3 F1500.0 E30 ; Draw the second line
G92 E0 ; Reset Extruder
G1 Z2.0 F3000 ; Move Z Axis up little to prevent scratching of Heat Bed
G1 X5 Y20 Z0.3 F5000.0 ; Move over to prevent blob squish
G92 E0
G92 E0
G1 F2700 E-5
;LAYER_COUNT:13
;LAYER:-5
M107
G0 F15000 X108.754 Y71.667 Z0.24
;TYPE:SUPPORT-INTERFACE
G1 F2700 E0
G1 F2250 X108.945 Y71.406 E0.02582
G1 X109.111 Y71.208 E0.04644
G1 X109.312 Y70.994 E0.06988
G1 X109.527 Y70.794 E0.09332
G1 X109.765 Y70.599 E0.11788
G1 X109.985 Y70.442 E0.13945
G1 X110.351 Y70.213 E0.17392
G1 X110.766 Y70.02 E0.21045
G1 X111.037 Y69.915 E0.23365
G1 X111.415 Y69.795 E0.26531
G1 X111.919 Y69.709 E0.30612
G1 X112.574 Y69.65 E0.35862
G1 X122.37 Y69.651 E1.14058
G1 X122.887 Y69.68 E1.18191
G1 X123.325 Y69.722 E1.21703
G1 X123.335 Y69.734 E1.21828
G1 X123.732 Y69.777 E1.25016
G1 X124.424 Y69.776 E1.30539
G1 X125.106 Y69.686 E1.36031
G1 X125.979 Y69.436 E1.43279
G1 X126.413 Y69.295 E1.46922
G1 X126.919 Y69.208 E1.5102
G1 X127.574 Y69.15 E1.56269
G1 X137.37 Y69.15 E2.34465
G1 X137.883 Y69.18 E2.38567
G1 X138.185 Y69.218 E2.40997
G1 X138.446 Y69.268 E2.43118
G1 X138.75 Y69.347 E2.45626
G1 X139.02 Y69.436 E2.47895
G1 X139.275 Y69.537 E2.50084
G1 X139.565 Y69.674 E2.52644
G1 X139.788 Y69.797 E2.54677
G1 X140.033 Y69.954 E2.57
G1 X140.294 Y70.145 E2.59582
G1 X140.492 Y70.311 E2.61644
G1 X140.706 Y70.512 E2.63988
G1 X140.906 Y70.727 E2.66332
G1 X141.101 Y70.965 E2.68788
G1 X141.255 Y71.18 E2.70899
G1 X141.487 Y71.551 E2.74392
G1 X141.68 Y71.966 E2.78045
G1 X141.785 Y72.238 E2.80373
G1 X141.905 Y72.615 E2.83531
G1 X141.991 Y73.119 E2.87612
G1 X142.049 Y73.773 E2.92853
G1 X142.046 Y161.295 E9.91492
G1 X142.022 Y161.669 E9.94483
G1 X141.982 Y161.985 E9.97026
G1 X141.932 Y162.246 E9.99147
G1 X141.855 Y162.545 E10.01612
G1 X141.764 Y162.82 E10.03924
G1 X141.663 Y163.075 E10.06113
G1 X141.526 Y163.365 E10.08673
G1 X141.403 Y163.588 E10.10706
G1 X141.246 Y163.833 E10.13029
G1 X141.055 Y164.094 E10.15611
G1 X140.889 Y164.292 E10.17673
G1 X140.688 Y164.506 E10.20017
G1 X140.472 Y164.706 E10.22367
G1 X140.237 Y164.899 E10.24794
G1 X140.014 Y165.058 E10.2698
G1 X139.751 Y165.223 E10.29459
G1 X139.518 Y165.348 E10.31569
G1 X139.236 Y165.479 E10.34051
G1 X138.962 Y165.585 E10.36397
G1 X138.586 Y165.705 E10.39547
G1 X138.081 Y165.791 E10.43636
G1 X137.426 Y165.85 E10.48886
G1 X127.63 Y165.85 E11.27082
G1 X127.117 Y165.82 E11.31184
G1 X126.815 Y165.782 E11.33614
G1 X126.554 Y165.732 E11.35735
G1 X126.244 Y165.651 E11.38293
G1 X125.397 Y165.379 E11.45394
G1 X124.695 Y165.246 E11.51097
G1 X124.03 Y165.208 E11.56414
G1 X123.187 Y165.277 E11.63166
G1 X122.434 Y165.35 E11.69205
G1 X112.63 Y165.35 E12.47464
G1 X112.117 Y165.32 E12.51566
G1 X111.815 Y165.282 E12.53996
G1 X111.554 Y165.232 E12.56117
G1 X111.25 Y165.153 E12.58625
G1 X110.98 Y165.064 E12.60894
G1 X110.725 Y164.963 E12.63083
G1 X110.435 Y164.826 E12.65644
G1 X110.212 Y164.703 E12.67677
G1 X109.961 Y164.542 E12.70057
G1 X109.706 Y164.355 E12.72581
G1 X109.508 Y164.188 E12.74649
G1 X109.285 Y163.976 E12.77105
G1 X109.08 Y163.756 E12.79505
G1 X108.9 Y163.536 E12.81774
G1 X108.733 Y163.302 E12.84069
G1 X108.512 Y162.947 E12.87407
G1 X108.319 Y162.532 E12.9106
G1 X108.215 Y162.264 E12.93355
G1 X108.095 Y161.885 E12.96529
G1 X108.009 Y161.381 E13.0061
G1 X107.95 Y160.727 E13.05852
G1 X107.955 Y74.205 E19.96508
G1 X107.978 Y73.831 E19.99499
G1 X108.018 Y73.513 E20.02057
G1 X108.068 Y73.254 E20.04163
G1 X108.145 Y72.955 E20.06627
G1 X108.236 Y72.68 E20.0894
G1 X108.337 Y72.425 E20.11129
G1 X108.474 Y72.135 E20.13689
G1 X108.597 Y71.912 E20.15722
G1 X108.754 Y71.667 E20.18045
G0 F15000 X108.73 Y72.526
G1 F2250 X141.647 Y105.443 E23.8964
G1 F2700 E18.8964
G1 F300 Z0.44
G0 F15000 X141.647 Y103.181 Z0.44
G1 F300 Z0.24
G1 F2700 E23.8964
G1 F2250 X109.671 Y71.204 E27.50619
G1 F2700 E22.50619
G1 F300 Z0.44
G0 F15000 X111.063 Y70.333 Z0.44
G1 F300 Z0.24
G1 F2700 E27.50619
G1 F2250 X141.648 Y100.918 E30.95889
G1 F2700 E25.95889
G1 F300 Z0.44
G0 F15000 X141.648 Y98.656 Z0.44
G1 F300 Z0.24
G1 F2700 E30.95889
G1 F2250 X113.043 Y70.05 E34.18812
G1 F2700 E29.18812
G1 F300 Z0.44
G0 F15000 X115.305 Y70.05 Z0.44
G1 F300 Z0.24
G1 F2700 E34.18812
G1 F2250 X141.648 Y96.393 E37.16195
G1 F2700 E32.16195
G1 F300 Z0.44
G0 F15000 X141.648 Y94.13 Z0.44
G1 F300 Z0.24
G1 F2700 E37.16195
G1 F2250 X117.568 Y70.05 E39.88031
G1 F2700 E34.88031
G1 F300 Z0.44
G0 F15000 X119.831 Y70.05 Z0.44
G1 F300 Z0.24
G1 F2700 E39.88031
G1 F2250 X141.648 Y91.868 E42.34325
G1 F2700 E37.34325
G1 F300 Z0.44
G0 F15000 X141.648 Y89.605 Z0.44
G1 F300 Z0.24
G1 F2700 E42.34325
G1 F2250 X122.094 Y70.05 E44.55074
G1 F2700 E39.55074
G1 F300 Z0.44
G0 F15000 X124.477 Y70.171 Z0.44
G1 F300 Z0.24
G1 F2700 E44.55074
G1 F2250 X141.648 Y87.342 E46.48915
G1 F2700 E41.48915
G1 F300 Z0.44
G0 F15000 X141.648 Y85.079 Z0.44
G1 F300 Z0.24
G1 F2700 E46.48915
G1 F2250 X126.315 Y69.746 E48.22007
G1 F2700 E43.22007
G1 F300 Z0.44
G0 F15000 X128.381 Y69.55 Z0.44
G1 F300 Z0.24
G1 F2700 E48.22007
G1 F2250 X141.648 Y82.817 E49.71776
G1 F2700 E44.71776
G1 F300 Z0.44
G0 F15000 X141.648 Y80.554 Z0.44
G1 F300 Z0.24
G1 F2700 E49.71776
G1 F2250 X130.644 Y69.55 E50.95999
G1 F2700 E45.95999
G1 F300 Z0.44
G0 F15000 X132.907 Y69.55 Z0.44
G1 F300 Z0.24
G1 F2700 E50.95999
G1 F2250 X141.648 Y78.291 E51.94675
G1 F2700 E46.94675
G1 F300 Z0.44
G0 F15000 X141.648 Y76.028 Z0.44
G1 F300 Z0.24
G1 F2700 E51.94675
G1 F2250 X135.169 Y69.55 E52.6781
G1 F2700 E47.6781
G1 F300 Z0.44
G0 F15000 X137.437 Y69.555 Z0.44
G1 F300 Z0.24
G1 F2700 E52.6781
G1 F2250 X141.646 Y73.763 E53.15319
G1 F2700 E48.15319
G1 F300 Z0.44
G0 F15000 X108.353 Y74.412 Z0.44
G1 F300 Z0.24
G1 F2700 E53.15319
G1 F2250 X141.647 Y107.706 E56.9117
G1 F2700 E51.9117
G1 F300 Z0.44
G0 F15000 X141.647 Y109.969 Z0.44
G1 F300 Z0.24
G1 F2700 E56.9117
G1 F2250 X108.353 Y76.675 E60.67022
G1 F2700 E55.67022
G1 F300 Z0.44
G0 F15000 X108.353 Y78.937 Z0.44
G1 F300 Z0.24
G1 F2700 E60.67022
G1 F2250 X141.647 Y112.231 E64.42873
G1 F2700 E59.42873
G1 F300 Z0.44
G0 F15000 X141.647 Y114.494 Z0.44
G1 F300 Z0.24
G1 F2700 E64.42873
G1 F2250 X108.353 Y81.2 E68.18725
G1 F2700 E63.18725
G1 F300 Z0.44
G0 F15000 X108.353 Y83.463 Z0.44
G1 F300 Z0.24
G1 F2700 E68.18725
G1 F2250 X141.647 Y116.757 E71.94576
G1 F2700 E66.94576
G1 F300 Z0.44
G0 F15000 X141.647 Y119.02 Z0.44
G1 F300 Z0.24
G1 F2700 E71.94576
G1 F2250 X108.353 Y85.726 E75.70428
G1 F2700 E70.70428
G1 F300 Z0.44
G0 F15000 X108.353 Y87.988 Z0.44
G1 F300 Z0.24
G1 F2700 E75.70428
G1 F2250 X141.647 Y121.282 E79.46279
G1 F2700 E74.46279
G1 F300 Z0.44
G0 F15000 X141.647 Y123.545 Z0.44
G1 F300 Z0.24
G1 F2700 E79.46279
G1 F2250 X108.352 Y90.25 E83.22142
G1 F2700 E78.22142
G1 F300 Z0.44
G0 F15000 X108.352 Y92.513 Z0.44
G1 F300 Z0.24
G1 F2700 E83.22142
G1 F2250 X141.647 Y125.808 E86.98004
G1 F2700 E81.98004
G1 F300 Z0.44
G0 F15000 X141.647 Y128.071 Z0.44
G1 F300 Z0.24
G1 F2700 E86.98004
G1 F2250 X108.352 Y94.776 E90.73867
G1 F2700 E85.73867
G1 F300 Z0.44
G0 F15000 X108.352 Y97.039 Z0.44
G1 F300 Z0.24
G1 F2700 E90.73867
G1 F2250 X141.647 Y130.333 E94.49724
G1 F2700 E89.49724
G1 F300 Z0.44
G0 F15000 X141.646 Y132.595 Z0.44
G1 F300 Z0.24
G1 F2700 E94.49724
G1 F2250 X108.352 Y99.301 E98.25576
G1 F2700 E93.25576
G1 F300 Z0.44
G0 F15000 X108.352 Y101.564 Z0.44
G1 F300 Z0.24
G1 F2700 E98.25576
G1 F2250 X141.646 Y134.858 E102.01427
G1 F2700 E97.01427
G1 F300 Z0.44
G0 F15000 X141.646 Y137.121 Z0.44
G1 F300 Z0.24
G1 F2700 E102.01427
G1 F2250 X108.352 Y103.826 E105.77284
G1 F2700 E100.77284
G1 F300 Z0.44
G0 F15000 X108.352 Y106.089 Z0.44
G1 F300 Z0.24
G1 F2700 E105.77284
G1 F2250 X141.646 Y139.384 E109.53141
G1 F2700 E104.53141
G1 F300 Z0.44
G0 F15000 X141.646 Y141.646 Z0.44
G1 F300 Z0.24
G1 F2700 E109.53141
G1 F2250 X108.352 Y108.352 E113.28993
G1 F2700 E108.28993
G1 F300 Z0.44
G0 F15000 X108.352 Y110.614 Z0.44
G1 F300 Z0.24
G1 F2700 E113.28993
G1 F2250 X141.646 Y143.909 E117.0485
G1 F2700 E112.0485
G1 F300 Z0.44
G0 F15000 X141.646 Y146.172 Z0.44
G1 F300 Z0.24
G1 F2700 E117.0485
G1 F2250 X108.352 Y112.877 E120.80707
G1 F2700 E115.80707
G1 F300 Z0.44
G0 F15000 X108.352 Y115.14 Z0.44
G1 F300 Z0.24
G1 F2700 E120.80707
G1 F2250 X141.646 Y148.435 E124.56564
G1 F2700 E119.56564
G1 F300 Z0.44
G0 F15000 X141.646 Y150.697 Z0.44
G1 F300 Z0.24
G1 F2700 E124.56564
G1 F2250 X108.352 Y117.403 E128.32415
G1 F2700 E123.32415
G1 F300 Z0.44
G0 F15000 X108.351 Y119.665 Z0.44
G1 F300 Z0.24
G1 F2700 E128.32415
G1 F2250 X141.646 Y152.96 E132.08278
G1 F2700 E127.08278
G1 F300 Z0.44
G0 F15000 X141.646 Y155.223 Z0.44
G1 F300 Z0.24
G1 F2700 E132.08278
G1 F2250 X108.351 Y121.927 E135.84147
G1 F2700 E130.84147
G1 F300 Z0.44
G0 F15000 X108.351 Y124.19 Z0.44
G1 F300 Z0.24
G1 F2700 E135.84147
G1 F2250 X141.646 Y157.486 E139.60015
G1 F2700 E134.60015
G1 F300 Z0.44
G0 F15000 X141.646 Y159.748 Z0.44
G1 F300 Z0.24
G1 F2700 E139.60015
G1 F2250 X108.351 Y126.453 E143.35878
G1 F2700 E138.35878
G1 F300 Z0.44
G0 F15000 X108.351 Y128.716 Z0.44
G1 F300 Z0.24
G1 F2700 E143.35878
G1 F2250 X141.583 Y161.948 E147.11029
G1 F2700 E142.11029
G1 F300 Z0.44
G0 F15000 X140.941 Y163.568 Z0.44
G1 F300 Z0.24
G1 F2700 E147.11029
G1 F2250 X108.351 Y130.978 E150.78933
G1 F2700 E145.78933
G1 F300 Z0.44
G0 F15000 X108.35 Y133.24 Z0.44
G1 F300 Z0.24
G1 F2700 E150.78933
G1 F2250 X139.817 Y164.707 E154.3416
G1 F2700 E149.3416
G1 F300 Z0.44
G0 F15000 X138.209 Y165.362 Z0.44
G1 F300 Z0.24
G1 F2700 E154.3416
G1 F2250 X108.35 Y135.503 E157.71234
G1 F2700 E152.71234
G1 F300 Z0.44
G0 F15000 X108.35 Y137.766 Z0.44
G1 F300 Z0.24
G1 F2700 E157.71234
G1 F2250 X136.033 Y165.448 E160.83738
G1 F2700 E155.83738
G1 F300 Z0.44
G0 F15000 X133.77 Y165.448 Z0.44
G1 F300 Z0.24
G1 F2700 E160.83738
G1 F2250 X108.35 Y140.029 E163.70695
G1 F2700 E158.70695
G1 F300 Z0.44
G0 F15000 X108.35 Y142.291 Z0.44
G1 F300 Z0.24
G1 F2700 E163.70695
G1 F2250 X131.507 Y165.448 E166.32112
G1 F2700 E161.32112
G1 F300 Z0.44
G0 F15000 X129.244 Y165.448 Z0.44
G1 F300 Z0.24
G1 F2700 E166.32112
G1 F2250 X108.35 Y144.554 E168.67981
G1 F2700 E163.67981
G1 F300 Z0.44
G0 F15000 X108.349 Y146.816 Z0.44
G1 F300 Z0.24
G1 F2700 E168.67981
G1 F2250 X126.924 Y165.391 E170.77672
G1 F2700 E165.77672
G1 F300 Z0.44
G0 F15000 X124.077 Y164.806 Z0.44
G1 F300 Z0.24
G1 F2700 E170.77672
G1 F2250 X108.349 Y149.079 E172.55217
G1 F2700 E167.55217
G1 F300 Z0.44
G0 F15000 X108.349 Y151.342 Z0.44
G1 F300 Z0.24
G1 F2700 E172.55217
G1 F2250 X121.956 Y164.948 E174.08819
G1 F2700 E169.08819
G1 F300 Z0.44
G0 F15000 X119.694 Y164.948 Z0.44
G1 F300 Z0.24
G1 F2700 E174.08819
G1 F2250 X108.349 Y153.604 E175.36886
G1 F2700 E170.36886
G1 F300 Z0.44
G0 F15000 X108.349 Y155.867 Z0.44
G1 F300 Z0.24
G1 F2700 E175.36886
G1 F2250 X117.431 Y164.948 E176.39406
G1 F2700 E171.39406
G1 F300 Z0.44
G0 F15000 X115.168 Y164.948 Z0.44
G1 F300 Z0.24
G1 F2700 E176.39406
G1 F2250 X108.349 Y158.13 E177.16379
G1 F2700 E172.16379
G1 F300 Z0.44
G0 F15000 X108.349 Y160.393 Z0.44
G1 F300 Z0.24
G1 F2700 E177.16379
G1 F2250 X112.905 Y164.948 E177.67805
G1 F2700 E172.67805
G1 F300 Z0.44
G0 F15000 X141.398 Y162.657 Z0.44
;TIME_ELAPSED:90.429037
;LAYER:-4
G0 X141.398 Y162.657 Z1.04
;TYPE:SUPPORT
G1 F300 Z0.84
G1 F2700 E177.67805
G1 F2250 X138.86 Y165.195 E178.39433
G1 X139.092 Y165.105 E178.44399
G1 X139.328 Y164.996 E178.49587
G1 X139.558 Y164.871 E178.54811
G1 X139.78 Y164.733 E178.60027
G1 X140 Y164.576 E178.65421
G1 X140.308 Y164.324 E178.73362
G1 X140.683 Y163.925 E178.8429
G1 X140.905 Y163.624 E178.91753
G1 X141.055 Y163.387 E178.97351
G1 X141.178 Y163.164 E179.02433
G1 X141.291 Y162.926 E179.07691
G1 X141.439 Y162.553 E179.15699
G1 X141.538 Y162.174 E179.23516
G1 X141.589 Y161.906 E179.2896
G1 X141.625 Y161.627 E179.34574
G1 X141.645 Y161.29 E179.41311
G1 X141.645 Y160.996 E179.47178
G1 X137.192 Y165.449 E180.72852
G1 X135.777 Y165.449 E181.01089
G1 X141.645 Y159.581 E182.66697
G1 X141.645 Y158.167 E182.94915
G1 X134.363 Y165.449 E185.00429
G1 X132.949 Y165.449 E185.28647
G1 X141.645 Y156.753 E187.74067
G1 X141.645 Y155.339 E188.02284
G1 X131.535 Y165.449 E190.8761
G1 X130.121 Y165.449 E191.15828
G1 X141.645 Y153.925 E194.41061
G1 X141.645 Y152.51 E194.69298
G1 X128.706 Y165.449 E198.34465
G1 X127.629 Y165.448 E198.55958
G1 X127.31 Y165.431 E198.62333
G1 X141.645 Y151.096 E202.66897
G1 X141.645 Y149.682 E202.95115
G1 X126.132 Y165.195 E207.32926
G1 X125.492 Y164.988 E207.46349
G1 X125.016 Y164.897 E207.5602
G1 X141.645 Y148.268 E212.25326
G1 X141.645 Y146.854 E212.53544
G1 X123.662 Y164.837 E217.61063
G1 X122.417 Y164.948 E217.86007
G1 X122.136 Y164.948 E217.91615
G1 X141.645 Y145.439 E223.42201
G1 X141.645 Y144.025 E223.70419
G1 X120.722 Y164.948 E229.60911
G1 X119.308 Y164.948 E229.89129
G1 X141.646 Y142.61 E236.19556
G1 X141.646 Y141.196 E236.47774
G1 X117.893 Y164.948 E243.1812
G1 X116.479 Y164.948 E243.46338
G1 X141.646 Y139.782 E250.56591
G1 X141.646 Y138.368 E250.84809
G1 X115.065 Y164.948 E258.34968
G1 X113.651 Y164.948 E258.63186
G1 X141.646 Y136.953 E266.53266
G1 X141.646 Y135.539 E266.81484
G1 X112.256 Y164.929 E275.10933
G1 X111.891 Y164.889 E275.1826
G1 X111.625 Y164.837 E275.23669
G1 X111.077 Y164.694 E275.34971
G1 X141.646 Y134.125 E283.97695
G1 X141.646 Y132.711 E284.25912
G1 X110.162 Y164.195 E293.14459
G1 X109.873 Y163.982 E293.21623
G1 X109.402 Y163.54 E293.34513
G1 X141.646 Y131.297 E302.44495
G1 X141.646 Y129.882 E302.72732
G1 X108.837 Y162.691 E311.98673
G1 X108.632 Y162.261 E312.0818
G1 X108.448 Y161.666 E312.20608
G1 X141.646 Y128.468 E321.57528
G1 X141.646 Y127.054 E321.85746
G1 X108.35 Y160.349 E331.25417
G1 X108.35 Y158.935 E331.53634
G1 X141.646 Y125.639 E340.93319
G1 X141.646 Y124.225 E341.21537
G1 X108.35 Y157.521 E350.61222
G1 X108.35 Y156.107 E350.8944
G1 X141.646 Y122.811 E360.29125
G1 X141.646 Y121.396 E360.57363
G1 X108.35 Y154.693 E369.97062
G1 X108.35 Y153.278 E370.253
G1 X141.646 Y119.982 E379.64985
G1 X141.646 Y118.568 E379.93203
G1 X108.35 Y151.864 E389.32888
G1 X108.35 Y150.45 E389.61106
G1 X141.646 Y117.154 E399.00791
G1 X141.646 Y115.739 E399.29029
G1 X108.35 Y149.036 E408.68728
G1 X108.35 Y147.621 E408.96966
G1 X141.646 Y114.325 E418.36651
G1 X141.646 Y112.911 E418.64869
G1 X108.35 Y146.207 E428.04554
G1 X108.35 Y144.793 E428.32772
G1 X141.646 Y111.497 E437.72457
G1 X141.646 Y110.083 E438.00675
G1 X108.351 Y143.378 E447.40332
G1 X108.351 Y141.964 E447.6855
G1 X141.647 Y108.668 E457.08235
G1 X141.647 Y107.253 E457.36473
G1 X108.351 Y140.55 E466.76172
G1 X108.351 Y139.135 E467.0441
G1 X141.647 Y105.839 E476.44095
G1 X141.647 Y104.425 E476.72313
G1 X108.351 Y137.721 E486.11998
G1 X108.351 Y136.307 E486.40216
G1 X141.647 Y103.011 E495.79901
G1 X141.647 Y101.597 E496.08118
G1 X108.351 Y134.893 E505.47804
G1 X108.351 Y133.479 E505.76021
G1 X141.647 Y100.182 E515.15721
G1 X141.647 Y98.768 E515.43938
G1 X108.351 Y132.064 E524.83624
G1 X108.351 Y130.65 E525.11841
G1 X141.647 Y97.354 E534.51527
G1 X141.647 Y95.94 E534.79744
G1 X108.351 Y129.236 E544.19429
G1 X108.351 Y127.822 E544.47647
G1 X141.647 Y94.526 E553.87332
G1 X141.647 Y93.111 E554.1557
G1 X108.351 Y126.408 E563.55269
G1 X108.352 Y124.993 E563.83507
G1 X141.647 Y91.697 E573.23178
G1 X141.648 Y90.282 E573.51416
G1 X108.352 Y123.578 E582.91101
G1 X108.352 Y122.164 E583.19319
G1 X141.648 Y88.868 E592.59004
G1 X141.648 Y87.454 E592.87222
G1 X108.352 Y120.75 E602.26907
G1 X108.352 Y119.336 E602.55125
G1 X141.648 Y86.04 E611.9481
G1 X141.648 Y84.625 E612.23048
G1 X108.352 Y117.922 E621.62747
G1 X108.352 Y116.507 E621.90985
G1 X141.648 Y83.211 E631.3067
