;FLAVOR:Marlin
;TIME:805
;Filament used: 1.39152m
;Layer height: 0.4
;MINX:112.75
;MINY:72.7
;MINZ:0.2
;MAXX:122.25
;MAXY:162.3
;MAXZ:5.2
;Generated with Cura_SteamEngine 5.3.1
M140 S60
M105
M190 S60
M104 S200
M105
M109 S200
M82 ;absolute extrusion mode
; Ender 3 Custom Start G-code
G92 E0 ; Reset Extruder
G28 ; Home all axes
G1 Z2.0 F3000 ; Move Z Axis up little to prevent scratching of Heat Bed
G1 X0.1 Y20 Z0.3 F5000.0 ; Move to start position
G1 X0.1 Y200.0 Z0.3 F1500.0 E15 ; Draw the first line
G1 X0.4 Y200.0 Z0.3 F5000.0 ; Move to side a little
G1 X0.4 Y20 Z0.3 F1500.0 E30 ; Draw the second line
G92 E0 ; Reset Extruder
G1 Z2.0 F3000 ; Move Z Axis up little to prevent scratching of Heat Bed
G1 X5 Y20 Z0.3 F5000.0 ; Move over to prevent blob squish
G92 E0
G92 E0
G1 F2700 E-5
;LAYER_COUNT:13
;LAYER:0
M107
G1 F300 Z0.4
;MESH:Cube_Holder_(90mm).stl
G0 F6000 X116.846 Y80.541 Z0.4
;TYPE:WALL-INNER
G1 F300 Z0.2
G1 F2700 E0
G1 F1200 X116.382 Y80.392 E0.01621
G1 X115.875 Y80.159 E0.03477
G1 X115.44 Y79.817 E0.05317
G1 X115.1 Y79.484 E0.069
G1 X114.72 Y78.902 E0.09212
G1 X114.526 Y78.376 E0.11077
G1 X114.447 Y78.045 E0.12208
G1 X114.406 Y77.704 E0.13351
G1 X114.409 Y77.261 E0.14824
G1 X114.46 Y76.842 E0.16228
G1 X114.636 Y76.309 E0.18095
G1 X114.844 Y75.871 E0.19708
G1 X115.136 Y75.494 E0.21294
G1 X115.514 Y75.101 E0.23107
G1 X116.098 Y74.719 E0.25428
G1 X116.624 Y74.526 E0.27292
G1 X116.955 Y74.447 E0.28424
G1 X117.296 Y74.406 E0.29566
G1 X117.739 Y74.409 E0.3104
G1 X118.155 Y74.46 E0.32433
G1 X118.618 Y74.608 E0.3405
G1 X119.13 Y74.844 E0.35925
G1 X119.559 Y75.183 E0.37744
G1 X119.902 Y75.519 E0.39341
G1 X120.279 Y76.098 E0.41639
G1 X120.474 Y76.624 E0.43505
G1 X120.545 Y76.917 E0.44507
G1 X120.598 Y77.366 E0.46011
G1 X120.591 Y77.739 E0.47252
G1 X120.543 Y78.129 E0.48559
G1 X120.392 Y78.618 E0.50261
G1 X120.161 Y79.12 E0.52099
G1 X119.864 Y79.506 E0.53719
G1 X119.483 Y79.901 E0.55544
G1 X118.902 Y80.281 E0.57853
G1 X118.376 Y80.474 E0.59717
G1 X118.083 Y80.545 E0.6072
G1 X117.704 Y80.593 E0.6199
G1 X117.327 Y80.595 E0.63244
G1 X116.846 Y80.541 E0.64854
G1 F2700 E-4.35146
G1 F300 Z0.4
G0 F6000 X121.85 Y161.9 Z0.4
G1 F300 Z0.2
G1 F2700 E0.64854
G1 F1200 X121.85 Y73.1 E3.60204
G1 X113.15 Y73.1 E3.8914
G1 X113.15 Y161.9 E6.8449
G1 X121.85 Y161.9 E7.13427
G0 F6000 X122.25 Y162.3
;TYPE:WALL-OUTER
G1 F1200 X122.25 Y72.7 E10.11437
G1 X112.75 Y72.7 E10.43035
G1 X112.75 Y162.3 E13.41045
G1 X122.25 Y162.3 E13.72643
G1 F2700 E8.72643
G1 F300 Z0.4
G0 F6000 X116.913 Y80.142 Z0.4
G1 F300 Z0.2
G1 F2700 E13.72643
G1 F1200 X116.504 Y80.011 E13.74071
G1 X116.068 Y79.802 E13.75679
G1 X115.738 Y79.547 E13.77066
G1 X115.426 Y79.243 E13.78515
G1 X115.091 Y78.739 E13.80528
G1 X114.922 Y78.305 E13.82077
G1 X114.841 Y77.976 E13.83204
G1 X114.804 Y77.658 E13.84269
G1 X114.807 Y77.309 E13.8543
G1 X114.858 Y76.914 E13.86754
G1 X114.998 Y76.48 E13.88271
G1 X115.198 Y76.068 E13.89794
G1 X115.453 Y75.738 E13.91181
G1 X115.757 Y75.426 E13.9263
G1 X116.261 Y75.091 E13.94643
G1 X116.695 Y74.922 E13.96192
G1 X117.024 Y74.841 E13.97319
G1 X117.342 Y74.804 E13.98384
G1 X117.691 Y74.807 E13.99545
G1 X118.086 Y74.858 E14.00869
G1 X118.496 Y74.989 E14.02301
G1 X118.932 Y75.198 E14.03909
G1 X119.262 Y75.453 E14.05296
G1 X119.601 Y75.79 E14.06886
G1 X119.909 Y76.261 E14.08758
G1 X120.085 Y76.718 E14.10387
G1 X120.156 Y77.011 E14.11389
G1 X120.198 Y77.366 E14.12578
G1 X120.193 Y77.691 E14.13659
G1 X120.149 Y78.06 E14.14895
G1 X120.011 Y78.496 E14.16416
G1 X119.802 Y78.932 E14.18024
G1 X119.547 Y79.262 E14.19412
G1 X119.21 Y79.601 E14.21001
G1 X118.7 Y79.929 E14.23018
G1 X118.305 Y80.078 E14.24422
G1 X117.989 Y80.156 E14.25505
G1 X117.658 Y80.196 E14.26614
G1 X117.331 Y80.195 E14.27701
G1 X116.913 Y80.142 E14.29103
G1 F2700 E9.29103
G1 F300 Z0.4
G0 F6000 X113.51 Y161.54 Z0.4
;TYPE:SKIN
G1 F300 Z0.2
G1 F2700 E14.29103
G1 F1200 X113.511 Y78.598 E17.04969
G1 F1071.4 X113.559 Y78.193 E17.06488
G1 F997.9 X113.543 Y77.66 E17.08621
G1 F1023.5 X113.546 Y77.189 E17.10458
G1 F989.7 X113.56 Y76.744 E17.12253
G1 X113.546 Y76.642 E17.12669
G1 F1100.9 X113.51 Y76.046 E17.14833
G1 F1200 X113.511 Y73.461 E17.23431
G1 X116.457 Y73.46 E17.33229
G1 F1048 X116.863 Y73.519 E17.34792
G1 F954.3 X117.339 Y73.505 E17.36783
G1 F971.7 X117.816 Y73.508 E17.38743
G1 F943 X118.247 Y73.522 E17.40568
G1 F948.6 X118.347 Y73.506 E17.40994
G1 F1078.7 X118.857 Y73.461 E17.42888
G1 F1200 X121.49 Y73.46 E17.51646
G1 X121.49 Y76.475 E17.61674
G1 F1081.1 X121.446 Y76.921 E17.63328
G1 F1006.3 X121.457 Y77.317 E17.649
G1 F1023.5 X121.455 Y77.766 E17.66651
G1 F991.7 X121.441 Y78.247 E17.68587
G1 F1069 X121.49 Y78.878 E17.7095
G1 F1200 X121.49 Y161.54 E20.45885
G1 X113.51 Y161.54 E20.72427
G1 F2700 E15.72427
G1 F300 Z0.4
G0 F6000 X116.749 Y80.888 Z0.4
G1 F300 Z0.2
G1 F2700 E20.72427
G1 F1200 X117.307 Y80.954 E20.74295
G1 X117.745 Y80.951 E20.75752
G1 X118.074 Y80.912 E20.76854
G1 X118.456 Y80.826 E20.78157
G1 X119.087 Y80.59 E20.80397
G1 X119.695 Y80.193 E20.82812
G1 X120.139 Y79.738 E20.84927
G1 X120.452 Y79.336 E20.86621
G1 X120.715 Y78.79 E20.88637
G1 F1069 X120.946 Y78.204 E20.90989
G1 F989.7 X120.984 Y77.784 E20.92689
G1 F1023.5 X120.991 Y77.342 E20.94413
G1 F1006.3 X120.959 Y76.947 E20.95985
G1 F1081.1 X120.819 Y76.522 E20.97637
G1 F1200 X120.608 Y75.952 E20.99659
G1 X120.195 Y75.307 E21.02206
G1 X119.722 Y74.847 E21.04401
G1 X119.329 Y74.543 E21.06053
G1 X118.755 Y74.274 E21.08161
G1 F1116.3 X118.193 Y74.04 E21.10338
G1 F1002.1 X117.787 Y74.004 E21.11962
G1 F971.7 X117.3 Y73.997 E21.13962
G1 F952.4 X116.893 Y74.033 E21.15674
G1 F1048 X116.542 Y74.176 E21.17118
G1 F1200 X115.954 Y74.387 E21.19196
G1 X115.301 Y74.809 E21.21782
G1 X114.851 Y75.272 E21.23929
G1 X114.548 Y75.665 E21.2558
G1 X114.312 Y76.153 E21.27382
G1 F1132.1 X114.054 Y76.793 E21.29815
G1 F1043.5 X114.016 Y77.217 E21.31444
G1 F1023.5 X114.01 Y77.698 E21.33319
G1 F997.9 X114.048 Y78.135 E21.35074
G1 F1071.4 X114.182 Y78.48 E21.36453
G1 F1200 X114.387 Y79.044 E21.38449
G1 X114.806 Y79.696 E21.41026
G1 X115.272 Y80.149 E21.43188
G1 X115.671 Y80.457 E21.44864
G1 X116.275 Y80.738 E21.4708
G1 X116.749 Y80.888 E21.48734
G1 F2700 E16.48734
G1 F300 Z0.4
G0 F6000 X121.289 Y73.771 Z0.4
G1 F300 Z0.2
G1 F2700 E21.48734
G1 F1200 X121.178 Y73.66 E21.49256
G0 F6000 X120.612 Y73.66
G1 F1200 X121.289 Y74.337 E21.5244
G0 F6000 X121.289 Y74.903
G1 F1200 X120.046 Y73.66 E21.58287
G0 F6000 X119.481 Y73.66
G1 F1200 X121.289 Y75.468 E21.66791
G0 F6000 X121.289 Y76.034
G1 F1200 X118.915 Y73.66 E21.77958
G0 F6000 X118.731 Y74.041
G1 F1200 X118.426 Y73.737 E21.7939
G1 F2700 E16.7939
G1 F300 Z0.4
G0 F6000 X116.802 Y73.809 Z0.4
G1 F300 Z0.2
G1 F2700 E21.7939
G1 F1200 X116.731 Y73.739 E21.79722
G0 F6000 X116.43 Y74.003
G1 F1200 X116.087 Y73.66 E21.81335
G0 F6000 X116.013 Y74.152
G1 F1200 X115.521 Y73.66 E21.83649
G0 F6000 X114.956 Y73.661
G1 F1200 X115.64 Y74.345 E21.86866
G0 F6000 X115.299 Y74.57
G1 F1200 X114.39 Y73.661 E21.91142
G0 F6000 X113.825 Y73.661
G1 F1200 X114.996 Y74.832 E21.9665
G0 F6000 X114.72 Y75.122
G1 F1200 X113.709 Y74.111 E22.01406
G0 F6000 X113.709 Y74.677
G1 F1200 X114.47 Y75.438 E22.04985
G0 F6000 X114.26 Y75.794
G1 F1200 X113.709 Y75.242 E22.07579
G0 F6000 X113.709 Y75.808
G1 F1200 X114.078 Y76.177 E22.09315
G0 F6000 X113.754 Y76.419
G1 F1200 X113.895 Y76.56 E22.09978
G1 F2700 E17.09978
G1 F300 Z0.4
G0 F6000 X113.709 Y78.637 Z0.4
G1 F300 Z0.2
G1 F2700 E22.09978
G1 F1200 X114.207 Y79.135 E22.1232
G0 F6000 X113.709 Y79.203
G1 F1200 X121.29 Y86.783 E22.47977
G0 F6000 X121.29 Y87.348
G1 F1200 X113.709 Y79.768 E22.83633
G0 F6000 X113.709 Y80.334
G1 F1200 X121.29 Y87.914 E23.1929
G0 F6000 X121.29 Y88.48
G1 F1200 X113.709 Y80.9 E23.54946
G0 F6000 X113.709 Y81.465
G1 F1200 X121.29 Y89.045 E23.90602
G0 F6000 X121.29 Y89.611
G1 F1200 X113.709 Y82.031 E24.26259
G0 F6000 X113.709 Y82.597
G1 F1200 X121.29 Y90.177 E24.61915
G0 F6000 X121.29 Y90.743
G1 F1200 X113.709 Y83.162 E24.97574
G0 F6000 X113.709 Y83.728
G1 F1200 X121.29 Y91.308 E25.3323
G0 F6000 X121.29 Y91.874
G1 F1200 X113.709 Y84.294 E25.68886
G0 F6000 X113.709 Y84.859
G1 F1200 X121.29 Y92.44 E26.04545
G0 F6000 X121.29 Y93.005
G1 F1200 X113.709 Y85.425 E26.40201
G0 F6000 X113.709 Y85.991
G1 F1200 X121.29 Y93.571 E26.75858
G0 F6000 X121.29 Y94.137
G1 F1200 X113.709 Y86.556 E27.11516
G0 F6000 X113.709 Y87.122
G1 F1200 X121.29 Y94.702 E27.47173
G0 F6000 X121.29 Y95.268
G1 F1200 X113.709 Y87.688 E27.82829
G0 F6000 X113.709 Y88.253
G1 F1200 X121.29 Y95.834 E28.18488
G0 F6000 X121.29 Y96.399
G1 F1200 X113.709 Y88.819 E28.54144
G0 F6000 X113.709 Y89.385
G1 F1200 X121.29 Y96.965 E28.898
G0 F6000 X121.29 Y97.531
G1 F1200 X113.709 Y89.951 E29.25457
G0 F6000 X113.709 Y90.516
G1 F1200 X121.29 Y98.096 E29.61113
G0 F6000 X121.29 Y98.662
G1 F1200 X113.709 Y91.082 E29.9677
G0 F6000 X113.709 Y91.648
G1 F1200 X121.29 Y99.228 E30.32426
G0 F6000 X121.29 Y99.793
G1 F1200 X113.709 Y92.213 E30.68082
G0 F6000 X113.709 Y92.779
G1 F1200 X121.29 Y100.359 E31.03739
G0 F6000 X121.29 Y100.925
G1 F1200 X113.709 Y93.345 E31.39395
G0 F6000 X113.709 Y93.91
G1 F1200 X121.29 Y101.491 E31.75054
G0 F6000 X121.29 Y102.056
G1 F1200 X113.709 Y94.476 E32.1071
G0 F6000 X113.709 Y95.042
G1 F1200 X121.29 Y102.622 E32.46366
G0 F6000 X121.29 Y103.188
G1 F1200 X113.709 Y95.607 E32.82025
G0 F6000 X113.709 Y96.173
G1 F1200 X121.29 Y103.753 E33.17681
G0 F6000 X121.29 Y104.319
G1 F1200 X113.709 Y96.739 E33.53338
G0 F6000 X113.709 Y97.304
G1 F1200 X121.29 Y104.885 E33.88996
G0 F6000 X121.29 Y105.45
G1 F1200 X113.709 Y97.87 E34.24653
G0 F6000 X113.709 Y98.436
G1 F1200 X121.29 Y106.016 E34.60309
G0 F6000 X121.29 Y106.582
G1 F1200 X113.709 Y99.002 E34.95965
G0 F6000 X113.709 Y99.567
G1 F1200 X121.29 Y107.147 E35.31622
G0 F6000 X121.29 Y107.713
G1 F1200 X113.709 Y100.133 E35.67278
G0 F6000 X113.709 Y100.699
G1 F1200 X121.29 Y108.279 E36.02934
G0 F6000 X121.29 Y108.844
G1 F1200 X113.709 Y101.264 E36.38591
G0 F6000 X113.709 Y101.83
G1 F1200 X121.29 Y109.41 E36.74247
G0 F6000 X121.29 Y109.976
G1 F1200 X113.709 Y102.396 E37.09904
G0 F6000 X113.709 Y102.961
G1 F1200 X121.29 Y110.542 E37.45562
G0 F6000 X121.29 Y111.107
G1 F1200 X113.709 Y103.527 E37.81219
G0 F6000 X113.709 Y104.093
G1 F1200 X121.29 Y111.673 E38.16875
G0 F6000 X121.29 Y112.239
G1 F1200 X113.709 Y104.658 E38.52534
G0 F6000 X113.709 Y105.224
G1 F1200 X121.29 Y112.804 E38.8819
G0 F6000 X121.29 Y113.37
G1 F1200 X113.709 Y105.79 E39.23846
G0 F6000 X113.709 Y106.355
G1 F1200 X121.29 Y113.936 E39.59505
G0 F6000 X121.29 Y114.501
G1 F1200 X113.709 Y106.921 E39.95161
G0 F6000 X113.709 Y107.487
G1 F1200 X121.29 Y115.067 E40.30818
G0 F6000 X121.29 Y115.633
G1 F1200 X113.709 Y108.052 E40.66476
G0 F6000 X113.709 Y108.618
G1 F1200 X121.29 Y116.198 E41.02133
G0 F6000 X121.29 Y116.764
G1 F1200 X113.709 Y109.184 E41.37789
G0 F6000 X113.709 Y109.75
G1 F1200 X121.29 Y117.33 E41.73445
G0 F6000 X121.29 Y117.895
G1 F1200 X113.709 Y110.315 E42.09102
G0 F6000 X113.709 Y110.881
G1 F1200 X121.29 Y118.461 E42.44758
G0 F6000 X121.29 Y119.027
G1 F1200 X113.709 Y111.447 E42.80415
G0 F6000 X113.709 Y112.012
G1 F1200 X121.29 Y119.592 E43.16071
G0 F6000 X121.29 Y120.158
G1 F1200 X113.709 Y112.578 E43.51727
G0 F6000 X113.709 Y113.144
G1 F1200 X121.29 Y120.724 E43.87384
G0 F6000 X121.29 Y121.29
G1 F1200 X113.709 Y113.709 E44.23042
G0 F6000 X113.709 Y114.275
G1 F1200 X121.29 Y121.855 E44.58699
G0 F6000 X121.29 Y122.421
G1 F1200 X113.709 Y114.841 E44.94355
G0 F6000 X113.709 Y115.406
G1 F1200 X121.29 Y122.987 E45.30014
G0 F6000 X121.29 Y123.552
G1 F1200 X113.709 Y115.972 E45.6567
G0 F6000 X113.709 Y116.538
G1 F1200 X121.29 Y124.118 E46.01326
G0 F6000 X121.29 Y124.684
G1 F1200 X113.709 Y117.103 E46.36985
G0 F6000 X113.709 Y117.669
G1 F1200 X121.29 Y125.249 E46.72641
G0 F6000 X121.29 Y125.815
G1 F1200 X113.709 Y118.235 E47.08298
G0 F6000 X113.709 Y118.801
G1 F1200 X121.29 Y126.381 E47.43954
G0 F6000 X121.29 Y126.946
G1 F1200 X113.709 Y119.366 E47.7961
G0 F6000 X113.709 Y119.932
G1 F1200 X121.29 Y127.512 E48.15267
G0 F6000 X121.29 Y128.078
G1 F1200 X113.709 Y120.498 E48.50923
G0 F6000 X113.709 Y121.063
G1 F1200 X121.29 Y128.643 E48.86579
G0 F6000 X121.29 Y129.209
G1 F1200 X113.709 Y121.629 E49.22236
G0 F6000 X113.709 Y122.195
G1 F1200 X121.29 Y129.775 E49.57892
G0 F6000 X121.29 Y130.34
G1 F1200 X113.709 Y122.76 E49.93549
G0 F6000 X113.709 Y123.326
G1 F1200 X121.29 Y130.906 E50.29205
G0 F6000 X121.29 Y131.472
G1 F1200 X113.709 Y123.892 E50.64861
G0 F6000 X113.709 Y124.457
G1 F1200 X121.29 Y132.038 E51.0052
G0 F6000 X121.29 Y132.603
G1 F1200 X113.709 Y125.023 E51.36176
G0 F6000 X113.709 Y125.589
G1 F1200 X121.29 Y133.169 E51.71833
G0 F6000 X121.29 Y133.735
G1 F1200 X113.709 Y126.154 E52.07491
G0 F6000 X113.709 Y126.72
G1 F1200 X121.29 Y134.3 E52.43148
G0 F6000 X121.29 Y134.866
G1 F1200 X113.709 Y127.286 E52.78804
G0 F6000 X113.709 Y127.851
G1 F1200 X121.29 Y135.432 E53.14463
G0 F6000 X121.29 Y135.997
G1 F1200 X113.709 Y128.417 E53.50119
G0 F6000 X113.709 Y128.983
G1 F1200 X121.29 Y136.563 E53.85775
G0 F6000 X121.29 Y137.129
G1 F1200 X113.709 Y129.549 E54.21432
G0 F6000 X113.709 Y130.114
G1 F1200 X121.29 Y137.694 E54.57088
G0 F6000 X121.29 Y138.26
G1 F1200 X113.709 Y130.68 E54.92744
G0 F6000 X113.709 Y131.246
G1 F1200 X121.29 Y138.826 E55.28401
G0 F6000 X121.29 Y139.391
G1 F1200 X113.709 Y131.811 E55.64057
G0 F6000 X113.709 Y132.377
G1 F1200 X121.29 Y139.957 E55.99714
G0 F6000 X121.29 Y140.523
G1 F1200 X113.709 Y132.943 E56.3537
G0 F6000 X113.709 Y133.508
G1 F1200 X121.29 Y141.089 E56.71029
G0 F6000 X121.29 Y141.654
G1 F1200 X113.709 Y134.074 E57.06685
G0 F6000 X113.709 Y134.64
G1 F1200 X121.29 Y142.22 E57.42341
G0 F6000 X121.29 Y142.786
G1 F1200 X113.709 Y135.205 E57.78
G0 F6000 X113.709 Y135.771
G1 F1200 X121.29 Y143.351 E58.13656
G0 F6000 X121.29 Y143.917
G1 F1200 X113.709 Y136.337 E58.49313
G0 F6000 X113.709 Y136.902
G1 F1200 X121.29 Y144.483 E58.84971
G0 F6000 X121.29 Y145.048
G1 F1200 X113.709 Y137.468 E59.20628
G0 F6000 X113.709 Y138.034
G1 F1200 X121.29 Y145.614 E59.56284
G0 F6000 X121.29 Y146.18
G1 F1200 X113.709 Y138.6 E59.9194
G0 F6000 X113.709 Y139.165
G1 F1200 X121.29 Y146.745 E60.27597
G0 F6000 X121.29 Y147.311
G1 F1200 X113.709 Y139.731 E60.63253
G0 F6000 X113.709 Y140.297
G1 F1200 X121.29 Y147.877 E60.98909
G0 F6000 X121.29 Y148.442
G1 F1200 X113.709 Y140.862 E61.34566
G0 F6000 X113.709 Y141.428
G1 F1200 X121.29 Y149.008 E61.70222
G0 F6000 X121.29 Y149.574
G1 F1200 X113.709 Y141.994 E62.05878
G0 F6000 X113.709 Y142.559
G1 F1200 X121.29 Y150.139 E62.41535
G0 F6000 X121.29 Y150.705
G1 F1200 X113.709 Y143.125 E62.77191
G0 F6000 X113.709 Y143.691
G1 F1200 X121.29 Y151.271 E63.12848
G0 F6000 X121.29 Y151.837
G1 F1200 X113.709 Y144.256 E63.48506
G0 F6000 X113.709 Y144.822
G1 F1200 X121.29 Y152.402 E63.84163
G0 F6000 X121.29 Y152.968
G1 F1200 X113.709 Y145.388 E64.19819
G0 F6000 X113.709 Y145.953
G1 F1200 X121.29 Y153.534 E64.55478
G0 F6000 X121.29 Y154.099
G1 F1200 X113.709 Y146.519 E64.91134
G0 F6000 X113.709 Y147.085
G1 F1200 X121.29 Y154.665 E65.2679
G0 F6000 X121.29 Y155.231
G1 F1200 X113.709 Y147.65 E65.62449
G0 F6000 X113.709 Y148.216
G1 F1200 X121.29 Y155.796 E65.98105
G0 F6000 X121.29 Y156.362
G1 F1200 X113.709 Y148.782 E66.33762
G0 F6000 X113.709 Y149.348
G1 F1200 X121.29 Y156.928 E66.69418
G0 F6000 X121.29 Y157.493
G1 F1200 X113.709 Y149.913 E67.05074
G0 F6000 X113.709 Y150.479
G1 F1200 X121.29 Y158.059 E67.40731
G0 F6000 X121.29 Y158.625
G1 F1200 X113.709 Y151.045 E67.76387
G0 F6000 X113.709 Y151.61
G1 F1200 X121.29 Y159.19 E68.12043
G0 F6000 X121.29 Y159.756
G1 F1200 X113.709 Y152.176 E68.477
G0 F6000 X113.709 Y152.742
G1 F1200 X121.29 Y160.322 E68.83356
G0 F6000 X121.29 Y160.888
G1 F1200 X113.709 Y153.307 E69.19015
G0 F6000 X113.709 Y153.873
G1 F1200 X121.175 Y161.339 E69.54133
G0 F6000 X120.609 Y161.339
G1 F1200 X113.709 Y154.439 E69.86588
G0 F6000 X113.709 Y155.004
G1 F1200 X120.044 Y161.339 E70.16386
G0 F6000 X119.478 Y161.339
G1 F1200 X113.709 Y155.57 E70.43522
G0 F6000 X113.709 Y156.136
G1 F1200 X118.912 Y161.339 E70.67995
G0 F6000 X118.347 Y161.339
