;FLAVOR:Marlin
;TIME:14069
;Filament used: 26.5308m
;Layer height: 0.4
;MINX:49.351
;MINY:39.75
;MINZ:0.24
;MAXX:196.949
;MAXY:191.749
;MAXZ:6.59
;Generated with Cura_SteamEngine 5.3.1
M140 S60
M105
M190 S60
M104 S200
M105
M109 S200
M82 ;absolute extrusion mode
; Ender 3 Custom Start G-code
G92 E0 ; Reset Extruder
G28 ; Home all axes
G1 Z2.0 F3000 ; Move Z Axis up little to prevent scratching of Heat Bed
G1 X0.1 Y20 Z0.3 F5000.0 ; Move to start position
G1 X0.1 Y200.0 Z0.3 F1500.0 E15 ; Draw the first line
G1 X0.4 Y200.0 Z0.3 F5000.0 ; Move to side a little
G1 X0.4 Y20 Z0.3 F1500.0 E30 ; Draw the second line
G92 E0 ; Reset Extruder
G1 Z2.0 F3000 ; Move Z Axis up little to prevent scratching of Heat Bed
G1 X5 Y20 Z0.3 F5000.0 ; Move over to prevent blob squish
G92 E0
G92 E0
G1 F2700 E-5
;LAYER_COUNT:13
;LAYER:-5
M107
G0 F15000 X52.17 Y68.89 Z0.24
;TYPE:SUPPORT-INTERFACE
G1 F2700 E0
G1 F2250 X52.666 Y68.583 E0.04656
G1 X52.895 Y68.456 E0.06747
G1 X53.304 Y68.261 E0.10363
G1 X53.832 Y68.041 E0.14929
G1 X53.914 Y68.029 E0.15591
G1 X54.208 Y67.941 E0.18041
G1 X54.741 Y67.812 E0.22418
G1 X55.216 Y67.738 E0.26256
G1 X55.227 Y67.747 E0.26369
G1 X55.551 Y67.715 E0.28968
G1 X55.981 Y67.7 E0.32402
G1 X65.785 Y67.701 E1.10662
G1 X66.105 Y67.707 E1.13217
G1 X66.548 Y67.69 E1.16756
G1 X66.845 Y67.665 E1.19135
G1 X67.281 Y67.65 E1.22617
G1 X77.081 Y67.651 E2.00845
G1 X77.858 Y67.689 E2.07055
G1 X78.425 Y67.782 E2.11642
G1 X78.67 Y67.833 E2.13639
G1 X79.245 Y67.993 E2.18403
G1 X79.778 Y68.203 E2.22976
G1 X80.021 Y68.314 E2.25109
G1 X80.456 Y68.543 E2.29033
G1 X81.069 Y68.816 E2.3439
G1 X81.717 Y69.012 E2.39794
G1 X82.421 Y69.129 E2.4549
G1 X83.106 Y69.154 E2.50962
G1 X83.741 Y69.097 E2.56051
G1 X84.434 Y68.95 E2.61706
G1 X85.074 Y68.724 E2.67124
G1 X85.665 Y68.429 E2.72397
G1 X86.039 Y68.191 E2.75935
G1 X86.288 Y68.017 E2.7836
G1 X86.665 Y67.783 E2.81902
G1 X86.895 Y67.656 E2.83999
G1 X87.304 Y67.461 E2.87616
G1 X87.832 Y67.241 E2.92182
G1 X87.914 Y67.229 E2.92844
G1 X88.208 Y67.141 E2.95293
G1 X88.741 Y67.012 E2.99671
G1 X89.216 Y66.938 E3.03508
G1 X89.227 Y66.947 E3.03622
G1 X89.891 Y66.888 E3.08943
G1 X90.591 Y66.754 E3.14632
G1 X91.244 Y66.541 E3.20115
G1 X91.843 Y66.259 E3.254
G1 X92.438 Y65.882 E3.31023
G1 X92.946 Y65.458 E3.36304
G1 X93.427 Y64.946 E3.41912
G1 X93.836 Y64.375 E3.47519
G1 X94.146 Y63.8 E3.52733
G1 X94.405 Y63.135 E3.5843
G1 X94.563 Y62.491 E3.63723
G1 X94.649 Y61.553 E3.71242
G1 X94.65 Y46.419 E4.92048
G1 X94.689 Y45.646 E4.98226
G1 X94.806 Y44.927 E5.04041
G1 X94.993 Y44.257 E5.09594
G1 X95.243 Y43.615 E5.15093
G1 X95.57 Y42.992 E5.2071
G1 X95.946 Y42.426 E5.26134
G1 X96.418 Y41.858 E5.32029
G1 X96.912 Y41.376 E5.37539
G1 X97.47 Y40.94 E5.43191
G1 X97.966 Y40.633 E5.47848
G1 X98.195 Y40.506 E5.49938
G1 X98.604 Y40.311 E5.53555
G1 X99.132 Y40.091 E5.58121
G1 X99.214 Y40.079 E5.58782
G1 X99.508 Y39.991 E5.61232
G1 X100.041 Y39.862 E5.65609
G1 X100.516 Y39.788 E5.69447
G1 X100.527 Y39.797 E5.6956
G1 X100.851 Y39.765 E5.72159
G1 X101.281 Y39.75 E5.75594
G1 X111.081 Y39.75 E6.53822
G1 X111.858 Y39.789 E6.60032
G1 X112.425 Y39.882 E6.64618
G1 X112.67 Y39.933 E6.66616
G1 X113.245 Y40.093 E6.7138
G1 X113.889 Y40.346 E6.76903
G1 X114.53 Y40.682 E6.8268
G1 X115.092 Y41.059 E6.88082
G1 X115.642 Y41.518 E6.93801
G1 X116.124 Y42.013 E6.99316
G1 X116.559 Y42.569 E7.04951
G1 X116.932 Y43.169 E7.1059
G1 X117.189 Y43.705 E7.15335
G1 X117.409 Y44.232 E7.19894
G1 X117.421 Y44.314 E7.20556
G1 X117.509 Y44.608 E7.23005
G1 X117.638 Y45.141 E7.27383
G1 X117.712 Y45.616 E7.3122
G1 X117.703 Y45.627 E7.31334
G1 X117.735 Y45.951 E7.33932
G1 X117.75 Y46.352 E7.37136
G1 X117.75 Y49.186 E7.59758
G1 X117.793 Y49.833 E7.64934
G1 X117.92 Y50.498 E7.70338
G1 X118.136 Y51.156 E7.75866
G1 X118.425 Y51.765 E7.81247
G1 X118.795 Y52.344 E7.86732
G1 X119.233 Y52.868 E7.92184
G1 X119.744 Y53.342 E7.97748
G1 X120.285 Y53.729 E8.03057
G1 X120.885 Y54.052 E8.08497
G1 X121.528 Y54.302 E8.14004
G1 X122.18 Y54.462 E8.19363
G1 X123.119 Y54.549 E8.2689
G1 X159.631 Y54.55 E11.18345
G1 X160.408 Y54.589 E11.24555
G1 X160.975 Y54.682 E11.29141
G1 X161.22 Y54.733 E11.31139
G1 X161.795 Y54.893 E11.35903
G1 X162.439 Y55.146 E11.41426
G1 X163.08 Y55.482 E11.47204
G1 X163.642 Y55.859 E11.52606
G1 X164.192 Y56.318 E11.58324
G1 X164.674 Y56.813 E11.63839
G1 X165.109 Y57.369 E11.69474
G1 X165.482 Y57.969 E11.75114
G1 X165.739 Y58.505 E11.79859
G1 X165.959 Y59.032 E11.84417
G1 X165.971 Y59.114 E11.85079
G1 X166.059 Y59.408 E11.87528
G1 X166.188 Y59.943 E11.91921
G1 X166.26 Y60.4 E11.95614
G1 X166.25 Y60.412 E11.95739
G1 X166.283 Y60.744 E11.98402
G1 X166.3 Y61.152 E12.01662
G1 X166.3 Y62.036 E12.08718
G1 X166.343 Y62.682 E12.13887
G1 X166.47 Y63.349 E12.19306
G1 X166.686 Y64.007 E12.24835
G1 X166.979 Y64.624 E12.30287
G1 X167.338 Y65.185 E12.35604
G1 X167.776 Y65.71 E12.41061
G1 X168.287 Y66.186 E12.46636
G1 X168.814 Y66.565 E12.51817
G1 X169.413 Y66.891 E12.57261
G1 X170.077 Y67.152 E12.62956
G1 X170.737 Y67.314 E12.68381
G1 X171.669 Y67.399 E12.75852
G1 X174.687 Y67.4 E12.99943
G1 X175.345 Y67.356 E13.05207
G1 X176.011 Y67.228 E13.1062
G1 X176.667 Y67.012 E13.16133
G1 X177.24 Y66.742 E13.2119
G1 X177.681 Y66.505 E13.25186
G1 X177.701 Y66.511 E13.25353
G1 X178.336 Y66.24 E13.30864
G1 X178.414 Y66.229 E13.31493
G1 X178.708 Y66.141 E13.33942
G1 X179.241 Y66.012 E13.3832
G1 X179.716 Y65.938 E13.42157
G1 X179.727 Y65.947 E13.42271
G1 X180.051 Y65.915 E13.4487
G1 X180.481 Y65.9 E13.48304
G1 X190.281 Y65.901 E14.26532
G1 X191.058 Y65.939 E14.32742
G1 X191.625 Y66.032 E14.37328
G1 X191.87 Y66.083 E14.39326
G1 X192.445 Y66.243 E14.4409
G1 X193.089 Y66.496 E14.49613
G1 X193.73 Y66.832 E14.5539
G1 X194.296 Y67.212 E14.60832
G1 X194.849 Y67.673 E14.66579
G1 X195.337 Y68.179 E14.72191
G1 X195.761 Y68.722 E14.7769
G1 X196.064 Y69.21 E14.82275
G1 X196.189 Y69.438 E14.84351
G1 X196.389 Y69.855 E14.88043
G1 X196.609 Y70.382 E14.92601
G1 X196.621 Y70.464 E14.93263
G1 X196.709 Y70.758 E14.95712
G1 X196.838 Y71.291 E15.0009
G1 X196.912 Y71.766 E15.03927
G1 X196.903 Y71.777 E15.04041
G1 X196.935 Y72.101 E15.0664
G1 X196.949 Y72.502 E15.09842
G1 X196.947 Y162.537 E22.28541
G1 X196.91 Y163.207 E22.33897
G1 X196.82 Y163.767 E22.38425
G1 X196.767 Y164.02 E22.40488
G1 X196.607 Y164.593 E22.45237
G1 X196.357 Y165.235 E22.50737
G1 X196.03 Y165.858 E22.56353
G1 X195.65 Y166.43 E22.61835
G1 X195.182 Y166.992 E22.67673
G1 X194.687 Y167.474 E22.73188
G1 X194.129 Y167.91 E22.7884
G1 X193.634 Y168.217 E22.8349
G1 X193.407 Y168.343 E22.85562
G1 X192.997 Y168.538 E22.89187
G1 X192.468 Y168.759 E22.93763
G1 X192.386 Y168.771 E22.94424
G1 X192.092 Y168.859 E22.96874
G1 X191.559 Y168.988 E23.01252
G1 X191.084 Y169.063 E23.0509
G1 X191.073 Y169.053 E23.05209
G1 X190.749 Y169.085 E23.07808
G1 X190.319 Y169.099 E23.11242
G1 X180.519 Y169.1 E23.8947
G1 X179.742 Y169.061 E23.9568
G1 X179.175 Y168.968 E24.00267
G1 X178.93 Y168.917 E24.02264
G1 X178.354 Y168.757 E24.07036
G1 X177.701 Y168.5 E24.12638
G1 X177.127 Y168.198 E24.17815
G1 X176.538 Y167.937 E24.22958
G1 X175.872 Y167.738 E24.28506
G1 X175.211 Y167.628 E24.33855
G1 X174.667 Y167.6 E24.38204
G1 X173.495 Y167.599 E24.47559
G1 X172.831 Y167.641 E24.5287
G1 X172.156 Y167.769 E24.58354
G1 X171.493 Y167.986 E24.63923
G1 X170.889 Y168.272 E24.69257
G1 X170.311 Y168.641 E24.74731
G1 X169.804 Y169.064 E24.80002
G1 X169.325 Y169.574 E24.85587
G1 X168.924 Y170.131 E24.91066
G1 X168.595 Y170.741 E24.96598
G1 X168.344 Y171.392 E25.02167
G1 X168.188 Y172.027 E25.07387
G1 X168.101 Y172.969 E25.14938
G1 X168.1 Y173.781 E25.2142
G1 X168.061 Y174.554 E25.27598
G1 X167.944 Y175.273 E25.33413
G1 X167.757 Y175.943 E25.38966
G1 X167.507 Y176.585 E25.44465
G1 X167.18 Y177.208 E25.50082
G1 X166.802 Y177.778 E25.55541
G1 X166.406 Y178.255 E25.6049
G1 X165.785 Y178.935 E25.67841
G1 X165.391 Y179.495 E25.73307
G1 X165.065 Y180.116 E25.78905
G1 X164.827 Y180.757 E25.84364
G1 X164.68 Y181.385 E25.89512
G1 X164.601 Y182.278 E25.96668
G1 X164.6 Y185.081 E26.19043
G1 X164.561 Y185.854 E26.25221
G1 X164.444 Y186.573 E26.31036
G1 X164.257 Y187.243 E26.36589
G1 X164.007 Y187.885 E26.42088
G1 X163.68 Y188.508 E26.47705
G1 X163.3 Y189.08 E26.53186
G1 X162.832 Y189.642 E26.59024
G1 X162.337 Y190.124 E26.64539
G1 X161.779 Y190.56 E26.70192
G1 X161.284 Y190.867 E26.74842
G1 X161.057 Y190.993 E26.76914
G1 X160.647 Y191.188 E26.80538
G1 X160.118 Y191.409 E26.85115
G1 X160.036 Y191.421 E26.85776
G1 X159.742 Y191.509 E26.88226
G1 X159.209 Y191.638 E26.92603
G1 X158.734 Y191.713 E26.96442
G1 X158.723 Y191.703 E26.96561
G1 X158.399 Y191.735 E26.99159
G1 X157.969 Y191.749 E27.02594
G1 X76.963 Y191.747 E33.49219
G1 X76.289 Y191.71 E33.54607
G1 X75.725 Y191.618 E33.59168
G1 X75.48 Y191.567 E33.61166
G1 X74.904 Y191.407 E33.65938
G1 X74.259 Y191.153 E33.71472
G1 X73.627 Y190.821 E33.7717
G1 X73.059 Y190.441 E33.82625
G1 X72.507 Y189.982 E33.88356
G1 X72.024 Y189.486 E33.93882
G1 X71.59 Y188.93 E33.99513
G1 X71.283 Y188.434 E34.04169
G1 X71.156 Y188.205 E34.06259
G1 X70.961 Y187.796 E34.09876
G1 X70.741 Y187.268 E34.14442
G1 X70.729 Y187.186 E34.15104
G1 X70.641 Y186.892 E34.17553
G1 X70.512 Y186.359 E34.21931
G1 X70.438 Y185.884 E34.25768
G1 X70.447 Y185.873 E34.25882
G1 X70.415 Y185.549 E34.28481
G1 X70.401 Y185.148 E34.31683
G1 X70.4 Y182.272 E34.54641
G1 X70.357 Y181.626 E34.59809
G1 X70.23 Y180.959 E34.65229
G1 X70.017 Y180.309 E34.70689
G1 X69.725 Y179.691 E34.76145
G1 X69.338 Y179.092 E34.81838
G1 X68.895 Y178.568 E34.87315
G1 X68.523 Y178.185 E34.91577
G1 X68.09 Y177.63 E34.97196
G1 X67.783 Y177.134 E35.01852
G1 X67.656 Y176.905 E35.03943
G1 X67.461 Y176.496 E35.07559
G1 X67.241 Y175.968 E35.12125
G1 X67.229 Y175.886 E35.12787
G1 X67.141 Y175.592 E35.15237
G1 X67.012 Y175.059 E35.19614
G1 X66.938 Y174.584 E35.23452
G1 X66.947 Y174.573 E35.23565
G1 X66.915 Y174.248 E35.26172
G1 X66.9 Y173.848 E35.29367
G1 X66.9 Y171.238 E35.50201
G1 X66.857 Y170.591 E35.55377
G1 X66.731 Y169.93 E35.60749
G1 X66.514 Y169.267 E35.66317
G1 X66.234 Y168.674 E35.71552
G1 X65.841 Y168.062 E35.77358
G1 X65.432 Y167.572 E35.82453
G1 X64.9 Y167.078 E35.88248
G1 X64.383 Y166.708 E35.93323
G1 X63.783 Y166.358 E35.98867
G1 X63.408 Y166.107 E36.0247
G1 X63.219 Y165.967 E36.04347
G1 X62.654 Y165.599 E36.09729
G1 X62.012 Y165.29 E36.15417
G1 X61.383 Y165.08 E36.2071
G1 X60.686 Y164.944 E36.26379
G1 X60.027 Y164.9 E36.31651
G1 X56.019 Y164.9 E36.63645
G1 X55.242 Y164.861 E36.69855
G1 X54.675 Y164.768 E36.74441
G1 X54.43 Y164.717 E36.76439
G1 X53.854 Y164.557 E36.81211
G1 X53.209 Y164.303 E36.86744
G1 X52.577 Y163.971 E36.92443
G1 X52.009 Y163.591 E36.97898
G1 X51.457 Y163.132 E37.03629
G1 X50.974 Y162.636 E37.09155
G1 X50.54 Y162.08 E37.14785
G1 X50.233 Y161.584 E37.19442
G1 X50.106 Y161.355 E37.21532
G1 X49.911 Y160.946 E37.25149
G1 X49.691 Y160.418 E37.29715
G1 X49.679 Y160.336 E37.30376
G1 X49.591 Y160.042 E37.32826
G1 X49.462 Y159.509 E37.37204
G1 X49.388 Y159.034 E37.41041
G1 X49.397 Y159.023 E37.41154
G1 X49.365 Y158.699 E37.43753
G1 X49.351 Y158.298 E37.46956
G1 X49.353 Y74.263 E44.1776
G1 X49.39 Y73.592 E44.23124
G1 X49.506 Y72.878 E44.28898
G1 X49.693 Y72.207 E44.34459
G1 X49.943 Y71.565 E44.39958
G1 X50.27 Y70.942 E44.45575
G1 X50.646 Y70.376 E44.50999
G1 X51.118 Y69.808 E44.56894
G1 X51.612 Y69.326 E44.62403
G1 X52.17 Y68.89 E44.68056
G0 F15000 X53.006 Y68.846
G1 F2250 X164.541 Y180.38 E57.27154
G1 F2700 E52.27154
G1 F300 Z0.44
G0 F15000 X165.321 Y178.898 Z0.44
G1 F300 Z0.24
G1 F2700 E57.27154
G1 F2250 X54.665 Y68.242 E69.76335
G1 F2700 E64.76335
G1 F300 Z0.44
G0 F15000 X56.786 Y68.1 Z0.44
G1 F300 Z0.24
G1 F2700 E69.76335
G1 F2250 X166.364 Y177.678 E82.13346
G1 F2700 E77.13346
G1 F300 Z0.44
G0 F15000 X167.204 Y176.255 Z0.44
G1 F300 Z0.24
G1 F2700 E82.13346
G1 F2250 X59.049 Y68.1 E94.34293
G1 F2700 E89.34293
G1 F300 Z0.44
G0 F15000 X61.311 Y68.1 Z0.44
G1 F300 Z0.24
G1 F2700 E94.34293
G1 F2250 X167.666 Y174.454 E106.34914
G1 F2700 E101.34914
G1 F300 Z0.44
G0 F15000 X167.761 Y172.287 Z0.44
G1 F300 Z0.24
G1 F2700 E106.34914
G1 F2250 X63.574 Y68.1 E118.11067
G1 F2700 E113.11067
G1 F300 Z0.44
G0 F15000 X65.838 Y68.101 Z0.44
G1 F300 Z0.24
G1 F2700 E118.11067
G1 F2250 X168.26 Y170.523 E129.67295
G1 F2700 E124.67295
G1 F300 Z0.44
G0 F15000 X169.163 Y169.163 Z0.44
G1 F300 Z0.24
G1 F2700 E129.67295
G1 F2250 X68.049 Y68.049 E141.08757
G1 F2700 E136.08757
G1 F300 Z0.44
G0 F15000 X70.312 Y68.049 Z0.44
G1 F300 Z0.24
G1 F2700 E141.08757
G1 F2250 X170.382 Y168.119 E152.38434
G1 F2700 E147.38434
G1 F300 Z0.44
G0 F15000 X171.945 Y167.419 Z0.44
G1 F300 Z0.24
G1 F2700 E152.38434
G1 F2250 X72.576 Y68.05 E163.60197
G1 F2700 E158.60197
G1 F300 Z0.44
G0 F15000 X74.838 Y68.05 Z0.44
G1 F300 Z0.24
G1 F2700 E163.60197
G1 F2250 X173.987 Y167.198 E174.79471
G1 F2700 E169.79471
G1 F300 Z0.44
G0 F15000 X176.585 Y167.534 Z0.44
G1 F300 Z0.24
G1 F2700 E174.79471
G1 F2250 X77.103 Y68.052 E186.0251
G1 F2700 E181.0251
G1 F300 Z0.44
G0 F15000 X80.144 Y68.831 Z0.44
G1 F300 Z0.24
G1 F2700 E186.0251
G1 F2250 X179.986 Y168.673 E197.29613
G1 F2700 E192.29613
G1 F300 Z0.44
G0 F15000 X182.275 Y168.699 Z0.44
G1 F300 Z0.24
G1 F2700 E197.29613
G1 F2250 X83.129 Y69.553 E208.48858
G1 F2700 E203.48858
G1 F300 Z0.44
G0 F15000 X85.009 Y69.17 Z0.44
G1 F300 Z0.24
G1 F2700 E208.48858
G1 F2250 X184.538 Y168.699 E219.72428
G1 F2700 E214.72428
G1 F300 Z0.44
G0 F15000 X186.801 Y168.699 Z0.44
G1 F300 Z0.24
G1 F2700 E219.72428
G1 F2250 X86.475 Y68.373 E231.04994
G1 F2700 E226.04994
G1 F300 Z0.44
G0 F15000 X87.983 Y67.619 Z0.44
G1 F300 Z0.24
G1 F2700 E231.04994
G1 F2250 X189.064 Y168.699 E242.46078
G1 F2700 E237.46078
G1 F300 Z0.44
G0 F15000 X191.256 Y168.629 Z0.44
G1 F300 Z0.24
G1 F2700 E242.46078
G1 F2250 X89.914 Y67.286 E253.9012
G1 F2700 E248.9012
G1 F300 Z0.44
G0 F15000 X91.67 Y66.78 Z0.44
G1 F300 Z0.24
G1 F2700 E253.9012
G1 F2250 X192.988 Y168.098 E265.33885
G1 F2700 E260.33885
G1 F300 Z0.44
G0 F15000 X194.367 Y167.214 Z0.44
G1 F300 Z0.24
G1 F2700 E265.33885
G1 F2250 X93.047 Y65.894 E276.77673
G1 F2700 E271.77673
G1 F300 Z0.44
G0 F15000 X94.103 Y64.687 Z0.44
G1 F300 Z0.24
G1 F2700 E276.77673
G1 F2250 X195.439 Y166.023 E288.21641
G1 F2700 E283.21641
G1 F300 Z0.44
G0 F15000 X196.203 Y164.525 Z0.44
G1 F300 Z0.24
G1 F2700 E288.21641
G1 F2250 X94.814 Y63.136 E299.66208
G1 F2700 E294.66208
G1 F300 Z0.44
G0 F15000 X95.047 Y61.106 Z0.44
G1 F300 Z0.24
G1 F2700 E299.66208
G1 F2250 X196.542 Y162.601 E311.11971
G1 F2700 E306.11971
G1 F300 Z0.44
G0 F15000 X196.546 Y160.342 Z0.44
G1 F300 Z0.24
G1 F2700 E311.11971
G1 F2250 X95.047 Y58.844 E322.57774
G1 F2700 E317.57774
G1 F300 Z0.44
G0 F15000 X95.047 Y56.581 Z0.44
G1 F300 Z0.24
G1 F2700 E322.57774
G1 F2250 X196.546 Y158.08 E334.03582
G1 F2700 E329.03582
G1 F300 Z0.44
G0 F15000 X196.546 Y155.817 Z0.44
G1 F300 Z0.24
G1 F2700 E334.03582
G1 F2250 X95.047 Y54.318 E345.49391
G1 F2700 E340.49391
G1 F300 Z0.44
G0 F15000 X95.048 Y52.056 Z0.44
G1 F300 Z0.24
G1 F2700 E345.49391
G1 F2250 X196.546 Y153.554 E356.95188
G1 F2700 E351.95188
G1 F300 Z0.44
G0 F15000 X196.546 Y151.291 Z0.44
G1 F300 Z0.24
G1 F2700 E356.95188
G1 F2250 X95.048 Y49.793 E368.40985
G1 F2700 E363.40985
G1 F300 Z0.44
G0 F15000 X95.048 Y47.531 Z0.44
G1 F300 Z0.24
G1 F2700 E368.40985
G1 F2250 X196.546 Y149.029 E379.86782
G1 F2700 E374.86782
G1 F300 Z0.44
G0 F15000 X196.546 Y146.766 Z0.44
G1 F300 Z0.24
G1 F2700 E379.86782
G1 F2250 X95.139 Y45.358 E391.31558
G1 F2700 E386.31558
G1 F300 Z0.44
G0 F15000 X95.681 Y43.638 Z0.44
G1 F300 Z0.24
G1 F2700 E391.31558
G1 F2250 X196.546 Y144.503 E402.70209
G1 F2700 E397.70209
G1 F300 Z0.44
G0 F15000 X196.546 Y142.24 Z0.44
G1 F300 Z0.24
G1 F2700 E402.70209
G1 F2250 X96.585 Y42.28 E413.9865
G1 F2700 E408.9865
G1 F300 Z0.44
G0 F15000 X97.785 Y41.216 Z0.44
G1 F300 Z0.24
G1 F2700 E413.9865
G1 F2250 X196.546 Y139.978 E425.13555
G1 F2700 E420.13555
G1 F300 Z0.44
G0 F15000 X196.546 Y137.715 Z0.44
G1 F300 Z0.24
G1 F2700 E425.13555
G1 F2250 X99.298 Y40.467 E436.11374
G1 F2700 E431.11374
G1 F300 Z0.44
G0 F15000 X101.245 Y40.151 Z0.44
G1 F300 Z0.24
G1 F2700 E436.11374
G1 F2250 X196.546 Y135.452 E446.87214
G1 F2700 E441.87214
